<?xml version="1.0" encoding="UTF-8"?>
<map version="1.10" tiledversion="1.12.1" orientation="orthogonal" renderorder="right-down" width="15" height="15" tilewidth="16" tileheight="16" infinite="1" nextlayerid="2" nextobjectid="1">
 <tileset firstgid="1" name="Farm_tileset" tilewidth="16" tileheight="16" tilecount="486" columns="18">
  <image source="../sucai/Farm_tileset.png" width="288" height="432"/>
 </tileset>
 <tileset firstgid="487" name="mine" tilewidth="16" tileheight="16" tilecount="1024" columns="32">
  <image source="../sucai/mine.png" width="512" height="512"/>
 </tileset>
 <tileset firstgid="1511" name="medieval_building_Props_Decor" tilewidth="16" tileheight="16" tilecount="900" columns="30">
  <image source="../sucai/medieval_building/medieval_building_Props_Decor.png" width="480" height="480"/>
 </tileset>
 <tileset firstgid="2411" name="medieval_building_Roofs" tilewidth="16" tileheight="16" tilecount="72" columns="12">
  <image source="../sucai/medieval_building/medieval_building_Roofs.png" width="192" height="96"/>
 </tileset>
 <tileset firstgid="2483" name="medieval_building_Walls" tilewidth="16" tileheight="16" tilecount="144" columns="24">
  <image source="../sucai/medieval_building/medieval_building_Walls.png" width="384" height="96"/>
 </tileset>
 <tileset firstgid="2627" name="building_tavern" tilewidth="16" tileheight="16" tilecount="256" columns="16">
  <image source="../sucai/building_tavern.png" width="256" height="256"/>
 </tileset>
 <layer id="1" name="图块层 1" width="15" height="15">
  <data encoding="csv">
   <chunk x="-16" y="-32" width="16" height="16">
0,0,0,0,0,0,0,0,0,0,0,0,0,0,0,0,
0,0,0,0,0,0,0,0,0,0,0,0,0,0,0,0,
0,0,0,0,0,0,0,0,0,0,0,0,0,0,0,0,
0,0,0,0,0,0,0,0,0,0,0,0,0,0,0,0,
0,0,0,0,0,0,0,0,0,0,0,0,0,0,0,0,
0,0,0,0,0,0,0,0,0,0,0,0,0,0,0,0,
0,0,0,0,0,0,0,0,0,0,0,0,0,0,0,0,
0,0,0,0,0,0,0,0,0,0,0,0,0,0,0,0,
0,0,0,0,0,0,0,0,0,0,0,0,0,0,0,0,
0,0,0,0,0,0,0,0,0,0,0,0,0,0,0,0,
0,0,0,0,0,0,0,0,0,0,0,0,0,0,0,0,
0,0,0,0,0,0,0,0,0,0,0,0,0,0,0,0,
0,0,0,0,0,0,0,0,0,0,0,0,0,0,0,0,
0,0,0,0,0,0,0,0,0,0,0,0,0,0,0,0,
0,0,0,0,0,0,0,0,0,0,0,0,0,0,0,0,
0,0,0,0,2630,2631,2632,2633,2634,2635,2636,2637,2638,2639,0,0
</chunk>
   <chunk x="-16" y="-16" width="16" height="16">
0,0,0,0,2646,2647,2648,2649,2650,2651,2652,2653,2654,2655,0,0,
0,0,0,0,2662,2663,2664,2665,2666,2667,2668,2669,2670,2671,0,0,
0,0,0,0,2678,2679,2680,2681,2682,2683,2684,2685,2686,2687,0,0,
0,0,0,0,2694,2695,2696,2697,2698,2699,2700,2701,2702,2703,0,0,
0,0,0,0,2710,2711,2712,2713,2714,2715,2716,2717,2718,2719,0,0,
0,0,0,0,2726,2727,2728,2729,2730,2731,2732,2733,2734,2735,0,0,
0,0,0,0,2742,2743,2744,2745,2746,2747,2748,2749,2750,2751,0,0,
0,0,0,0,2758,2759,2760,2761,2762,2763,2764,2765,2766,2767,0,0,
0,0,0,0,2774,2775,2776,2777,2778,2779,2780,2781,2782,2783,0,0,
0,0,0,0,2790,2791,2792,2793,2794,2795,2796,2797,2798,2799,0,0,
0,0,0,0,2806,2807,2808,2809,2810,2811,2812,2813,2814,2815,0,0,
0,0,0,0,2822,2823,2824,2825,2826,2827,2828,2829,2830,2831,0,0,
0,0,0,0,2838,2839,2840,2841,2842,2843,2844,2845,2846,2847,0,0,
0,0,0,0,0,0,0,0,0,0,0,0,0,0,0,0,
0,0,0,0,0,0,0,0,0,0,0,0,0,0,0,0,
0,0,0,0,0,0,0,0,0,0,0,0,0,0,0,0
</chunk>
   <chunk x="16" y="-16" width="16" height="16">
0,0,0,0,0,0,0,0,0,0,0,0,581,582,0,0,
0,0,0,0,0,0,0,0,0,0,0,0,613,614,0,0,
0,0,0,0,0,0,0,0,0,0,0,0,613,614,0,0,
0,0,0,0,0,0,0,0,0,0,0,0,613,614,0,0,
0,0,0,0,0,0,0,0,0,0,0,0,613,614,0,0,
0,0,0,0,0,0,0,0,0,0,0,0,613,614,0,0,
0,0,0,0,0,0,0,0,0,0,0,0,613,614,0,0,
0,0,0,0,0,0,0,0,0,0,0,0,581,582,0,0,
0,0,0,0,0,0,0,0,0,0,0,0,581,582,0,0,
0,0,0,0,0,0,0,0,0,0,0,0,581,582,0,0,
0,0,0,0,0,0,0,0,0,0,0,0,581,582,0,0,
0,0,0,0,0,0,0,0,0,0,0,0,581,582,0,0,
0,0,0,0,0,0,0,0,0,0,0,0,581,582,0,0,
0,0,0,0,0,0,0,0,0,0,0,0,581,582,0,0,
0,0,0,0,0,0,0,0,0,0,0,0,581,582,0,0,
0,0,0,0,0,0,0,0,0,0,0,0,581,582,0,0
</chunk>
   <chunk x="16" y="0" width="16" height="16">
0,0,0,0,0,0,0,0,0,0,0,0,581,582,0,0,
0,0,0,0,0,0,0,0,0,0,0,0,581,582,0,0,
0,0,0,0,0,0,0,0,0,0,0,0,581,582,0,0,
0,0,0,0,0,0,0,0,0,0,0,0,581,582,0,0,
0,0,0,0,0,0,0,0,0,0,0,0,581,582,0,0,
0,0,0,0,0,0,0,0,0,0,0,0,581,582,0,0,
0,0,0,0,0,0,0,0,0,0,0,0,581,582,0,0,
0,0,0,0,0,0,0,0,0,0,0,0,581,582,0,0,
0,0,0,0,0,0,0,0,0,0,0,0,581,582,0,0,
0,0,0,0,0,0,0,0,0,0,0,0,581,582,0,0,
0,0,0,0,0,0,0,0,0,0,0,0,581,582,0,0,
0,0,0,0,0,0,0,0,0,0,0,0,581,582,0,0,
0,0,0,0,0,0,0,0,0,0,0,0,581,582,0,0,
0,0,0,0,0,0,0,0,0,0,0,0,581,582,0,0,
0,0,0,0,0,0,0,0,0,0,0,0,581,582,0,0,
0,0,0,0,0,0,0,0,0,0,0,0,581,582,0,0
</chunk>
   <chunk x="16" y="16" width="16" height="16">
0,0,0,0,0,0,0,0,0,0,0,0,581,582,0,0,
0,0,0,0,0,0,0,0,0,0,0,0,581,582,0,0,
0,0,0,0,0,0,0,0,0,0,0,0,581,582,0,0,
0,0,0,0,0,0,0,0,0,0,0,0,613,614,0,0,
0,0,0,0,0,0,0,0,0,0,0,0,0,0,0,0,
0,0,0,0,0,0,0,0,0,0,0,0,0,0,0,0,
0,0,0,0,0,0,0,0,0,0,0,0,0,0,0,0,
0,0,0,0,0,0,0,0,0,0,0,0,0,0,0,0,
0,0,0,0,0,0,0,0,0,0,0,0,0,0,0,0,
0,0,0,0,0,0,0,0,0,0,0,0,0,0,0,0,
0,0,0,0,0,0,0,0,0,0,0,0,0,0,0,0,
0,0,0,0,0,0,0,0,0,0,0,0,0,0,0,0,
0,0,0,0,0,0,0,0,0,0,0,0,0,0,0,0,
0,0,0,0,0,0,0,0,0,0,0,0,0,0,0,0,
0,0,0,0,0,0,0,0,0,0,0,0,0,0,0,0,
0,0,0,0,0,0,0,0,0,0,0,0,0,0,0,0
</chunk>
  </data>
 </layer>
</map>
