<?xml version="1.0" encoding="UTF-8"?>
<map version="1.10" tiledversion="1.12.1" orientation="orthogonal" renderorder="right-down" width="15" height="15" tilewidth="16" tileheight="16" infinite="1" nextlayerid="38" nextobjectid="1">
 <editorsettings>
  <export target="../../../game/data/maps/city_desire/map.json" format="json"/>
 </editorsettings>
 <tileset firstgid="1" name="building_school" tilewidth="16" tileheight="16" tilecount="1024" columns="32">
  <image source="../sucai/building_school.png" width="512" height="512"/>
 </tileset>
 <tileset firstgid="1025" name="Farm_tileset" tilewidth="16" tileheight="16" tilecount="486" columns="18">
  <image source="../sucai/Farm_tileset.png" width="288" height="432"/>
 </tileset>
 <tileset firstgid="1511" name="building_hospital" tilewidth="16" tileheight="16" tilecount="1024" columns="32">
  <image source="../sucai/building_hospital.png" width="512" height="512"/>
 </tileset>
 <tileset firstgid="2535" name="building_school_2" tilewidth="16" tileheight="16" tilecount="1024" columns="32">
  <image source="../sucai/building_school_2.png" width="512" height="512"/>
 </tileset>
 <tileset firstgid="3559" name="building_school_3" tilewidth="16" tileheight="16" tilecount="528" columns="33">
  <image source="../sucai/building_school_3.png" width="528" height="256"/>
 </tileset>
 <tileset firstgid="4087" name="stall" tilewidth="16" tileheight="16" tilecount="1024" columns="32">
  <image source="../sucai/stall.png" width="512" height="512"/>
 </tileset>
 <tileset firstgid="5111" name="sprites_liluo" tilewidth="16" tileheight="16" tilecount="192" columns="24">
  <image source="../sucai/sprites_liluo.png" width="384" height="128"/>
 </tileset>
 <tileset firstgid="5303" name="building_fountain" tilewidth="16" tileheight="16" tilecount="64" columns="8">
  <image source="../sucai/building_fountain.png" width="128" height="128"/>
 </tileset>
 <tileset firstgid="5367" name="building_town_hall" tilewidth="16" tileheight="16" tilecount="672" columns="24">
  <image source="../sucai/building_town_hall.png" width="384" height="460"/>
 </tileset>
 <tileset firstgid="6039" name="outdoors_1" tilewidth="16" tileheight="16" tilecount="1024" columns="32">
  <image source="../sucai/outdoors_1.png" width="512" height="512"/>
 </tileset>
 <tileset firstgid="7063" name="outdoors_2" tilewidth="16" tileheight="16" tilecount="1024" columns="32">
  <image source="../sucai/outdoors_2.png" width="512" height="512"/>
 </tileset>
 <tileset firstgid="8087" name="medieval_building_Props_Decor" tilewidth="16" tileheight="16" tilecount="900" columns="30">
  <image source="../sucai/medieval_building/medieval_building_Props_Decor.png" width="480" height="480"/>
 </tileset>
 <tileset firstgid="8987" name="medieval_building_Ground" tilewidth="16" tileheight="16" tilecount="162" columns="18">
  <image source="../sucai/medieval_building/medieval_building_Ground.png" width="288" height="144"/>
 </tileset>
 <tileset firstgid="9149" name="medieval_building_Roofs" tilewidth="16" tileheight="16" tilecount="72" columns="12">
  <image source="../sucai/medieval_building/medieval_building_Roofs.png" width="192" height="96"/>
 </tileset>
 <tileset firstgid="9221" name="medieval_building_Sconce_Spritesheet" tilewidth="16" tileheight="16" tilecount="54" columns="9">
  <image source="../sucai/medieval_building/medieval_building_Sconce_Spritesheet.png" width="144" height="96"/>
 </tileset>
 <tileset firstgid="9275" name="medieval_building_Walls" tilewidth="16" tileheight="16" tilecount="144" columns="24">
  <image source="../sucai/medieval_building/medieval_building_Walls.png" width="384" height="96"/>
 </tileset>
 <tileset firstgid="9419" name="guard" tilewidth="16" tileheight="16" tilecount="384" columns="24">
  <image source="../sucai/NPCs/guard.png" width="384" height="256"/>
 </tileset>
 <tileset firstgid="9803" name="building_church" tilewidth="16" tileheight="16" tilecount="576" columns="24">
  <image source="../sucai/building_church.png" width="384" height="384"/>
 </tileset>
 <tileset firstgid="10379" name="mine" tilewidth="16" tileheight="16" tilecount="1024" columns="32">
  <image source="../sucai/mine.png" width="512" height="512"/>
 </tileset>
 <tileset firstgid="11403" name="house_indoor_7" tilewidth="16" tileheight="16" tilecount="1024" columns="32">
  <image source="../sucai/house_indoor_7.png" width="512" height="512"/>
 </tileset>
 <tileset firstgid="12427" name="train" tilewidth="16" tileheight="16" tilecount="1280" columns="16">
  <image source="../sucai/train.png" width="256" height="1280"/>
 </tileset>
 <tileset firstgid="13707" name="tiled_2" tilewidth="16" tileheight="16" tilecount="512" columns="16">
  <image source="../sucai/tiled_2.png" width="256" height="512"/>
 </tileset>
 <layer id="17" name="ground" width="15" height="15">
  <data encoding="csv">
   <chunk x="-48" y="-48" width="16" height="16">
0,0,0,0,0,0,0,0,0,0,0,0,0,0,0,0,
0,0,0,0,0,0,0,0,0,0,0,0,0,0,0,0,
0,0,0,0,0,0,0,0,0,0,0,0,0,0,0,0,
0,0,0,0,0,0,0,0,0,0,0,0,0,0,0,0,
0,0,0,0,0,0,0,0,0,0,0,0,0,0,0,0,
0,0,0,0,0,0,0,0,0,0,0,0,0,0,0,0,
0,0,0,0,0,0,0,0,0,0,0,0,0,0,0,0,
0,0,0,0,0,0,0,0,0,0,0,0,0,0,0,0,
0,0,0,0,0,0,0,0,0,0,0,0,0,0,0,0,
0,0,0,0,0,0,0,0,0,0,0,0,0,0,0,0,
0,0,0,0,0,0,0,0,0,0,0,0,0,10473,10474,0,
0,0,0,0,0,0,0,0,0,0,0,0,0,10473,10474,0,
0,0,0,0,0,0,0,0,0,0,0,0,0,10473,10474,0,
0,0,0,0,0,0,0,0,0,0,0,0,0,10473,10474,0,
0,0,0,0,0,0,0,0,0,0,0,0,0,10473,10474,0,
0,0,0,0,0,0,0,0,0,0,0,0,0,10473,10474,0
</chunk>
   <chunk x="-32" y="-48" width="16" height="16">
0,0,0,0,0,0,0,0,0,0,0,0,0,0,0,0,
0,0,0,0,0,0,0,0,0,0,0,0,0,0,0,0,
0,0,0,0,0,0,0,0,0,0,0,0,0,0,0,0,
0,0,0,0,0,0,0,0,0,0,0,0,0,0,0,0,
0,0,0,0,0,0,0,0,0,0,0,0,0,0,0,0,
0,0,0,0,0,0,0,0,0,0,0,0,0,0,0,0,
0,0,0,0,0,0,0,0,0,0,0,0,0,0,0,0,
0,0,0,0,0,0,0,0,0,0,0,0,0,0,0,0,
0,0,0,0,0,0,0,0,0,0,0,0,0,0,0,0,
0,0,0,0,0,0,0,0,0,0,0,0,0,0,0,0,
0,0,0,0,0,0,0,0,0,0,0,0,0,0,0,0,
0,0,0,0,13967,13967,13967,13967,13967,13967,13967,0,0,0,0,0,
0,0,0,0,13967,0,0,0,0,13967,13967,0,0,0,0,0,
13967,13967,13967,13967,13967,13967,13967,13967,13967,13967,13967,13967,13967,13967,13967,13967,
13967,13967,13967,13967,13967,13967,13967,13967,13967,13967,13967,13967,13967,13967,13967,13967,
13967,13967,13967,13967,13967,13967,13967,13967,13967,13967,13967,13967,13967,13967,13967,13967
</chunk>
   <chunk x="-16" y="-48" width="16" height="16">
0,0,0,0,0,0,0,0,0,0,0,0,0,0,0,0,
0,0,0,0,0,0,0,0,0,0,0,0,0,0,0,0,
0,0,0,0,0,0,0,0,0,0,0,0,0,0,0,0,
0,0,0,0,0,0,0,0,0,0,0,0,0,0,0,0,
0,0,0,0,0,0,0,0,0,0,0,0,0,0,0,0,
0,0,0,0,0,0,0,0,0,0,0,0,0,0,0,0,
0,0,0,0,0,0,0,0,0,0,0,0,0,0,0,0,
0,0,0,0,0,0,0,0,0,0,0,0,0,0,0,0,
0,0,0,0,0,0,0,0,0,0,0,0,0,0,0,0,
0,0,0,0,0,0,0,0,0,0,0,0,0,0,0,0,
0,0,0,0,0,0,0,0,0,0,0,13967,13967,13967,13967,0,
0,0,0,13967,13967,13967,13967,13967,13967,13967,0,13967,0,0,0,13967,
0,0,0,0,0,0,13967,13967,13967,13967,13967,13967,13967,13967,13967,13967,
13967,13967,13967,13967,13967,13967,13967,13967,13967,13967,13967,13967,13967,13967,13967,13967,
13967,13967,13967,13967,13967,13967,13967,13967,13967,13967,13967,13967,13967,13967,13967,13967,
13967,13967,13967,13967,13967,13967,13967,13967,13967,13967,13967,13967,13967,13967,13967,13967
</chunk>
   <chunk x="0" y="-48" width="16" height="16">
0,0,0,0,0,0,0,0,0,0,0,0,0,0,0,0,
0,0,0,0,0,0,0,0,0,0,0,0,0,0,0,0,
0,0,0,0,0,0,0,0,0,0,0,0,0,0,0,0,
0,0,0,0,0,0,0,0,0,0,0,0,0,0,0,0,
0,0,0,0,0,0,0,0,0,0,0,0,0,0,0,0,
0,0,0,0,0,0,0,0,0,0,0,0,0,0,0,0,
0,0,0,0,0,0,0,0,0,0,0,0,0,0,0,0,
0,0,0,0,0,0,0,0,0,0,0,0,0,0,0,0,
0,0,0,0,0,0,0,0,0,0,0,0,0,0,0,0,
0,0,0,0,0,0,0,0,0,0,0,0,0,0,0,0,
0,0,0,0,0,0,0,0,0,0,0,0,0,0,0,0,
13967,13967,13967,13967,13967,13967,13967,13967,13967,13967,0,0,0,0,0,0,
13967,13967,13967,13967,13967,13967,13967,13967,13967,13967,13967,13967,13967,13967,13967,13967,
13967,13967,13967,13967,13967,13967,13967,13967,13967,13967,13967,13967,13967,13967,13967,13967,
13967,13967,13967,13967,13967,13967,13967,13967,13967,13967,13967,13967,13967,13967,13967,13967,
13967,13967,13967,13967,13967,13967,13967,13967,13967,13967,13967,13967,13967,13967,13967,13967
</chunk>
   <chunk x="16" y="-48" width="16" height="16">
0,0,0,0,0,0,0,0,0,0,0,0,0,0,0,0,
0,0,0,0,0,0,0,0,0,0,0,0,0,0,0,0,
0,0,0,0,0,0,0,0,0,0,0,0,0,0,0,0,
0,0,0,0,0,0,0,0,0,0,0,0,0,0,0,0,
0,0,0,0,0,0,0,0,0,0,0,0,0,0,0,0,
0,0,0,0,0,0,0,0,0,0,0,0,0,0,0,0,
0,0,0,0,0,0,0,0,0,0,0,0,0,0,0,0,
0,0,0,0,0,0,0,0,0,0,0,0,0,0,0,0,
0,0,0,0,0,0,0,0,0,0,0,0,0,0,0,0,
0,0,0,0,0,0,0,0,0,0,0,0,0,0,0,0,
0,0,0,0,0,0,0,0,0,0,0,0,0,0,0,0,
0,0,0,13965,13965,13965,13965,13965,13965,13965,0,0,0,0,0,0,
13967,13967,13967,13967,13967,0,0,0,0,0,13965,13967,13967,13967,13967,13967,
13967,13967,13967,13967,13967,13967,13967,13967,13967,13967,13967,13967,13967,13967,13967,13967,
13967,13967,13967,13967,13967,13967,13967,13967,13967,13967,13967,13967,13967,13967,13967,13967,
13967,13967,13967,13967,13967,13967,13967,13967,13967,13967,13967,13967,13967,13967,13967,13967
</chunk>
   <chunk x="32" y="-48" width="16" height="16">
0,0,0,0,0,0,0,0,0,0,0,0,0,0,0,0,
0,0,0,0,0,0,0,0,0,0,0,0,0,0,0,0,
0,0,0,0,0,0,0,0,0,0,0,0,0,0,0,0,
0,0,0,0,0,0,0,0,0,0,0,0,0,0,0,0,
0,0,0,0,0,0,0,0,0,0,0,0,0,0,0,0,
0,0,0,0,0,0,0,0,0,0,0,0,0,0,0,0,
0,0,0,0,0,0,0,0,0,0,0,0,0,0,0,0,
0,0,0,0,0,0,0,0,0,0,0,0,0,0,0,0,
0,0,0,0,0,0,0,0,0,0,0,0,0,0,0,0,
0,0,0,0,0,0,0,0,0,0,0,0,0,0,0,0,
0,0,0,0,0,0,0,0,0,0,0,0,0,0,0,0,
0,0,0,0,0,0,0,0,0,0,0,0,0,0,0,0,
13967,13967,13967,13967,13967,13967,13967,13967,0,0,0,0,0,0,0,0,
13967,13967,13967,13967,13967,13967,13967,13967,13967,13967,13967,13967,13967,13967,13967,13967,
13967,13967,13967,13967,13967,13967,13967,13967,13967,13967,13967,13967,13967,13967,13967,13967,
13967,13967,13967,13967,13967,13967,13967,13967,13967,13967,13967,13967,13967,13967,13967,13967
</chunk>
   <chunk x="48" y="-48" width="16" height="16">
0,0,0,0,0,0,0,0,0,0,0,0,0,0,0,0,
0,0,0,0,0,0,0,0,0,0,0,0,0,0,0,0,
0,0,0,0,0,0,0,0,0,0,0,0,0,0,0,0,
0,0,0,0,0,0,0,0,0,0,0,0,0,0,0,0,
0,0,0,0,0,0,0,0,0,0,0,0,0,0,0,0,
0,0,0,0,0,0,0,0,0,0,0,0,0,0,0,0,
0,0,0,0,0,0,0,0,0,0,0,0,0,0,0,0,
0,0,0,0,0,0,0,0,0,0,0,0,0,0,0,0,
0,0,0,0,0,0,0,0,0,0,0,0,0,0,0,0,
0,0,0,0,0,0,0,0,0,0,0,0,0,0,0,0,
0,0,0,0,0,0,0,0,0,0,0,0,0,0,0,0,
0,0,0,0,0,0,0,0,0,0,0,0,0,0,0,0,
0,0,0,0,0,0,0,0,0,0,0,0,0,0,0,0,
13967,13967,13967,13967,13967,13967,13967,13967,13967,13967,13967,13967,13967,13967,13967,13967,
13967,13967,13967,13967,13967,13967,13967,13967,13967,13967,13967,13967,13967,13967,13967,13967,
13967,13967,13967,13967,13967,13967,13967,13967,13967,13967,13967,13967,13967,13967,13967,13967
</chunk>
   <chunk x="64" y="-48" width="16" height="16">
0,0,0,0,0,0,0,0,0,0,0,0,0,0,0,0,
0,0,0,0,0,0,0,0,0,0,0,0,0,0,0,0,
0,0,0,0,0,0,0,0,0,0,0,0,0,0,0,0,
0,0,0,0,0,0,0,0,0,0,0,0,0,0,0,0,
0,0,0,0,0,0,0,0,0,0,0,0,0,0,0,0,
0,0,0,0,0,0,0,0,0,0,0,0,0,0,0,0,
0,0,0,0,0,0,0,0,0,0,0,0,0,0,0,0,
0,0,0,0,0,0,0,0,0,0,0,0,0,0,0,0,
0,0,0,0,0,0,0,0,0,0,0,0,0,0,0,0,
0,0,0,0,0,0,0,0,0,0,0,0,0,0,0,0,
0,0,0,0,0,0,0,0,0,0,0,0,0,0,0,0,
0,0,0,0,0,0,0,0,0,0,0,0,0,0,0,0,
0,0,0,0,0,0,0,0,0,0,0,0,0,0,0,0,
13967,13967,13967,13967,13967,13967,13967,13967,0,0,13967,13967,13967,13967,13967,13967,
13967,13967,13967,13967,13967,13967,13967,13967,13967,13967,13967,13967,13967,13967,13967,13967,
13967,13967,13967,13967,13967,13967,13967,13967,13967,13967,13967,13967,0,13967,13967,13967
</chunk>
   <chunk x="80" y="-48" width="16" height="16">
0,0,0,0,0,0,0,0,0,0,0,0,0,0,0,0,
0,0,0,0,0,0,0,0,0,0,0,0,0,0,0,0,
0,0,0,0,0,0,0,0,0,0,0,0,0,0,0,0,
0,0,0,0,0,0,0,0,0,0,0,0,0,0,0,0,
0,0,0,0,0,0,0,0,0,0,0,0,0,0,0,0,
0,0,0,0,0,0,0,0,0,0,0,0,0,0,0,0,
0,0,0,0,0,0,0,0,0,0,0,0,0,0,0,0,
0,0,0,0,0,0,0,0,0,0,0,0,0,0,0,0,
0,0,0,0,0,0,0,0,0,0,0,0,0,0,0,0,
0,0,0,0,0,0,0,0,0,0,0,0,0,0,0,0,
0,0,0,0,0,0,0,0,0,0,0,0,0,0,0,0,
0,0,0,0,0,0,0,0,0,0,0,0,0,0,0,0,
0,0,0,0,0,0,0,0,0,0,0,0,0,0,0,0,
13967,13967,0,0,0,0,0,0,0,0,0,0,0,0,0,0,
13967,13967,0,0,0,0,0,0,0,0,0,0,0,0,0,0,
13967,0,0,0,0,0,0,0,0,0,0,0,0,0,0,0
</chunk>
   <chunk x="96" y="-48" width="16" height="16">
0,0,0,0,0,0,0,0,0,0,0,0,0,0,0,0,
0,0,0,0,0,0,0,0,0,0,0,0,0,0,0,0,
0,0,0,0,0,0,0,0,0,0,0,0,0,0,0,0,
0,0,0,0,0,0,0,0,0,0,0,0,0,0,0,0,
0,0,0,0,0,0,0,0,0,0,0,0,0,0,0,0,
0,0,0,0,0,0,0,0,0,0,0,0,0,0,0,0,
0,0,0,0,0,0,0,0,0,0,0,0,0,0,0,0,
0,0,0,0,0,0,0,0,0,0,0,0,0,0,0,0,
0,0,0,0,0,0,0,0,0,0,0,0,0,0,0,0,
0,0,0,0,0,0,0,0,0,0,0,0,0,0,0,0,
0,0,0,0,0,0,0,0,0,0,0,0,0,0,0,0,
0,0,0,0,0,0,0,0,0,0,0,0,0,0,10473,10474,
0,0,0,0,0,0,0,0,0,0,0,0,0,0,10473,10474,
0,0,0,0,0,0,0,0,0,0,0,0,13967,13967,10473,10474,
0,0,0,0,0,0,0,0,0,0,0,0,13967,13967,10473,10474,
0,0,0,0,0,0,0,0,0,0,0,0,13967,13967,10473,10474
</chunk>
   <chunk x="-48" y="-32" width="16" height="16">
0,0,0,0,0,0,0,0,0,0,0,0,0,10473,10474,0,
0,0,0,0,0,0,0,0,0,0,0,0,0,10473,10474,13967,
0,0,0,0,0,0,0,0,0,0,0,0,0,10473,10474,13967,
0,0,0,0,0,0,0,0,0,0,0,0,0,10473,10474,13967,
0,0,0,0,0,0,0,0,0,0,0,0,0,10473,10474,0,
0,0,0,0,0,0,0,0,0,0,0,0,0,10473,10474,0,
0,0,0,0,0,0,0,0,0,0,0,0,0,0,0,0,
0,0,0,0,0,0,0,0,0,0,0,0,0,0,0,0,
0,0,0,0,0,0,0,0,0,0,0,0,0,0,0,0,
0,0,0,0,0,0,0,0,0,0,0,0,0,0,0,0,
0,0,0,0,0,0,0,0,0,0,0,0,0,0,0,0,
0,0,0,0,0,0,0,0,0,0,0,0,0,0,0,0,
0,0,0,0,0,0,0,0,0,0,0,0,0,0,0,0,
0,0,0,0,0,0,0,0,0,0,0,0,0,0,0,13967,
0,0,0,0,0,0,0,0,0,0,0,0,0,0,0,13967,
0,0,0,0,0,0,0,0,0,0,0,0,0,0,0,13967
</chunk>
   <chunk x="-32" y="-32" width="16" height="16">
13967,13967,13967,13967,13967,13967,13967,13967,13965,13965,13965,13965,13965,13967,13967,13967,
13967,13967,13967,13967,13967,13967,13967,13967,13967,13967,13967,13965,13965,13967,13967,13967,
13967,13967,13967,13967,13967,13967,13967,13967,13967,13967,13967,13965,13967,13967,13967,13967,
13967,13967,13967,13967,13967,13967,13967,13967,13967,13967,13967,13967,13967,13967,13967,13967,
13967,13967,13967,13967,13967,13967,13967,13967,13967,13967,13967,13967,13967,13967,13967,13967,
13967,13967,13967,13967,13967,13967,13967,13967,13967,13967,13967,13967,13967,13967,13967,13967,
13967,13967,13967,13967,13967,13967,13967,13967,13967,13967,13967,13967,13967,13967,13967,13967,
13967,13967,13967,13967,13967,13967,13967,13967,13967,13967,13967,13967,13967,13967,13967,13967,
13967,0,13967,13967,13967,13967,13967,13967,13967,13967,13967,13967,13967,13967,13967,13967,
13967,13967,13967,13967,13967,13967,13967,13967,13967,13967,13967,13967,13967,13967,13967,13967,
13967,13967,13967,13967,13967,13967,13967,13967,13967,13967,13967,13967,13967,13967,13967,13967,
0,0,0,13967,13967,13967,13967,13967,13967,13967,13967,13967,13967,0,13967,0,
0,0,0,13967,13967,13967,13967,13967,13967,13967,13967,13967,13967,13967,13967,13967,
13967,13967,13967,13967,13967,13967,13967,13967,13967,13967,13967,13967,13967,13967,13967,13967,
13967,13967,13967,13967,13967,13967,13967,13967,13967,13967,13967,13967,13967,13967,13967,13967,
13967,13967,13967,13967,13967,13967,13967,13967,13967,13967,13967,13967,13967,13967,13967,13967
</chunk>
   <chunk x="-16" y="-32" width="16" height="16">
13967,13967,13967,13967,13967,13967,13967,13967,13967,13967,13967,13967,13967,13967,13967,13967,
13967,13967,13967,13967,13967,13967,13967,13967,13967,13967,13967,13967,13967,13967,13967,13967,
13967,13967,13967,13967,13967,13967,13967,13967,13967,13967,13967,13967,13967,13967,13967,13965,
13967,13967,13967,13967,13967,13967,13967,13967,13967,13967,13967,13967,13967,13967,13967,13967,
13967,13967,0,0,13967,13967,13967,13967,13967,13967,13967,13967,13967,13967,13967,13967,
13967,13967,13967,13967,13967,13967,13967,13967,13967,13967,13967,13967,13967,13967,13967,13967,
13967,13967,13967,13967,13967,13967,13967,13967,13967,13967,13967,13967,13967,13967,13967,13967,
13967,13967,13967,13967,13967,13967,13967,13967,13967,13967,13967,13967,13967,13967,13967,13967,
13967,13967,13967,13967,13967,13967,13967,13967,13967,13967,13967,13967,13967,13967,13967,13967,
13967,13967,13967,13967,13967,13967,13967,13967,13967,13967,13967,13967,13967,13967,13967,13967,
0,0,0,0,0,13967,0,0,0,0,13967,13967,13967,13967,0,0,
0,0,0,0,0,0,0,0,0,0,0,0,0,0,0,0,
13967,13967,13967,13967,13967,0,0,0,0,0,0,0,0,0,0,0,
13967,13967,13967,13967,13967,13967,13967,13967,13967,13967,13967,13967,13967,13967,13967,13967,
13967,13967,13967,13967,13967,13967,13967,13967,13967,13967,13967,13967,13967,13967,13967,13967,
13967,13967,13967,13967,13967,13967,13967,13967,13967,13967,13967,13967,13967,13967,13967,13967
</chunk>
   <chunk x="0" y="-32" width="16" height="16">
13967,13967,13967,13967,13967,13967,13967,13967,13967,13967,13967,13967,13967,13967,13967,13967,
13967,13967,13967,13967,13967,13967,13967,13967,13967,13967,13967,13967,13967,13967,13967,13967,
13965,13965,13967,13967,13967,13967,13967,13967,13965,0,13967,13967,13967,13967,13967,13967,
13967,13967,13967,13967,13967,13967,13967,13967,13967,13967,13967,13967,13967,13967,13967,13967,
13967,0,13967,13967,13967,13967,13967,13967,0,13967,13967,13967,13967,13967,13967,13967,
13967,13967,13967,13967,13967,13967,13967,13967,13967,13967,13967,13967,13967,13967,13967,13967,
13967,13967,13967,13967,13967,13967,13967,13967,13967,13967,13967,13967,13967,13967,13967,13967,
13967,13967,13967,13967,13967,13967,13967,13967,13967,13967,13967,13967,13967,13967,13967,13967,
13967,13967,13967,13967,13967,13967,13967,13967,13967,13967,13967,13967,13967,13967,13967,13967,
13967,13967,13967,13967,13967,13967,13967,13967,13967,13967,13967,13967,13967,13967,13967,13967,
0,0,0,13967,13967,13967,13967,13967,13967,13967,13967,13967,13967,13967,13967,13967,
0,0,0,13967,13967,13967,13967,13967,13967,13967,13967,13967,13967,13967,13967,0,
0,0,0,0,13967,13967,13967,13967,13967,13967,13967,13967,13967,13967,13967,13967,
13967,13967,13967,13967,13967,13967,13967,13967,13967,13967,13967,13967,13967,13967,13967,13967,
13967,13967,13967,13967,13967,13967,13967,13967,13967,13967,13967,13967,13967,13967,13967,13967,
13967,13967,13967,13967,13967,13967,13967,13967,13967,13967,13967,13967,13967,13967,13967,13967
</chunk>
   <chunk x="16" y="-32" width="16" height="16">
13967,13967,13967,13967,13967,13967,13967,13967,13967,13967,13967,13967,13967,13967,13967,13967,
13967,13967,13967,13967,13967,13967,13967,13967,13967,13967,13967,13967,13967,13967,13967,13967,
13967,13967,13967,0,13967,13967,13967,13967,13967,13967,13967,13967,13967,13967,13967,13967,
13967,13967,13967,13967,13967,13967,13967,13967,13967,13967,13967,13967,13967,13967,0,13967,
13967,13967,13967,13967,13967,13967,13967,13967,13967,13967,13967,13967,13967,13967,13967,13967,
13967,13967,13967,13967,13967,13967,13967,13967,13967,13967,13967,13967,13967,13967,13967,13967,
13967,13967,13967,13967,13967,13967,13967,13967,13967,13967,13967,13967,13967,13967,13967,13967,
13967,13967,13967,13967,13967,13967,13967,13967,13967,13967,13967,13967,13967,13967,13967,13967,
13967,13967,13967,13967,13967,13967,13967,13967,13967,13967,13967,13967,13967,13967,13967,13967,
13967,13967,13967,13967,13967,13967,13967,13967,13967,13967,13967,13967,13967,13967,13967,13967,
0,0,0,0,0,0,13967,13967,13967,13967,13967,13967,13967,13967,13967,13967,
0,0,0,0,0,0,0,0,13967,13967,13967,13967,13967,0,13967,13967,
0,0,0,0,0,0,0,0,13967,13967,0,0,0,0,13967,0,
13967,13967,13967,13967,13967,13967,13967,13967,13967,13967,13967,13967,13967,13967,13967,13967,
13967,13967,13967,13967,13967,13967,13967,13967,13967,13967,13967,13967,13967,13967,13967,13967,
13967,13967,13967,13967,13967,13967,13967,13967,13967,13967,13967,13967,13967,13967,13967,13967
</chunk>
   <chunk x="32" y="-32" width="16" height="16">
13967,13967,13965,13967,13967,13967,13967,13967,13967,13967,13967,13967,13967,13967,13967,13967,
13967,13967,13967,13967,13967,13967,13967,13967,13967,13967,13967,13967,13967,13967,13967,13967,
13967,0,13967,13967,0,13967,13967,13967,13967,13967,13967,13967,13967,13967,13967,13967,
0,13967,13967,13967,13967,13967,13967,13967,13967,13967,13967,13967,13967,13967,13967,13967,
0,0,0,13967,0,13967,13967,13967,13967,13967,13967,13967,13967,13967,13967,13967,
0,0,13967,13967,13967,13967,13967,13967,13967,13967,13967,13967,13967,13967,13967,13967,
13967,13967,13967,13967,13967,13967,13967,13967,13967,13967,13967,13967,13967,13967,13967,13967,
13967,13967,13967,13967,13967,13967,13967,13967,13967,13967,13967,13967,13967,13967,13967,13967,
13967,13967,13967,13967,13967,13967,13967,13967,13967,13967,13967,13967,13967,13967,13967,13967,
13967,13967,13967,13967,13967,13967,13967,13967,13967,13967,13967,13967,13967,13967,13967,13967,
13967,13967,13967,13967,13967,13967,13967,13967,13967,13967,13967,13967,13967,13967,13967,13967,
0,0,13967,13967,13967,13967,13967,13967,13967,13967,13967,13967,13967,13967,13967,13967,
0,0,13967,13967,13967,13967,13967,13967,13967,13967,13967,13967,13967,13967,13967,13967,
13967,13967,13967,13967,13967,13967,13967,13967,13967,13967,13967,13967,13967,13967,13967,13967,
13967,13967,13967,13967,13967,13967,13967,13967,13967,13967,13967,13967,13967,13967,13967,13967,
13967,13967,13967,13967,13967,13967,13967,13967,13967,13967,13967,13967,13967,13967,13967,13967
</chunk>
   <chunk x="48" y="-32" width="16" height="16">
13967,13967,13967,13967,13967,13967,13967,13967,13967,13967,13967,13967,13967,13967,13967,13967,
13967,13967,13967,13967,13967,13967,13967,13967,13967,13967,13967,13967,13967,13967,13967,13967,
13967,13967,13967,13967,13967,13967,13967,0,0,13967,13967,13967,13967,13967,13967,13967,
13967,13967,13967,13967,13967,13967,13967,13967,13967,13967,13967,13967,13967,13967,13967,13967,
13967,13967,13967,13967,13967,13967,13967,13967,13967,13967,13967,13967,13967,13967,13967,13967,
13967,13967,13967,13967,13967,13967,13967,13967,13967,13967,13967,13967,13967,13967,13967,13967,
13967,13967,13967,13967,13967,13967,0,13967,13967,13967,13967,13967,13967,13967,13967,13967,
13967,13967,13967,13967,13967,13967,13967,0,13967,13967,13967,13967,13967,13967,13967,13967,
13967,13967,13967,13967,13967,13967,13967,13967,13967,13967,13967,13967,13967,13967,13967,13967,
13967,13967,13967,13967,13967,13967,13967,13967,13967,13967,13967,0,0,13967,13967,13967,
13967,13967,13967,13967,13967,13967,13967,13967,13967,13967,13967,13967,13967,13967,13967,13967,
13967,13967,13967,13967,13967,13967,13967,13967,13967,0,0,0,0,0,0,13967,
13967,13967,13967,0,0,0,13967,0,0,13967,13967,13967,13967,13967,13967,13967,
13967,13967,13967,13967,13967,13967,13967,13967,13967,13967,13967,13967,13967,13967,13967,13967,
13967,13967,13967,13967,13967,13967,13967,13967,13967,13967,13967,13967,13967,13967,13967,13967,
13967,13967,13967,13967,13967,13967,13967,13967,13967,13967,13967,13967,13967,13967,13967,13967
</chunk>
   <chunk x="64" y="-32" width="16" height="16">
13967,13967,13967,13967,13967,13967,13967,13967,13967,13967,13967,13967,13967,13967,13967,13967,
13967,13967,13967,13967,13967,13967,13967,13967,13967,13967,13967,13967,13967,13967,13967,13967,
13967,13967,13967,13967,13967,13967,13967,13967,13967,13967,13967,13967,13967,13967,13967,13967,
13967,13967,13967,13967,13967,13967,13967,13967,13967,13967,13967,13967,13967,13967,13967,13967,
13967,13967,13967,13967,13967,13967,13967,13967,13967,13967,13967,13967,13967,13967,13967,13967,
13967,13967,13967,13967,13967,13967,13967,13967,13967,13967,13967,13967,13967,13967,13967,13967,
13967,13967,13967,13967,13967,13967,13967,13967,13967,13967,13967,13967,13967,13967,13967,13967,
13967,13967,13967,13967,13967,13967,13967,13967,13967,13967,13967,13967,13967,13967,13967,13967,
13967,13967,13967,13967,13967,13967,13967,13967,13967,13967,13967,13967,13967,13967,13967,13967,
13967,13967,13967,13967,13967,13967,13967,13967,13967,13967,13967,13967,13967,13967,13967,13967,
13967,13967,13967,13967,13967,13967,13967,13967,13967,13967,13967,13967,13967,13967,13967,13967,
13967,13967,13967,13967,13967,13967,13967,13967,13967,13967,13967,13967,13967,13967,13967,13967,
13967,13967,13967,13967,13967,13967,13967,13967,13967,13967,13967,13967,13967,13967,13967,13967,
13967,13967,13967,13967,13967,13967,13967,13967,13967,13967,13967,13967,13967,13967,13967,13967,
13967,13967,13967,13967,13967,13967,13967,13967,13967,13967,13967,13967,13967,13967,13967,13967,
13967,13967,13967,13967,13967,13967,13967,13967,13967,13967,13967,13967,13967,13967,13967,13967
</chunk>
   <chunk x="80" y="-32" width="16" height="16">
13967,13967,0,0,0,0,0,0,0,0,0,0,0,0,0,0,
13967,13967,0,0,0,0,0,0,0,0,0,0,0,0,0,0,
13967,13967,0,0,0,0,0,0,0,0,0,0,0,0,0,0,
13967,13967,0,0,0,0,0,0,0,0,0,0,0,0,0,0,
13967,0,0,0,0,0,0,0,0,0,0,0,0,0,0,0,
13967,0,0,0,0,0,0,0,0,0,0,0,0,0,0,0,
13967,13967,0,0,0,0,0,0,0,0,0,0,0,0,0,0,
13967,13967,0,0,0,0,0,0,0,0,0,0,0,0,0,0,
13967,0,0,0,0,0,0,0,0,0,0,13967,13967,13967,13967,13967,
13967,13967,13967,13967,13967,13967,13967,13967,13967,13967,13967,13967,13967,13967,13967,13967,
13967,13967,13967,13967,13967,13967,13967,13967,13967,13967,13967,13967,13967,13967,13967,13967,
13967,13967,13967,13967,13967,13967,13967,13967,13967,13967,13967,13967,13967,13967,13967,13967,
13967,13967,13967,13967,13967,13967,13967,13967,13967,13967,13967,13967,13967,13967,13967,13967,
13967,13967,13967,13967,13967,13967,13967,13967,13967,13967,13967,13967,13967,13967,13967,13967,
13967,13967,13967,13967,13967,13967,13967,13967,13967,13967,13967,13967,13967,13967,13967,13967,
13967,13967,13967,13967,13967,13967,13967,13967,13967,13967,13967,13967,13967,13967,13967,13967
</chunk>
   <chunk x="96" y="-32" width="16" height="16">
0,0,0,0,0,0,0,0,0,0,0,0,13967,13967,10473,10474,
0,0,0,0,0,0,0,0,0,0,0,0,13967,13967,10473,10474,
0,0,0,0,0,0,0,0,0,0,0,0,13967,13967,10473,10474,
0,0,0,0,0,0,0,0,0,0,0,0,13967,13967,10473,10474,
0,0,0,0,0,0,0,0,0,0,0,0,13967,13967,10473,10474,
0,0,0,0,0,0,0,0,0,0,0,0,13967,13967,10473,10474,
0,0,0,0,0,0,0,0,0,0,0,0,13967,13967,10473,10474,
0,0,0,0,0,0,0,0,0,0,0,0,13967,13967,0,0,
13967,13967,13967,13967,13967,13967,0,0,0,0,0,0,13967,13967,0,0,
13967,13967,13967,13967,13967,13967,13967,13967,13967,13967,13967,0,13967,13967,0,0,
13967,13967,13967,13967,13967,13967,13967,13967,13967,13967,13967,13967,13967,13967,0,0,
13967,13967,13967,13967,13967,13967,13967,13967,13967,13967,13967,13967,13967,13967,0,0,
13967,13967,13967,13967,13967,13967,13967,13967,13967,13967,13967,13967,13967,13967,0,0,
13967,13967,13967,13967,13967,13967,13967,13967,13967,13967,13967,13967,13967,13967,0,0,
13967,13967,13967,13967,13967,13967,13967,13967,13967,13967,13967,13967,13967,13967,0,0,
13967,13967,13967,13967,13967,13967,13967,13967,13967,13967,13967,13967,13967,13967,0,0
</chunk>
   <chunk x="-48" y="-16" width="16" height="16">
0,0,0,0,0,0,0,0,0,0,0,0,0,0,0,13967,
0,0,0,0,0,0,0,0,0,0,0,0,0,0,0,13967,
0,0,0,0,0,0,0,0,0,0,0,0,0,0,0,13967,
0,0,0,0,0,0,0,0,0,0,0,0,0,0,0,13967,
0,0,0,0,0,0,0,0,0,0,0,0,0,0,0,13967,
0,0,0,0,0,0,0,0,0,0,0,0,0,0,0,13967,
0,0,0,0,0,0,0,0,0,0,0,0,0,0,0,13967,
0,0,0,0,0,0,0,0,0,0,0,0,0,0,0,13967,
0,0,0,0,0,0,0,0,0,0,0,0,0,0,0,0,
0,0,0,0,0,0,0,0,0,0,0,0,0,0,0,0,
0,0,0,0,0,0,0,0,0,0,0,0,0,0,0,0,
0,0,0,0,0,0,0,0,0,0,0,0,0,0,0,0,
0,0,0,0,0,0,0,0,0,0,0,0,0,0,0,0,
0,0,0,0,0,0,0,0,0,0,0,0,0,0,0,0,
0,0,0,0,0,0,0,0,0,0,0,0,0,0,0,0,
0,0,0,0,0,0,0,0,0,0,0,0,0,0,0,0
</chunk>
   <chunk x="-32" y="-16" width="16" height="16">
13967,13967,13967,13967,13967,13967,13967,13967,13967,13967,13967,13967,13967,13967,13967,13967,
13967,13967,13967,13967,13967,13967,13967,13967,13967,13967,13967,13967,13967,13967,13967,13967,
13967,13967,13967,13967,13967,13967,13967,13967,13967,13967,13967,13967,13967,13967,13967,13967,
13967,13967,13967,13967,13967,13967,13967,13967,13967,13967,13967,13967,13967,13967,13967,13967,
13967,13967,13967,13967,13967,13967,13967,13967,13967,13967,13967,13967,13967,13967,13967,13967,
13967,13967,13967,13967,13967,13967,13967,13967,13967,13967,13967,13967,13967,13967,13967,13967,
13967,13967,13967,13967,13967,13967,13967,13967,13967,13967,13967,13967,13967,13967,13967,13967,
13967,13967,13967,13967,13967,13967,13967,13967,13967,13967,13967,13967,13967,13967,13967,13967,
13967,13967,13967,13967,13967,13967,13967,13967,13967,13967,13967,13967,13967,13967,13967,13967,
13967,13967,13967,13967,13967,13967,13967,13967,13967,13967,0,13967,13967,0,0,13967,
13967,13967,13967,13967,13967,13967,13967,13967,13967,13967,13967,13967,0,13967,13967,13967,
13967,13967,13967,13967,13967,13967,13967,13967,13967,13967,13967,13967,13967,13967,13967,0,
13967,13967,13967,13967,13967,13967,13967,13967,13967,13967,13967,13967,13967,13967,13967,13967,
13967,13967,13967,13967,13967,13967,13967,13967,13967,13967,13967,13967,13967,13967,0,0,
13967,13967,13967,13967,13967,13967,13967,13967,13967,13967,13967,13967,0,0,13967,13967,
13967,13967,13967,13967,13967,13967,13967,13967,13967,13967,13967,13967,0,0,13967,13967
</chunk>
   <chunk x="-16" y="-16" width="16" height="16">
13967,13967,13967,13967,13967,13967,13967,13967,13967,13967,13967,13967,13967,13967,13967,13967,
13967,13967,13967,13967,13967,13967,13967,13967,13967,13967,13967,13967,13967,13967,13967,13967,
13967,13967,13967,13967,13967,13967,13967,13967,13967,13967,13967,13967,13967,13967,13967,13967,
13967,13967,13967,13967,13967,13967,13967,13967,13967,13967,13967,13967,13967,13967,13967,13967,
13967,13967,13967,13967,13967,13967,13967,13967,13967,13967,13967,13967,13967,13967,13967,13967,
13967,13967,13967,13967,13967,13967,13967,13967,13967,13967,13967,13967,13967,13967,13967,13967,
0,0,13967,13967,13967,13967,13967,13967,13967,13967,13967,13967,13967,13967,13967,13967,
13967,13967,13967,13967,13967,13967,13967,13967,13967,13967,13967,13967,13967,13967,13967,13967,
13967,13967,13967,13967,13967,13967,13967,13967,13967,13967,13967,13967,13967,13967,13967,13967,
13967,13967,13967,0,0,0,0,13967,0,13967,13967,0,0,0,0,0,
0,0,0,0,0,0,0,13967,0,0,0,0,0,0,0,0,
0,0,0,0,0,0,0,13967,0,0,0,0,0,0,0,0,
13967,13967,13967,13967,13967,13967,13967,13967,0,0,0,0,0,0,0,0,
0,0,0,0,0,0,0,0,0,0,0,0,0,0,13967,13967,
13967,13967,13967,13967,13967,13967,13967,13967,13967,13967,13967,13967,13967,13967,0,13967,
0,0,0,0,0,0,0,0,0,0,0,0,0,0,13967,13967
</chunk>
   <chunk x="0" y="-16" width="16" height="16">
13967,13967,13967,13967,13967,13967,13967,13967,13967,13967,13967,13967,13967,13967,13967,13967,
13967,13967,13967,13967,13967,13967,13967,13967,13967,13967,13967,13967,13967,13967,13967,13967,
13967,13967,13967,13967,13967,13967,13967,13967,13967,13967,13967,13967,13967,13967,13967,13967,
13967,13967,13967,13967,13967,13967,13967,13967,13967,13967,13967,13967,13967,13967,13967,13967,
13967,13967,13967,13967,13967,13967,13967,13967,13967,13967,13967,13967,13967,13967,13967,13967,
13967,13967,13967,13967,13967,13967,13967,13967,13967,13967,13967,13967,13967,13967,13967,13967,
13967,13967,13967,13967,13967,13967,13967,13967,13967,13967,13967,13967,13967,13967,13967,13967,
13967,13967,13967,13967,13967,13967,13967,13967,13967,13967,13967,13967,13967,13967,13967,13967,
13967,13967,13967,13967,13967,13967,13967,13967,13967,13967,13967,13967,13967,13967,13967,13967,
13967,13967,13967,13967,13967,13967,13967,13967,13967,13967,13967,13967,13967,13967,13967,13967,
0,0,0,13967,13967,13967,13967,13967,13967,13967,13967,13967,13967,13967,13967,13967,
0,13967,13967,13967,13967,13967,13967,13967,13967,13967,13967,13967,13967,13967,13967,13967,
0,0,0,0,13967,13967,13967,13967,13967,13967,13967,13967,13967,13967,13967,13967,
13967,13967,13967,13967,13967,13967,13967,13967,13967,13967,13967,13967,13967,13967,13967,13967,
13967,13967,13967,13967,13967,13967,13967,13967,13967,13967,13967,13967,13967,13967,13967,13967,
13967,13967,13967,13967,13967,13967,13967,13967,13967,13967,13967,13967,13967,13967,13967,13967
</chunk>
   <chunk x="16" y="-16" width="16" height="16">
13967,13967,13967,13967,13967,13967,13967,13967,13967,13967,13967,13967,13967,13967,13967,13967,
13967,13967,13967,13967,13967,13967,13967,13967,13967,13967,13967,13967,13967,13967,13967,13967,
13967,13967,13967,13967,13967,13967,13967,13967,13967,13967,13967,13967,13967,13967,13967,13967,
13967,13967,13967,13967,13967,13967,13967,13967,13967,13967,13967,13967,13967,13967,13967,13967,
13967,13967,13967,13967,13967,13967,13967,13967,13967,13967,13967,13967,13967,13967,13967,13967,
13967,13967,13967,13967,13967,13967,13967,13967,13967,13967,13967,13967,13967,13967,13967,13967,
13967,13967,13967,13967,13967,13967,13967,13967,13967,13967,13967,13967,13967,13967,13967,13967,
13967,13967,13967,13967,13967,13967,13967,13967,13967,13967,13967,13967,13967,13967,13967,13967,
13967,13967,13967,13967,13967,13967,13967,13967,13967,13967,13967,13967,13967,13967,13967,13967,
13967,13967,13967,13967,13967,13967,13967,13967,13967,13967,13967,13967,13967,13967,13967,13967,
13967,13967,13967,13967,13967,13967,13967,13967,13967,13967,13967,13967,13967,13967,13967,13967,
13967,13967,13967,13967,13967,13967,13967,13967,13967,13967,13967,13967,13967,13967,13967,13967,
13967,13967,13967,13967,13967,13967,13967,13967,13967,13967,13967,13967,13967,13967,13967,13967,
13967,13967,13967,13967,13967,13967,13967,13967,13967,13967,13967,13967,13967,13967,13967,13967,
13967,13967,13967,13967,13967,13967,13967,13967,13967,13967,13967,13967,13967,13967,13967,13967,
13967,13967,13967,13967,13967,13967,13967,13967,13967,13967,13967,13967,13967,13967,13967,13967
</chunk>
   <chunk x="32" y="-16" width="16" height="16">
13967,13967,13967,13967,13967,13967,13967,13967,13967,13967,13967,13967,13967,13967,13967,13967,
13967,13967,13967,13967,13967,13967,13967,13967,13967,13967,13967,13967,13967,13967,13967,13967,
13967,13967,13967,13967,13967,13967,13967,13967,13967,13967,13967,13967,13967,13967,13967,13967,
13967,13967,13967,13967,13967,13967,13967,13967,13967,13967,13967,13967,13967,13967,13967,13967,
13967,13967,13967,13967,13967,13967,13967,13967,13967,13967,13967,13967,13967,13967,13967,13967,
13967,13967,13967,13967,13967,13967,13967,13967,13967,13967,13967,13967,13967,13967,13967,13967,
13967,13967,13967,13967,13967,13967,13967,13967,13967,13967,13967,13967,13967,13967,13967,13967,
13967,13967,13967,13967,13967,13967,13967,13967,13967,13967,13967,13967,13967,13967,13967,13967,
13967,13967,13967,13967,13967,13967,13967,13967,13967,13967,13967,13967,13967,13967,13967,13967,
13967,13967,13967,13967,13967,13967,13967,13967,13967,13967,13967,13967,13967,13967,13967,13967,
13967,13967,13967,13967,13967,13967,13967,13967,13967,13967,13967,13967,13967,13967,13967,13967,
13967,13967,13967,13967,13967,13967,13967,13967,13967,13967,13967,13967,13967,13967,13967,13967,
13967,13967,13967,13967,13967,13967,13967,13967,13967,13967,13967,13967,13967,13967,13967,13967,
13967,13967,13967,13967,13967,13967,13967,13967,13967,13967,13967,13967,13967,13967,13967,13967,
13967,13967,13967,13967,13967,13967,13967,13967,13967,13967,13967,13967,13967,13967,13967,13967,
13967,13967,13967,13967,13967,13967,13967,13967,13967,13967,13967,13967,13967,13967,13967,13967
</chunk>
   <chunk x="48" y="-16" width="16" height="16">
0,13967,13967,13967,13967,13967,13967,13967,13967,13967,13967,13967,13967,13967,13967,13967,
13967,13967,13967,13967,13967,13967,0,0,0,13967,0,13967,13967,13967,13967,13967,
13967,13967,13967,13967,13967,13967,13967,13967,13967,13967,13967,13967,13967,13967,13967,13967,
13967,13967,13967,13967,13967,13967,13967,13967,13967,13967,13967,13967,13967,13967,13967,13967,
13967,13967,13967,13967,13967,13967,13967,13967,13967,13967,13967,13967,13967,13967,13967,13967,
13967,13967,13967,13967,13967,13967,13967,13967,13967,13967,13967,13967,13967,13967,13967,13967,
13967,13967,13967,13967,13967,13967,13967,13967,13967,13967,13967,13967,13967,13967,13967,13967,
13967,13967,13967,13967,13967,13967,13967,13967,13967,13967,13967,13967,13967,13967,13967,13967,
13967,13967,13967,13967,13967,13967,13967,13967,13967,13967,13967,13967,13967,13967,13967,13967,
13967,13967,13967,13967,13967,13967,13967,13967,13967,13967,13967,13967,13967,13967,13967,13967,
13967,13967,13967,13967,13967,13967,13967,13967,13967,13967,13967,13967,13967,13967,13967,13967,
13967,13967,13967,13967,13967,13967,13967,13967,13967,13967,13967,13967,13967,13967,13967,13967,
13967,13967,13967,13967,13967,13967,13967,13967,13967,13967,13967,13967,13967,13967,13967,13967,
13967,13967,13967,13967,13967,13967,13967,13967,13967,13967,13967,13967,13967,13967,13967,13967,
13967,13967,13967,13967,13967,13967,13967,13967,13967,0,13967,13967,13967,13967,13967,13967,
13967,13967,13967,13967,13967,13967,13967,0,13967,13967,13967,13967,13967,13967,13967,13967
</chunk>
   <chunk x="64" y="-16" width="16" height="16">
13967,13967,13967,13967,13967,13967,13967,13967,13967,13967,13967,13967,13967,13967,13967,13967,
13967,13967,13967,13967,13967,13967,13967,13967,13967,13967,13967,13967,13967,13967,13967,13967,
13967,13967,13967,13967,13967,13967,13967,13967,13967,13967,13967,13967,13967,13967,13967,13967,
13967,13967,13967,13967,13967,13967,13967,13967,13967,13967,13967,13967,13967,13967,13967,13967,
13967,13967,13967,13967,13967,13967,13967,13967,13967,13967,13967,13967,13967,13967,13967,13967,
13967,13967,13967,13967,13967,13967,13967,13967,13967,13967,13967,13967,13967,13967,13967,13967,
13967,13967,13967,13967,13967,13967,13967,13967,13967,13967,13967,13967,13967,13967,13967,13967,
13967,13967,13967,13967,13967,13967,13967,13967,13967,13967,13967,13967,13967,13967,13967,13967,
13967,13967,13967,13967,13967,13967,13967,13967,13967,13967,13967,13967,13967,13967,13967,13967,
13967,13967,13967,13967,13967,13967,13967,13967,13967,13967,13967,13967,13967,13967,13967,13967,
13967,13967,13967,13967,13967,13967,13967,13967,13967,13967,13967,13967,13967,13967,13967,13967,
13967,13967,13967,13967,13967,13967,13967,13967,13967,13967,13967,13967,13967,13967,13967,13967,
13967,13967,13967,13967,13967,13967,13967,13967,13967,13967,13967,13967,13967,13967,13967,13967,
13967,13967,13967,13967,13967,13967,13967,13967,13967,13967,13967,13967,13967,13967,13967,13967,
13967,13967,13967,13967,13967,13967,13967,13967,13967,13967,13967,13967,13967,13967,0,13967,
13967,13967,13967,13967,13967,13967,13967,13967,13967,13967,13967,13967,0,13967,13967,13967
</chunk>
   <chunk x="80" y="-16" width="16" height="16">
13967,13967,13967,13967,13967,13967,13967,13967,13967,13967,13967,13967,13967,13967,13967,13967,
13967,13967,13967,13967,13967,13967,13967,13967,13967,13967,13967,13967,13967,13967,13967,13967,
13967,13967,13967,13967,13967,13967,13967,13967,13967,13967,13967,13967,13967,13967,13967,13967,
13967,13967,13967,13967,13967,13967,13967,13967,13967,13967,13967,13967,13967,13967,13967,13967,
13967,13967,13967,13967,13967,13967,13967,13967,13967,13967,13967,13967,13967,13967,13967,13967,
13967,13967,13967,13967,13967,13967,13967,13967,13967,13967,13967,13967,13967,13967,13967,13967,
13967,13967,13967,13967,13967,13967,13967,13967,13967,13967,13967,13967,13967,13967,13967,13967,
13967,13967,13967,13967,13967,13967,13967,13967,13967,13967,13967,13967,13967,13967,13967,13967,
13967,13967,13967,13967,13967,13967,13967,13967,13967,13967,13967,13967,13967,13967,13967,13967,
13967,13967,13967,13967,13967,13967,13967,13967,13967,13967,13967,13967,13967,13967,13967,13967,
13967,13967,13967,13967,13967,13967,13967,13967,13967,13967,13967,13967,13967,13967,13967,13967,
13967,13967,13967,13967,13967,13967,13967,13967,13967,13967,13967,13967,13967,13967,13967,13967,
13967,13967,13967,13967,13967,13967,13967,13967,13967,13967,13967,13967,13967,13967,13967,13967,
13967,13967,13967,13967,13967,13967,13967,13967,13967,13967,13967,13967,13967,13967,13967,13967,
13967,0,13967,13967,13967,13967,13967,13967,13967,0,13967,13967,13967,0,0,13967,
13967,13967,13967,13967,0,0,13967,0,13967,0,13967,0,0,0,13967,13967
</chunk>
   <chunk x="96" y="-16" width="16" height="16">
13967,13967,13967,13967,13967,13967,13967,13967,13967,13967,13967,13967,13967,13967,0,0,
13967,13967,13967,13967,13967,13967,13967,13967,13967,13967,13967,13967,13967,13967,0,0,
13967,13967,13967,13967,13967,13967,13967,13967,13967,13967,13967,13967,13967,13967,0,0,
13967,13967,13967,13967,13967,13967,13967,13967,13967,13967,13967,13967,13967,13967,0,0,
13967,13967,13967,13967,13967,13967,13967,13967,13967,13967,13967,13967,13967,13967,0,0,
13967,13967,13967,13967,13967,13967,13967,13967,13967,13967,13967,13967,13967,13967,0,0,
13967,13967,13967,13967,13967,13967,13967,13967,13967,13967,13967,13967,13967,13967,0,0,
13967,13967,13967,13967,13967,13967,13967,13967,13967,13967,13967,13967,13967,13967,0,0,
13967,13967,13967,13967,13967,13967,13967,13967,13967,13967,13967,13967,13967,13967,0,0,
13967,13967,13967,13967,13967,13967,13967,13967,13967,13967,13967,13967,13967,13967,0,0,
13967,13967,13967,13967,13967,13967,13967,13967,13967,13967,13967,13967,13967,13967,0,0,
13967,13967,13967,13967,13967,13967,13967,13967,13967,13967,13967,13967,13967,0,0,0,
13967,13967,13967,13967,13967,13967,13967,13967,13967,13967,13967,13967,13967,0,0,0,
13967,13967,13967,13967,13967,13967,13967,13967,13967,13967,13967,13967,13967,0,0,0,
13967,13967,13967,0,13967,13967,13967,13967,13967,13967,13967,13967,13967,0,0,0,
0,0,13967,0,13967,13967,13967,13967,13967,13967,0,0,13967,0,0,0
</chunk>
   <chunk x="-48" y="0" width="16" height="16">
0,0,0,0,0,0,0,0,0,0,0,0,0,0,0,0,
0,0,0,0,0,0,0,0,0,0,0,0,0,0,0,0,
0,0,0,0,0,0,0,0,0,0,0,0,0,0,0,0,
0,0,0,0,0,0,0,0,0,0,0,0,0,0,0,0,
0,0,0,0,0,0,0,0,0,0,0,0,0,10473,10474,0,
0,0,0,0,0,0,0,0,0,0,0,0,0,10473,10474,0,
0,0,0,0,0,0,0,0,0,0,0,0,0,10473,10474,0,
0,0,0,0,0,0,0,0,0,0,0,0,0,10473,10474,0,
0,0,0,0,0,0,0,0,0,0,0,0,0,10473,10474,0,
0,0,0,0,0,0,0,0,0,0,0,0,0,10473,10474,0,
0,0,0,0,0,0,0,0,0,0,0,0,0,10473,10474,0,
0,0,0,0,0,0,0,0,0,0,0,0,0,10473,10474,0,
0,0,0,0,0,0,0,0,0,0,0,0,0,10473,10474,0,
0,0,0,0,0,0,0,0,0,0,0,0,0,10473,10474,0,
0,0,0,0,0,0,0,0,0,0,0,0,0,10473,10474,0,
0,0,0,0,0,0,0,0,0,0,0,0,0,10473,10474,0
</chunk>
   <chunk x="-32" y="0" width="16" height="16">
13967,13967,13967,13967,13967,13967,13967,13967,13967,13967,13967,0,0,13967,13967,13967,
13967,13967,13967,13967,13967,13967,13967,13967,0,0,13967,0,0,13967,13967,0,
13967,13967,13967,13967,13967,13967,0,0,0,13967,13967,13967,13967,0,13967,0,
13967,13967,13967,13967,13967,13967,13967,13967,13967,13967,0,0,0,13967,13967,0,
13967,13967,13967,13967,13967,13967,0,13967,13967,0,0,0,0,13967,0,0,
13967,13967,13967,13967,13967,13967,13967,13967,0,0,0,0,0,13967,0,0,
13967,13967,13967,13967,13967,13967,0,0,0,0,0,0,0,13967,0,0,
13967,13967,13967,13967,13967,13967,0,0,0,0,0,0,0,13967,0,0,
13967,13967,13967,13967,13967,13967,0,0,0,0,0,0,13967,0,0,0,
13967,13967,13967,13967,13967,13967,0,0,0,0,0,0,13967,0,0,0,
13967,13967,13967,13967,13967,13967,0,0,0,0,0,0,13967,0,0,0,
13967,13967,13967,13967,13967,13967,0,0,0,0,0,0,13967,0,0,0,
13967,13967,13967,13967,13967,13967,0,0,0,0,0,0,13967,0,0,0,
13967,13967,13967,13967,13967,13967,13967,0,0,0,0,0,13967,0,0,0,
13967,13967,13967,13967,13967,0,13967,0,0,0,0,0,0,13967,13967,0,
13967,13967,13967,13967,13967,0,13967,0,0,0,0,0,0,0,13967,13967
</chunk>
   <chunk x="-16" y="0" width="16" height="16">
0,0,0,0,0,0,0,0,0,0,0,0,0,13967,13967,13967,
0,0,0,0,0,0,0,0,0,0,0,0,0,0,0,13967,
0,0,0,0,0,0,0,0,0,0,0,0,0,0,0,0,
0,0,0,0,0,0,0,0,0,0,0,0,0,0,0,0,
0,0,0,0,0,0,0,0,0,0,0,0,0,0,0,0,
0,0,0,0,0,0,0,0,0,0,0,0,0,0,0,0,
0,0,0,0,0,0,0,0,0,0,0,0,0,0,0,0,
0,0,0,0,0,0,0,0,0,0,0,0,0,0,0,0,
0,0,0,0,0,0,0,0,0,0,0,0,0,0,0,0,
0,0,0,0,0,0,0,0,0,0,0,0,0,0,0,0,
0,0,0,0,0,0,0,0,0,0,0,0,0,0,0,0,
0,0,0,0,0,0,0,0,0,0,0,0,0,0,0,0,
0,0,0,0,0,0,0,0,0,0,0,0,0,0,0,0,
0,0,0,0,0,0,0,0,0,0,0,0,0,0,0,0,
0,0,0,0,0,0,0,0,0,0,0,0,0,0,0,0,
13967,13967,13967,13967,13967,13967,0,0,0,0,0,0,0,0,0,0
</chunk>
   <chunk x="0" y="0" width="16" height="16">
13967,13967,13967,13967,13967,13967,13967,13967,13967,13967,13967,13967,13967,13967,13967,13967,
13967,13967,13967,13967,13967,13967,13967,13967,13967,13967,13967,13967,13967,13967,13967,13967,
0,0,13967,13967,13967,13967,13967,13967,13967,13967,13967,13967,13967,13967,13967,13967,
0,0,0,13967,13967,13967,13967,13967,13967,13967,13967,13967,13967,13967,13967,13967,
0,0,0,0,0,13967,13967,13967,13967,13967,13967,13967,13967,13967,13967,13967,
0,13967,13967,13967,13967,13967,13967,13967,13967,13967,13967,13967,13967,13967,13967,13967,
0,0,13967,13967,13967,13967,13967,13967,13967,13967,13967,13967,13967,13967,13967,13967,
0,0,0,13967,13967,13967,13967,13967,13967,13967,13967,13967,13967,13967,13967,13967,
0,0,0,13967,13967,13967,13967,13967,13967,13967,13967,13967,13967,13967,13967,13967,
0,0,0,13967,13967,13967,13967,13967,13967,13967,13967,13967,13967,13967,13967,13967,
0,0,0,0,0,13967,13967,13967,13967,13967,13967,13967,13967,13967,13967,13967,
0,0,0,0,13967,13967,13967,13967,13967,13967,13967,13967,13967,13967,13967,13967,
0,0,0,0,0,13967,13967,13967,13967,13967,13967,13967,13967,13967,13967,13967,
0,0,0,0,0,13967,13967,13967,13967,13967,13967,13967,13967,13967,13967,13967,
0,0,0,0,0,0,13967,13967,13967,13967,13967,13967,13967,13967,13967,13967,
0,0,0,0,13967,13967,13967,13967,13967,13967,13967,13967,13967,13967,13967,13967
</chunk>
   <chunk x="16" y="0" width="16" height="16">
13967,13967,13967,13967,13967,13967,13967,13967,13967,13967,13967,13967,13967,13967,13967,13967,
13967,13967,13967,13967,13967,13967,13967,13967,13967,13967,13967,13967,13967,13967,13967,13967,
13967,13967,13967,13967,13967,0,13967,13967,13967,13967,13967,13967,13967,13967,13967,13967,
13967,13967,13967,13967,13967,13967,13967,13967,13967,13967,13967,13967,13967,13967,13967,13967,
13967,13967,13967,0,0,0,0,0,0,0,13967,13967,13967,13967,13967,13967,
13967,13967,0,0,0,0,0,13967,13967,13967,13967,13967,13967,13967,13967,13967,
13967,0,0,0,0,13967,13967,13967,13967,0,0,0,0,0,0,13967,
13967,13967,13967,13967,13967,13967,0,0,0,0,0,0,0,13967,13967,13967,
13967,13967,13967,0,13967,13967,13967,13967,13967,13967,13967,13967,13967,13967,13967,13967,
13967,13967,13967,13967,13967,13967,13967,13967,13967,13967,13967,13967,13967,13967,13967,13967,
0,0,0,0,0,13967,13967,0,0,13967,13967,0,0,13967,13967,13967,
13967,13967,13967,13967,13967,13967,13967,0,13967,0,0,0,0,0,0,13967,
13967,0,0,0,0,0,13967,13967,0,0,0,0,0,0,0,0,
13967,13967,13967,13967,13967,13967,0,0,0,0,0,0,13967,13967,13967,13967,
13967,13967,13967,13967,13967,13967,13967,13967,0,0,0,13967,13967,0,0,13967,
13967,13967,13967,13967,13967,13967,13967,13967,13967,13967,13967,13967,13967,13967,13967,13967
</chunk>
   <chunk x="32" y="0" width="16" height="16">
13967,13967,13967,13967,13967,13967,13967,13967,13967,13967,13967,13967,13967,13967,13967,13967,
13967,13967,13967,13967,13967,13967,13967,13967,13967,13967,13967,13967,13967,13967,13967,13967,
13967,13967,13967,13967,13967,13967,13967,13967,13967,13967,13967,13967,13967,13967,13967,13967,
13967,13967,13967,13967,13967,13967,13967,13967,13967,13967,13967,13967,13967,13967,13967,13967,
13967,13967,13967,13967,13967,13967,13967,13967,13967,13967,13967,13967,13967,13967,13967,13967,
13967,13967,13967,13967,13967,13967,13967,13967,13967,13967,13967,13967,13967,13967,13967,13967,
13967,13967,13967,13967,13967,13967,13967,13967,13967,13967,13967,13967,13967,13967,13967,13967,
13967,13967,13967,13967,13967,13967,13967,13967,13967,13967,13967,13967,13967,13967,13967,13967,
13967,13967,13967,13967,13967,13967,13967,13967,13967,13967,13967,13967,13967,13967,13967,13967,
13967,13967,13967,13967,13967,13967,13967,13967,13967,13967,13967,13967,13967,13967,13967,13967,
13967,13967,13967,13967,13967,13967,13967,13967,13967,13967,13967,13967,13967,13967,13967,13967,
13967,13967,13967,13967,13967,13967,13967,13967,13967,13967,13967,13967,13967,13967,0,0,
0,0,13967,13967,13967,13967,13967,13967,13967,13967,13967,13967,13967,13967,13967,13967,
13967,13967,13967,13967,13967,13967,13967,13967,13967,13967,13967,13967,13967,13967,0,0,
13967,13967,13967,13967,13967,13967,13967,13967,13967,13967,13967,13967,13967,0,0,0,
13967,13967,13967,13967,13967,13967,13967,13967,13967,13967,13967,13967,13967,13967,13967,13967
</chunk>
   <chunk x="48" y="0" width="16" height="16">
13967,13967,13967,13967,0,0,13967,13967,13967,0,13967,13967,13967,13967,13967,13967,
13967,13967,13967,13967,13967,13967,13967,0,0,13967,13967,13967,13967,13967,13967,13967,
13967,13967,13967,0,0,0,0,13967,13967,13967,13967,13967,13967,13967,13967,0,
0,0,0,13967,13967,13967,13967,13967,13967,13967,13967,13967,13967,13967,13967,13967,
13967,13967,13967,13967,13967,13967,13967,13967,13967,13967,13967,13967,13967,13967,13967,13967,
13967,13967,13967,13967,13967,0,0,0,13967,13967,13967,13967,13967,13967,13967,13967,
13967,13967,0,0,0,13967,13967,13967,13967,13967,13967,13967,13967,13967,13967,13967,
13967,13967,13967,13967,13967,13967,13967,13967,13967,13967,13967,13967,13967,13967,13967,13967,
0,0,0,0,0,0,0,0,0,0,0,0,0,13967,13967,13967,
13967,13967,13967,0,0,0,0,0,0,0,13967,13967,13967,13967,13967,13967,
13967,13967,13967,13967,13967,13967,13967,13967,13967,13967,0,0,13967,0,0,0,
0,0,0,0,0,0,0,0,13967,0,0,0,0,0,0,0,
13967,13967,13967,13967,13967,13967,13967,13967,13967,0,0,0,0,0,0,0,
0,0,0,0,0,13967,13967,13967,13967,13967,13967,13967,13967,13967,13967,13967,
0,0,13967,13967,13967,0,0,0,0,0,0,0,0,0,0,0,
13967,13967,13967,13967,13967,13967,13967,13967,13967,13967,13967,13967,13967,13967,13967,13967
</chunk>
   <chunk x="64" y="0" width="16" height="16">
13967,13967,13967,13967,13967,13967,13967,13967,13967,13967,13967,13967,0,13967,13967,13967,
13967,13967,13967,13967,13967,13967,13967,13967,13967,13967,13967,13967,13967,13967,13967,13967,
13967,13967,13967,13967,13967,13967,13967,13967,13967,13967,13967,13967,13967,13967,13967,13967,
13967,13967,13967,13967,13967,13967,13967,13967,13967,13967,13967,13967,13967,13967,13967,13967,
13967,13967,13967,13967,13967,13967,13967,13967,13967,13967,13967,13967,13967,13967,13967,13967,
13967,13967,13967,13967,13967,13967,13967,13967,13967,13967,13967,13967,13967,13967,13967,13967,
13967,13967,13967,13967,13967,13967,13967,13967,13967,13967,13967,13967,13967,13967,13967,13967,
13967,13967,13967,13967,13967,13967,13967,13967,13967,13967,13967,13967,13967,13967,13967,0,
13967,13967,13967,13967,13967,13967,13967,13967,13967,13967,13967,13967,13967,13967,13967,13967,
0,13967,13967,13967,13967,13967,13967,13967,13967,13967,13967,13967,13967,13967,13967,13967,
0,13967,13967,13967,13967,13967,13967,13967,13967,13967,13967,13967,13967,13967,13967,13967,
0,13967,13967,13967,13967,13967,13967,13967,13967,13967,13967,13967,13967,13967,13967,13967,
0,13967,13967,13967,13967,13967,13967,13967,13967,13967,13967,13967,13967,13967,13967,13967,
13967,13967,13967,13967,13967,13967,13967,13967,13967,13967,13967,13967,13967,13967,13967,13967,
0,13967,13967,13967,13967,13967,13967,13967,13967,13967,13967,13967,13967,13967,13967,13967,
13967,13967,13967,13967,13967,13967,13967,13967,13967,13967,13967,13967,13967,13967,13967,13967
</chunk>
   <chunk x="80" y="0" width="16" height="16">
13967,13967,13967,13967,13967,13967,0,13967,0,0,13967,0,0,13967,0,0,
0,0,0,0,0,13967,13967,0,0,0,0,0,13967,13967,13967,0,
0,0,0,0,13967,0,0,0,0,0,0,13967,13967,13967,13967,13967,
0,0,13967,13967,0,0,0,0,0,0,13967,13967,13967,13967,13967,13967,
13967,13967,0,0,0,0,0,0,13967,13967,13967,13967,13967,13967,13967,0,
13967,13967,0,0,0,0,0,13967,13967,13967,13967,13967,13967,13967,13967,13967,
13967,13967,0,0,0,13967,13967,13967,13967,13967,13967,0,13967,13967,13967,13967,
13967,0,0,13967,13967,13967,13967,13967,13967,13967,13967,13967,13967,13967,13967,0,
13967,13967,13967,13967,13967,13967,13967,13967,13967,13967,13967,13967,13967,13967,13967,13967,
13967,13967,13967,13967,13967,13967,13967,13967,13967,13967,13967,13967,13967,13967,13967,13967,
13967,13967,13967,13967,13967,13967,13967,13967,13967,13967,13967,13967,13967,13967,13967,13967,
13967,13967,13967,13967,13967,13967,13967,13967,13967,13967,13967,13967,13967,13967,13967,13967,
13967,13967,13967,13967,13967,13967,13967,13967,13967,13967,13967,13967,13967,13967,13967,13967,
13967,13967,13967,13967,13967,13967,13967,13967,13967,13967,13967,13967,13967,13967,13967,13967,
13967,13967,13967,13967,13967,13967,13967,13967,13967,13967,13967,13967,13967,13967,13967,13967,
13967,13967,13967,13967,13967,13967,13967,13967,13967,13967,13967,13967,13967,13967,13967,13967
</chunk>
   <chunk x="96" y="0" width="16" height="16">
0,0,13967,0,0,13967,0,13967,13967,0,0,0,13967,0,0,0,
13967,0,13967,0,0,13967,13967,0,0,0,0,0,13967,0,0,0,
13967,13967,13967,13967,13967,13967,13967,13967,0,0,0,13967,13967,0,0,0,
13967,13967,13967,0,13967,13967,13967,13967,0,0,0,13967,13967,0,0,0,
13967,13967,13967,13967,13967,13967,13967,13967,13967,13967,13967,13967,13967,0,0,0,
0,13967,13967,0,13967,13967,0,13967,13967,13967,0,13967,13967,0,10473,10474,
13967,13967,0,13967,13967,13967,13967,0,0,13967,13967,13967,13967,0,10473,10474,
0,13967,13967,13967,13967,0,0,0,0,13967,13967,13967,13967,0,10473,10474,
13967,13967,13967,13967,0,13967,13967,13967,13967,13967,13967,13967,13967,0,10473,10474,
13967,13967,13967,13967,13967,13967,13967,13967,13967,13967,13967,13967,13967,0,10473,10474,
13967,13967,13967,13967,13967,13967,13967,13967,0,13967,13967,13967,13967,0,10473,10474,
13967,13967,13967,13967,13967,13967,13967,13967,0,13967,13967,13967,13967,0,10473,10474,
13967,13967,13967,13967,13967,13967,13967,13967,13967,13967,13967,13967,13967,0,10473,10474,
13967,13967,13967,13967,13967,13967,13967,13967,13967,13967,13967,13967,13967,0,10473,10474,
13967,13967,13967,13967,13967,13967,13967,13967,13967,13967,13967,13967,13967,0,10473,10474,
13967,13967,13967,13967,13967,13967,13967,13967,13967,13967,13967,13967,13967,0,10473,10474
</chunk>
   <chunk x="-48" y="16" width="16" height="16">
0,0,0,0,0,0,0,0,0,0,0,0,0,10473,10474,0,
0,0,0,0,0,0,0,0,0,0,0,0,0,10473,10474,0,
0,0,0,0,0,0,0,0,0,0,0,0,0,10473,10474,0,
0,0,0,0,0,0,0,0,0,0,0,0,0,10473,10474,0,
0,0,0,0,0,0,0,0,0,0,0,0,0,10473,10474,0,
0,0,0,0,0,0,0,0,0,0,0,0,0,10473,10474,0,
0,0,0,0,0,0,0,0,0,0,0,0,0,10473,10474,0,
0,0,0,0,0,0,0,0,0,0,0,0,0,10473,10474,0,
0,0,0,0,0,0,0,0,0,0,0,0,0,10473,10474,0,
0,0,0,0,0,0,0,0,0,0,0,0,0,10473,10474,0,
0,0,0,0,0,0,0,0,0,0,0,0,0,10473,10474,0,
0,0,0,0,0,0,0,0,0,0,0,0,0,10473,10474,0,
0,0,0,0,0,0,0,0,0,0,0,0,0,10473,10474,0,
0,0,0,0,0,0,0,0,0,0,0,0,0,10473,10474,0,
0,0,0,0,0,0,0,0,0,0,0,0,0,10473,10474,0,
0,0,0,0,0,0,0,0,0,0,0,0,0,10473,10474,13967
</chunk>
   <chunk x="-32" y="16" width="16" height="16">
13967,13967,13967,13967,13967,0,13967,0,0,0,0,0,0,0,0,0,
13967,13967,13967,13967,13967,0,13967,0,0,0,0,0,0,0,0,0,
13967,13967,13967,13967,13967,0,13967,0,0,0,0,0,0,0,0,0,
13967,13967,13967,13967,13967,0,13967,13967,0,0,0,0,0,0,0,0,
13967,13967,13967,13967,13967,0,0,13967,0,0,0,0,0,0,0,0,
13967,13967,13967,13967,13967,0,0,13967,0,0,0,0,0,0,0,0,
13967,13967,13967,13967,13967,0,0,13967,0,0,0,0,0,0,0,13977,
13967,13967,13967,13967,13967,0,0,13977,0,0,0,0,0,0,0,13977,
13967,13967,13967,13967,13967,13977,13977,13977,13977,13977,13977,13977,13977,13977,13977,13977,
13967,13967,13967,13967,13967,13977,13977,13977,13977,13977,13977,13977,13977,13977,13977,13977,
13967,13967,13967,13967,13967,13977,13977,13977,13977,13977,13977,13977,13977,13977,13977,13977,
13967,13967,13967,13967,13967,13977,13977,13977,13977,13977,13977,13977,13977,13977,13977,13977,
13967,13967,13967,13967,13967,13977,13977,13977,13967,13967,13967,13967,13967,13977,13977,13977,
13967,13967,13967,13967,13967,13967,13967,13967,13967,13967,13967,13967,13967,13967,13967,13967,
13967,13967,13967,13967,13967,13967,13967,13967,13967,13967,13967,13967,13967,13967,13967,13967,
13967,13967,13967,13967,13967,13967,13967,13967,13967,13967,13967,13967,13967,13967,13967,13967
</chunk>
   <chunk x="-16" y="16" width="16" height="16">
0,0,0,0,13977,0,13967,13967,13967,13967,0,0,0,0,0,0,
0,0,0,13977,13977,13977,13977,13977,0,13977,13977,13967,0,0,0,0,
13977,13977,13977,13977,13977,13977,13977,13977,13977,13977,13977,0,0,0,0,0,
13977,13977,13977,13977,13977,13977,13977,13977,13977,13977,13977,0,0,0,13967,13967,
0,13977,13977,13977,13977,13977,13977,13977,13977,13977,13977,13967,13967,13967,0,0,
13977,13977,13977,13977,13977,13977,13977,13977,13977,13977,13967,0,0,0,0,0,
13977,13977,13977,13977,13977,13977,13977,13977,13977,13977,13977,13977,13967,13967,13967,13967,
13977,13977,13977,13977,13977,13977,13977,13977,13977,13977,13977,13977,0,13977,13977,0,
13977,13977,13977,13977,13977,13977,13977,13977,13977,13977,13977,13977,13977,13977,13977,13977,
13977,13977,13977,13977,13977,13977,13977,13977,13977,13977,13977,13977,13977,13977,13977,13977,
13977,13977,13977,13977,13977,13977,13977,13977,13977,13977,13977,13977,13977,13977,13977,13977,
13977,13977,13977,13977,13977,13977,13977,13977,13977,13977,13977,13977,13977,13977,13977,13977,
13977,13977,13977,13977,13977,13977,13977,13977,13977,13977,13977,13977,13977,13977,13977,13977,
13967,13977,13977,13977,13977,13977,13977,13977,13977,13977,13967,0,0,0,0,0,
13967,13967,13967,13967,13967,13967,13967,13967,13967,13967,13967,13967,13967,13967,13967,13967,
13967,13967,13967,13967,13967,13967,13967,13967,13967,13967,13967,13967,13967,13967,13967,13967
</chunk>
   <chunk x="0" y="16" width="16" height="16">
0,0,0,13967,13967,13967,13967,13967,13967,13967,13967,13967,13967,13967,13967,13967,
0,0,0,0,13967,13967,13967,13967,13967,13967,13967,13967,13967,13967,13967,13967,
0,13967,13967,13967,13967,13967,13967,13967,13967,13967,13967,13967,13967,13967,13967,13967,
13967,0,0,0,13967,13967,13967,13967,13967,13967,13967,13967,13967,13967,13967,13967,
0,0,0,0,13967,13967,13967,13967,13967,13967,13967,13967,13967,13967,13967,13967,
0,0,0,13967,13967,13967,13967,13967,13967,13967,13967,13967,13967,13967,13967,13967,
13967,13967,13967,13967,13967,13967,13967,13967,13967,13967,13967,13967,13967,13967,13967,13967,
13977,0,0,0,13967,13967,13967,13967,13967,13967,13967,13967,13967,13967,13967,13967,
13977,13977,13977,13977,13977,13967,13967,13967,13967,13967,13967,13967,13967,13967,13967,13967,
13977,13977,13977,13977,13977,13977,13967,13967,13967,13967,13967,13967,13967,13967,13967,13967,
13977,13977,13977,13977,13977,13977,13967,13967,13967,13967,13967,13967,13967,13967,13967,13967,
13977,13977,13977,13977,13977,13977,13967,13967,13967,13967,13967,13967,13967,13967,13967,13967,
13977,0,13977,13977,0,13977,13967,13967,13967,13967,13967,13967,13967,13967,13967,13967,
0,0,0,0,0,13967,13967,13967,13967,13967,13967,13967,13967,13967,13967,13967,
13967,13967,13967,13967,13967,13967,13967,13967,13967,13967,13967,13967,13967,13967,13967,13967,
13967,13967,13967,13967,13967,13967,13967,13967,13967,13967,13967,13967,13967,13967,13967,13967
</chunk>
   <chunk x="16" y="16" width="16" height="16">
13967,13967,13967,13967,0,0,0,0,0,0,0,0,0,0,0,0,
13967,13967,13967,13967,13967,0,0,0,0,0,0,0,0,0,0,13967,
13967,13967,13967,0,0,0,0,0,0,0,13967,13967,13967,13967,13967,13967,
13967,13967,13967,13967,13967,13967,0,13967,13967,13967,13967,13967,13967,13967,0,0,
0,0,0,0,0,0,0,0,0,13967,13967,0,0,0,13967,13967,
13967,13967,13967,13967,13967,0,0,13967,13967,13967,13967,0,0,0,0,0,
13967,13967,13967,13967,13967,13967,13967,13967,13967,13967,13967,13967,13967,13967,13967,13967,
13967,13967,13967,13967,13967,13967,13967,13967,13967,13967,13967,13967,13967,13967,13967,13967,
13967,13967,13967,13967,13967,13967,13967,13967,13967,13967,13967,13967,13967,13967,13967,13967,
13967,13967,13967,13967,13967,13967,13967,13967,13967,13967,13967,13967,13967,13967,13967,13967,
13967,13967,13967,13967,13967,13967,13967,13967,13967,13967,13967,13967,13967,13967,13967,13967,
13967,13967,13967,13967,13967,13967,13967,13967,13967,13967,13967,13967,13967,13967,13967,13967,
13967,13967,13967,13967,13967,13967,13967,13967,13967,13967,13967,13967,13967,13967,13967,13967,
13967,13967,13967,13967,13967,13967,13967,13967,13967,13967,13967,13967,13967,13967,13967,13967,
13967,13967,13967,13967,13967,13967,13967,13967,13967,13967,13967,13967,13967,13967,13967,13967,
13967,13967,13967,13967,13967,13967,13967,13967,13967,13967,13967,13967,13967,13967,13967,13967
</chunk>
   <chunk x="32" y="16" width="16" height="16">
13967,13967,13967,13967,13967,13967,13967,13967,13967,13967,13967,13967,13967,13967,13967,13967,
0,13967,13967,13967,13967,13967,13967,13967,13967,13967,13967,13967,13967,13967,13967,0,
13967,13967,13967,13967,13967,13967,13967,13967,13967,13967,13967,13967,13967,13967,13967,13967,
0,13967,13967,13967,13967,13967,13967,13967,13967,13967,13967,13967,13967,13967,13967,13967,
13967,13967,13967,13967,13967,13967,13967,13967,13967,13967,13967,13967,13967,13967,13967,13967,
13967,13967,13967,13967,13967,13967,13967,13967,13967,13967,13967,13967,13967,13967,13967,13967,
13967,13967,13967,13967,13967,13967,13967,13967,13967,13967,13967,13967,13967,13967,13967,13967,
13967,13967,13967,13967,13967,13967,13967,13967,13967,13967,13967,13967,13967,13967,13967,13967,
13967,13967,13967,13967,13967,13967,13967,13967,13967,13967,13967,13967,13967,13967,13967,13967,
13967,13967,13967,13967,13967,13967,13967,13967,13967,13967,13967,13967,13967,13967,13967,13967,
13967,13967,13967,13967,13967,13967,13967,13967,13967,13967,13967,13967,13967,13967,13967,13967,
13967,13967,13967,13967,13967,13967,13967,13967,13967,13967,13967,13967,13967,13967,13967,13967,
13967,13967,13967,13967,13967,13967,13967,13967,13967,13967,13967,13967,13967,13967,13967,13967,
13967,13967,13967,13967,13967,13967,13967,13967,13967,13967,13967,13967,13967,13967,13967,13967,
13967,13967,13967,13967,13967,13967,13967,13967,13967,13967,13967,13967,13967,13967,13967,13967,
13967,13967,13967,13967,13967,13967,13967,13967,13967,13967,13967,13967,13967,13967,13967,13967
</chunk>
   <chunk x="48" y="16" width="16" height="16">
0,0,0,0,0,0,0,0,0,0,0,0,0,0,0,0,
13967,0,0,0,0,0,0,0,0,0,0,0,0,0,0,0,
13967,0,0,0,0,0,0,0,0,0,0,0,0,0,0,0,
13967,0,0,0,0,0,0,0,0,0,0,0,0,0,0,0,
13967,13967,13967,13967,13967,13967,13967,13967,13967,13967,13967,13967,13967,13967,13967,13967,
13967,13967,13967,13967,0,0,0,0,0,0,13967,13967,13967,13967,13967,13967,
13967,13967,13967,13967,13967,13967,13967,13967,13967,13967,13967,13967,13967,13967,13967,13967,
13967,13967,13967,13967,13967,13967,13967,13967,13967,13967,13967,13967,13967,13967,13967,13967,
13967,13967,13967,13967,13967,13967,13967,13967,13967,13967,13967,13967,13967,13967,13967,13967,
13967,13967,13967,13967,0,0,13967,13967,13967,13967,13967,13967,13967,13967,13967,13967,
13967,13967,13967,13967,13967,13967,13967,13967,13967,13967,13967,13967,13967,13967,13967,13967,
13967,13967,13967,13967,13967,13967,13967,13967,13967,13967,13967,13967,13967,13967,13967,13967,
13967,13967,13967,13967,13967,13967,13967,13967,13967,13967,13967,13967,13967,13967,13967,13967,
13967,13967,13967,13967,13967,13967,13967,13967,13967,13967,13967,13967,13967,13967,13967,13967,
13967,13967,13967,13967,13967,13967,13967,13967,13967,13967,13967,13967,13967,13967,13967,13967,
13967,13967,13967,13967,13967,13967,13967,13967,13967,13967,13967,13967,13967,13967,13967,13967
</chunk>
   <chunk x="64" y="16" width="16" height="16">
0,13967,13967,13967,13967,13967,13967,13967,13967,13967,13967,13967,13967,13967,13967,13967,
0,13967,13967,13967,13967,13967,13967,13967,13967,13967,13967,13967,13967,13967,13967,13967,
13967,13967,13967,13967,13967,13967,13967,13967,13967,13967,13967,13967,13967,13967,13967,13967,
13967,13967,13967,13967,13967,13967,13967,13967,13967,13967,13967,13967,13967,13967,13967,13967,
13967,13967,13967,13967,13967,13967,13967,13967,13967,13967,13967,13967,13967,13967,13967,13967,
13967,13967,13967,13967,13967,13967,13967,13967,13967,13967,13967,13967,13967,13967,13967,13967,
13967,13967,13967,13967,13967,13967,13967,13967,13967,13967,13967,13967,13967,13967,13967,13967,
13967,13967,13967,13967,13967,13967,13967,13967,13967,13967,13967,13967,13967,13967,13967,13967,
13967,13967,13967,13967,13967,13967,13967,13967,13967,13967,13967,13967,13967,13967,13967,13967,
13967,13967,13967,13967,13967,13967,13967,13967,13967,13967,13967,13967,13967,13967,13967,13967,
13967,13967,13967,13967,13967,13967,13967,13967,13967,13967,13967,13967,13967,13967,13967,13967,
13967,13967,13967,13967,13967,13967,13967,13967,13967,13967,13967,13967,13967,13967,13967,13967,
13967,13967,13967,13967,13967,13967,13967,13967,13967,13967,13967,13967,13967,13967,13967,13967,
13967,13967,13967,13967,13967,13967,13967,13967,13967,13967,13967,13967,13967,13967,13967,13967,
13967,13967,13967,13967,13967,13967,13967,13967,13967,13967,13967,13967,13967,13967,13967,13967,
13967,13967,13967,13967,13967,13967,13967,13967,13967,13967,13967,13967,13967,13967,13967,13967
</chunk>
   <chunk x="80" y="16" width="16" height="16">
13967,13967,13967,13967,13967,13967,13967,13967,13967,13967,13967,13967,13967,13967,13967,13967,
13967,13967,13967,13967,13967,13967,13967,13967,13967,13967,13967,13967,13967,13967,0,13967,
13967,13967,13967,13967,13967,13967,13967,13967,13967,13967,13967,13967,13967,13967,13967,13967,
13967,13967,13967,13967,13967,13967,13967,13967,13967,13967,13967,13967,13967,13967,0,13967,
13967,13967,13967,13967,13967,13967,13967,13967,13967,13967,13967,0,0,13967,13967,13967,
13967,13967,13967,13967,13967,13967,13967,13967,13967,0,0,0,0,0,0,0,
13967,13967,13967,13967,13967,13967,0,0,0,0,0,0,0,0,0,0,
0,13967,13967,13967,0,0,0,0,0,0,0,0,0,0,0,0,
13967,13967,0,0,0,0,0,0,0,0,0,0,0,0,0,0,
13967,13967,13967,0,0,0,0,0,0,0,0,0,0,0,0,0,
13967,13967,0,0,0,0,0,0,0,0,0,0,0,0,0,0,
13967,0,0,0,0,0,0,0,0,0,0,0,0,0,0,0,
13967,13967,13967,0,0,0,0,0,0,0,0,0,0,13967,0,0,
13967,13967,13967,13967,13967,13967,13967,13967,13967,13967,13967,13967,13967,13967,13967,13967,
13967,13967,13967,13967,13967,13967,13967,13967,13967,13967,13967,13967,13967,13967,13967,13967,
13967,13967,13967,13967,13967,13967,13967,13967,13967,13967,13967,13967,13967,13967,13967,13967
</chunk>
   <chunk x="96" y="16" width="16" height="16">
13967,13967,13967,13967,13967,13967,13967,13967,13967,13967,13967,13967,13967,0,10473,10474,
13967,13967,13967,13967,13967,13967,13967,13967,13967,13967,13967,13967,13967,0,10473,10474,
0,13967,13967,13967,13967,13967,13967,0,0,13967,13967,13967,13967,0,10473,10474,
13967,13967,13967,13967,13967,13967,0,0,0,0,13967,13967,13967,0,10473,10474,
13967,0,0,0,0,0,0,0,0,13967,13967,13967,13967,0,10473,10474,
0,0,0,0,0,0,0,0,0,13967,13967,13967,13967,0,10473,10474,
0,0,0,0,0,0,0,0,0,13967,13967,13967,13967,0,10473,10474,
0,0,0,0,0,0,0,0,0,13967,13967,13967,13967,0,10473,10474,
0,0,0,0,0,0,0,0,0,13967,13967,13967,13967,0,10473,10474,
0,0,0,0,0,0,0,0,13967,13967,13967,13967,13967,0,10473,10474,
0,0,0,0,0,0,0,0,13967,0,13967,13967,13967,0,10473,10474,
0,0,0,0,0,0,0,0,13967,0,13967,13967,13967,0,10473,10474,
13967,13967,13967,13967,13967,13967,13967,13967,13967,13967,13967,13967,13967,0,10473,10474,
13967,13967,13967,13967,13967,13967,13967,13967,13967,13967,13967,13967,13967,0,10473,10474,
13967,13967,13967,13967,13967,13967,13967,13967,13967,13967,13967,13967,13967,0,10473,10474,
13967,13967,13967,13967,13967,13967,13967,13967,13967,13967,13967,13967,13967,0,10473,10474
</chunk>
   <chunk x="-48" y="32" width="16" height="16">
0,0,0,0,0,0,0,0,0,0,0,0,0,10473,10474,13967,
0,0,0,0,0,0,0,0,0,0,0,0,0,10473,10474,13967,
0,0,0,0,0,0,0,0,0,0,0,0,0,10473,10474,0,
0,0,0,0,0,0,0,0,0,0,0,0,0,10473,10474,13967,
0,0,0,0,0,0,0,0,0,0,0,0,0,10473,10474,13967,
0,0,0,0,0,0,0,0,0,0,0,0,0,0,0,0,
0,0,0,0,0,0,0,0,0,0,0,0,0,0,0,0,
0,0,0,0,0,0,0,0,0,0,0,0,0,0,0,0,
0,0,0,0,0,0,0,0,0,0,0,0,0,0,0,0,
0,0,0,0,0,0,0,0,0,0,0,0,0,0,0,0,
0,0,0,0,0,0,0,0,0,0,0,0,0,0,0,0,
0,0,0,0,0,0,0,0,0,0,0,0,0,0,0,0,
0,0,0,0,0,0,0,0,0,0,0,0,0,0,0,0,
0,0,0,0,0,0,0,0,0,0,0,0,0,0,0,0,
0,0,0,0,0,0,0,0,0,0,0,0,0,0,0,0,
0,0,0,0,0,0,0,0,0,0,0,0,0,0,0,0
</chunk>
   <chunk x="-32" y="32" width="16" height="16">
13967,13967,13967,13967,13967,13967,13967,13967,13967,13967,13967,13967,13967,13967,13967,13967,
13967,13967,13967,13967,13967,13967,13967,13967,13967,13967,13967,13967,13967,13967,13967,13967,
13967,13967,13967,13967,13967,13967,13967,13967,13967,13967,13967,13967,13967,13967,13967,13967,
13967,13967,13967,13967,13967,13967,13967,13967,13967,13967,13967,13967,13967,13967,13967,13967,
13967,13967,13967,13967,13967,13967,13967,13967,13967,13967,13967,13967,13967,13967,13967,13967,
0,0,0,0,0,0,0,0,0,0,0,0,0,0,0,0,
0,0,0,0,0,0,0,0,0,0,0,0,0,0,0,0,
0,0,0,0,0,0,0,0,0,0,0,0,0,0,0,0,
0,0,0,0,0,0,0,0,0,0,0,0,0,0,0,0,
0,0,0,0,0,0,0,0,0,0,0,0,0,0,0,0,
0,0,0,0,0,0,0,0,0,0,0,0,0,0,0,0,
0,0,0,0,0,0,0,0,0,0,0,0,0,0,0,0,
0,0,0,0,0,0,0,0,0,0,0,0,0,0,0,0,
0,0,0,0,0,0,0,0,0,0,0,0,0,0,0,0,
0,0,0,0,0,0,0,0,0,0,0,0,0,0,0,0,
0,0,0,0,0,0,0,0,0,0,0,0,0,0,0,0
</chunk>
   <chunk x="-16" y="32" width="16" height="16">
13967,13967,13967,13967,13967,13967,13967,13967,13967,13967,13967,13967,13967,13967,13967,13967,
13967,13967,13967,13967,13967,13967,13967,13967,13967,13967,13967,13967,13967,13967,13967,13967,
13967,13967,13967,13967,13967,13967,13967,13967,13967,13967,13967,13967,13967,13967,13967,13967,
13967,13967,13967,13967,13967,13967,13967,13967,13967,13967,13967,13967,13967,13967,13967,13967,
13967,13967,13967,13967,13967,13967,13967,13967,13967,13967,13967,13967,13967,13967,13967,13967,
0,0,0,0,0,0,0,0,0,0,0,0,0,0,0,0,
0,0,0,0,0,0,0,0,0,0,0,0,0,0,0,0,
0,0,0,0,0,0,0,0,0,0,0,0,0,0,0,0,
0,0,0,0,0,0,0,0,0,0,0,0,0,0,0,0,
0,0,0,0,0,0,0,0,0,0,0,0,0,0,0,0,
0,0,0,0,0,0,0,0,0,0,0,0,0,0,0,0,
0,0,0,0,0,0,0,0,0,0,0,0,0,0,0,0,
0,0,0,0,0,0,0,0,0,0,0,0,0,0,0,0,
0,0,0,0,0,0,0,0,0,0,0,0,0,0,0,0,
0,0,0,0,0,0,0,0,0,0,0,0,0,0,0,0,
0,0,0,0,0,0,0,0,0,0,0,0,0,0,0,0
</chunk>
   <chunk x="0" y="32" width="16" height="16">
13967,13967,13967,13967,13967,13967,13967,13967,13967,13967,13967,13967,13967,13967,13967,13967,
13967,13967,13967,13967,13967,13967,13967,13967,13967,13967,13967,13967,13967,13967,13967,13967,
13967,13967,13967,13967,13967,13967,13967,13967,13967,13967,13967,13967,13967,13967,13967,13967,
13967,13967,13967,13967,13967,13967,13967,13967,13967,13967,13967,13967,13967,13967,13967,13967,
13967,13967,13967,13967,13967,13967,13967,13967,13967,13967,13967,13967,13967,13967,13967,13967,
0,0,0,0,0,0,0,0,0,0,0,0,0,0,0,0,
0,0,0,0,0,0,0,0,0,0,0,0,0,0,0,0,
0,0,0,0,0,0,0,0,0,0,0,0,0,0,0,0,
0,0,0,0,0,0,0,0,0,0,0,0,0,0,0,0,
0,0,0,0,0,0,0,0,0,0,0,0,0,0,0,0,
0,0,0,0,0,0,0,0,0,0,0,0,0,0,0,0,
0,0,0,0,0,0,0,0,0,0,0,0,0,0,0,0,
0,0,0,0,0,0,0,0,0,0,0,0,0,0,0,0,
0,0,0,0,0,0,0,0,0,0,0,0,0,0,0,0,
0,0,0,0,0,0,0,0,0,0,0,0,0,0,0,0,
0,0,0,0,0,0,0,0,0,0,0,0,0,0,0,0
</chunk>
   <chunk x="16" y="32" width="16" height="16">
13967,13967,13967,13967,13967,13967,13967,13967,13967,13967,13967,13967,13967,13967,13967,13967,
13967,13967,13967,13967,13967,13967,13967,13967,13967,13967,13967,13967,13967,13967,13967,13967,
13967,13967,13967,13967,13967,13967,13967,13967,13967,13967,13967,13967,13967,13967,13967,13967,
13967,13967,13967,13967,13967,13967,13967,13967,13967,13967,13967,13967,13967,13967,13967,13967,
13967,13967,13967,13967,13967,13967,13967,13967,13967,13967,13967,13967,13967,13967,13967,13967,
0,0,0,0,0,0,0,0,0,0,0,0,0,0,0,0,
0,0,0,0,0,0,0,0,0,0,0,0,0,0,0,0,
0,0,0,0,0,0,0,0,0,0,0,0,0,0,0,0,
0,0,0,0,0,0,0,0,0,0,0,0,0,0,0,0,
0,0,0,0,0,0,0,0,0,0,0,0,0,0,0,0,
0,0,0,0,0,0,0,0,0,0,0,0,0,0,0,0,
0,0,0,0,0,0,0,0,0,0,0,0,0,0,0,0,
0,0,0,0,0,0,0,0,0,0,0,0,0,0,0,0,
0,0,0,0,0,0,0,0,0,0,0,0,0,0,0,0,
0,0,0,0,0,0,0,0,0,0,0,0,0,0,0,0,
0,0,0,0,0,0,0,0,0,0,0,0,0,0,0,0
</chunk>
   <chunk x="32" y="32" width="16" height="16">
13967,13967,13967,13967,13967,13967,13967,13967,13967,13967,13967,13967,13967,13967,13967,13967,
13967,13967,13967,13967,13967,13967,13967,13967,13967,13967,13967,13967,13967,13967,13967,13967,
13967,13967,13967,13967,13967,13967,13967,13967,13967,13967,13967,13967,13967,13967,13967,13967,
13967,13967,13967,13967,13967,13967,13967,13967,13967,13967,13967,13967,13967,13967,13967,13967,
13967,13967,13967,13967,13967,13967,13967,13967,13967,13967,13967,13967,13967,13967,13967,13967,
0,0,0,0,0,0,0,0,0,0,0,0,0,0,0,0,
0,0,0,0,0,0,0,0,0,0,0,0,0,0,0,0,
0,0,0,0,0,0,0,0,0,0,0,0,0,0,0,0,
0,0,0,0,0,0,0,0,0,0,0,0,0,0,0,0,
0,0,0,0,0,0,0,0,0,0,0,0,0,0,0,0,
0,0,0,0,0,0,0,0,0,0,0,0,0,0,0,0,
0,0,0,0,0,0,0,0,0,0,0,0,0,0,0,0,
0,0,0,0,0,0,0,0,0,0,0,0,0,0,0,0,
0,0,0,0,0,0,0,0,0,0,0,0,0,0,0,0,
0,0,0,0,0,0,0,0,0,0,0,0,0,0,0,0,
0,0,0,0,0,0,0,0,0,0,0,0,0,0,0,0
</chunk>
   <chunk x="48" y="32" width="16" height="16">
13967,13967,13967,13967,13967,13967,13967,13967,13967,13967,13967,13967,13967,13967,13967,13967,
13967,13967,13967,13967,13967,13967,13967,13967,13967,13967,13967,13967,13967,13967,13967,13967,
13967,13967,13967,13967,13967,13967,13967,13967,13967,13967,13967,13967,13967,13967,13967,13967,
13967,13967,13967,13967,13967,13967,13967,13967,13967,13967,13967,13967,13967,13967,13967,13967,
13967,13967,13967,13967,13967,13967,13967,13967,13967,13967,13967,13967,13967,13967,13967,13967,
0,0,0,0,0,0,0,0,0,0,0,0,0,0,0,0,
0,0,0,0,0,0,0,0,0,0,0,0,0,0,0,0,
0,0,0,0,0,0,0,0,0,0,0,0,0,0,0,0,
0,0,0,0,0,0,0,0,0,0,0,0,0,0,0,0,
0,0,0,0,0,0,0,0,0,0,0,0,0,0,0,0,
0,0,0,0,0,0,0,0,0,0,0,0,0,0,0,0,
0,0,0,0,0,0,0,0,0,0,0,0,0,0,0,0,
0,0,0,0,0,0,0,0,0,0,0,0,0,0,0,0,
0,0,0,0,0,0,0,0,0,0,0,0,0,0,0,0,
0,0,0,0,0,0,0,0,0,0,0,0,0,0,0,0,
0,0,0,0,0,0,0,0,0,0,0,0,0,0,0,0
</chunk>
   <chunk x="64" y="32" width="16" height="16">
13967,13967,13967,13967,13967,13967,13967,13967,13967,13967,13967,13967,13967,13967,13967,13967,
13967,13967,13967,13967,13967,13967,13967,13967,13967,13967,13967,13967,13967,13967,13967,13967,
13967,13967,13967,13967,13967,13967,13967,13967,13967,13967,0,0,13967,13967,13967,13967,
13967,13967,13967,13967,13967,13967,13967,13967,13967,13967,13967,13967,13967,13967,13967,13967,
13967,13967,13967,13967,13967,13967,13967,13967,13967,13967,13967,13967,13967,13967,13967,13967,
0,0,0,0,0,0,0,0,0,0,0,0,0,0,0,0,
0,0,0,0,0,0,0,0,0,0,0,0,0,0,0,0,
0,0,0,0,0,0,0,0,0,0,0,0,0,0,0,0,
0,0,0,0,0,0,0,0,0,0,0,0,0,0,0,0,
0,0,0,0,0,0,0,0,0,0,0,0,0,0,0,0,
0,0,0,0,0,0,0,0,0,0,0,0,0,0,0,0,
0,0,0,0,0,0,0,0,0,0,0,0,0,0,0,0,
0,0,0,0,0,0,0,0,0,0,0,0,0,0,0,0,
0,0,0,0,0,0,0,0,0,0,0,0,0,0,0,0,
0,0,0,0,0,0,0,0,0,0,0,0,0,0,0,0,
0,0,0,0,0,0,0,0,0,0,0,0,0,0,0,0
</chunk>
   <chunk x="80" y="32" width="16" height="16">
13967,13967,13967,13967,13967,13967,13967,13967,13967,13967,13967,13967,13967,13967,13967,13967,
13967,13967,13967,13967,13967,13967,13967,13967,13967,13967,13967,13967,13967,13967,13967,13967,
13967,13967,13967,13967,13967,13967,13967,13967,13967,13967,13967,13967,13967,13967,13967,13967,
13967,13967,13967,13967,13967,13967,13967,13967,13967,13967,13967,13967,13967,13967,13967,13967,
13967,13967,13967,13967,13967,13967,13967,13967,13967,13967,13967,13967,13967,13967,13967,13967,
0,0,0,0,0,0,0,0,0,0,0,0,0,0,0,0,
0,0,0,0,0,0,0,0,0,0,0,0,0,0,0,0,
0,0,0,0,0,0,0,0,0,0,0,0,0,0,0,0,
0,0,0,0,0,0,0,0,0,0,0,0,0,0,0,0,
0,0,0,0,0,0,0,0,0,0,0,0,0,0,0,0,
0,0,0,0,0,0,0,0,0,0,0,0,0,0,0,0,
0,0,0,0,0,0,0,0,0,0,0,0,0,0,0,0,
0,0,0,0,0,0,0,0,0,0,0,0,0,0,0,0,
0,0,0,0,0,0,0,0,0,0,0,0,0,0,0,0,
0,0,0,0,0,0,0,0,0,0,0,0,0,0,0,0,
0,0,0,0,0,0,0,0,0,0,0,0,0,0,0,0
</chunk>
   <chunk x="96" y="32" width="16" height="16">
13967,13967,13967,13967,13967,13967,13967,13967,13967,13967,13967,13967,13967,0,10473,10474,
13967,13967,13967,13967,13967,13967,13967,13967,13967,13967,13967,13967,0,0,10473,10474,
13967,13967,13967,13967,13967,13967,13967,13967,13967,13967,13967,13967,13967,0,10473,10474,
13967,13967,13967,13967,13967,13967,13967,13967,13967,13967,13967,13967,13967,13967,10473,10474,
13967,13967,13967,13967,13967,13967,13967,13967,13967,13967,13967,13967,13967,13967,10473,10474,
0,0,0,0,0,0,0,0,0,0,0,0,0,0,0,0,
0,0,0,0,0,0,0,0,0,0,0,0,0,0,0,0,
0,0,0,0,0,0,0,0,0,0,0,0,0,0,0,0,
0,0,0,0,0,0,0,0,0,0,0,0,0,0,0,0,
0,0,0,0,0,0,0,0,0,0,0,0,0,0,0,0,
0,0,0,0,0,0,0,0,0,0,0,0,0,0,0,0,
0,0,0,0,0,0,0,0,0,0,0,0,0,0,0,0,
0,0,0,0,0,0,0,0,0,0,0,0,0,0,0,0,
0,0,0,0,0,0,0,0,0,0,0,0,0,0,0,0,
0,0,0,0,0,0,0,0,0,0,0,0,0,0,0,0,
0,0,0,0,0,0,0,0,0,0,0,0,0,0,0,0
</chunk>
  </data>
 </layer>
 <layer id="4" name="terrain" width="160" height="96">
  <data encoding="csv">
   <chunk x="-48" y="-48" width="16" height="16">
0,0,0,0,0,0,0,0,0,0,0,0,0,0,0,0,
0,0,0,0,0,0,0,0,0,0,0,0,0,0,0,0,
0,0,0,0,0,0,0,0,0,0,0,0,0,0,0,0,
0,0,0,0,0,0,0,0,0,0,0,0,0,0,0,0,
0,0,0,0,0,0,0,0,0,0,0,0,0,0,0,0,
0,0,0,0,0,0,0,0,0,0,0,0,0,0,0,0,
0,0,0,0,0,0,0,0,0,0,0,0,0,0,0,0,
0,0,0,0,0,0,0,0,0,0,0,0,0,0,0,0,
0,0,0,0,0,0,0,0,0,0,0,0,0,0,0,0,
0,0,0,0,0,0,0,0,0,0,0,0,0,0,0,0,
0,0,0,0,0,0,0,0,0,0,0,0,0,0,0,1338,
0,0,0,0,0,0,0,0,0,0,0,0,0,0,0,7494,
0,0,0,0,0,0,0,0,0,0,0,0,0,0,0,7494,
0,0,0,0,0,0,0,0,0,0,0,0,0,0,0,7494,
0,0,0,0,0,0,0,0,0,0,0,0,0,0,0,7494,
0,0,0,0,0,0,0,0,0,0,0,0,0,0,0,7494
</chunk>
   <chunk x="-32" y="-48" width="16" height="16">
0,0,0,0,0,0,0,0,0,0,0,0,0,0,0,0,
0,0,0,0,0,0,0,0,0,0,0,0,0,0,0,0,
0,0,0,0,0,0,0,0,0,0,0,0,0,0,0,0,
0,0,0,0,0,0,0,0,0,0,0,0,0,0,0,0,
0,0,0,0,0,0,0,0,0,0,0,0,0,0,0,0,
0,0,0,0,0,0,0,0,0,0,0,0,0,0,0,0,
0,0,0,0,0,0,0,0,0,0,0,0,0,0,0,0,
0,0,0,0,0,0,0,0,0,0,0,0,0,0,0,0,
0,0,0,0,0,0,0,0,0,0,0,0,0,0,0,0,
0,0,0,0,0,0,0,0,0,0,0,0,0,0,0,0,
1332,1332,1332,1332,1332,1332,1332,1332,1332,1332,1332,1332,1332,1332,1332,1332,
1350,1350,1350,1350,1350,1350,1350,1350,1350,1350,1350,1350,1350,1350,1350,1350,
1368,1368,1368,1368,1368,1368,1368,1368,1368,1368,1368,1368,1368,1368,1368,1368,
0,0,0,0,0,0,0,0,0,0,0,0,0,0,0,0,
0,0,0,0,0,0,0,0,0,0,0,0,0,0,0,0,
0,0,0,0,0,0,0,0,0,0,0,0,0,0,0,0
</chunk>
   <chunk x="-16" y="-48" width="16" height="16">
0,0,0,0,0,0,0,0,0,0,0,0,0,0,0,0,
0,0,0,0,0,0,0,0,0,0,0,0,0,0,0,0,
0,0,0,0,0,0,0,0,0,0,0,0,0,0,0,0,
0,0,0,0,0,0,0,0,0,0,0,0,0,0,0,0,
0,0,0,0,0,0,0,0,0,0,0,0,0,0,0,0,
0,0,0,0,0,0,0,0,0,0,0,0,0,0,0,0,
0,0,0,0,0,0,0,0,0,0,0,0,0,0,0,0,
0,0,0,0,0,0,0,0,0,0,0,0,0,0,0,0,
0,0,0,0,0,0,0,0,0,0,0,0,0,0,0,0,
0,0,0,0,0,0,0,0,0,0,0,0,0,0,0,0,
1332,1332,1332,1332,1332,1332,1332,1332,1332,1332,1332,1332,1332,1332,1332,1332,
1350,1350,1350,1350,1350,1350,1350,1350,1350,1350,1350,1350,1350,1350,1350,1350,
1368,1368,1368,1368,1368,1368,1368,1368,1368,1368,1368,1368,1368,1368,1368,1368,
0,0,0,0,0,0,0,0,0,0,0,0,0,0,0,0,
0,0,0,0,0,0,0,0,0,0,0,0,0,0,0,0,
0,0,0,0,0,0,0,0,0,0,0,0,0,0,0,0
</chunk>
   <chunk x="0" y="-48" width="16" height="16">
0,0,0,0,0,0,0,0,0,0,0,0,0,0,0,0,
0,0,0,0,0,0,0,0,0,0,0,0,0,0,0,0,
0,0,0,0,0,0,0,0,0,0,0,0,0,0,0,0,
0,0,0,0,0,0,0,0,0,0,0,0,0,0,0,0,
0,0,0,0,0,0,0,0,0,0,0,0,0,0,0,0,
0,0,0,0,0,0,0,0,0,0,0,0,0,0,0,0,
0,0,0,0,0,0,0,0,0,0,0,0,0,0,0,0,
0,0,0,0,0,0,0,0,0,0,0,0,0,0,0,0,
0,0,0,0,0,0,0,0,0,0,0,0,0,0,0,0,
0,0,0,0,0,0,0,0,0,0,0,0,0,0,0,0,
1332,1332,1332,1332,1332,1332,1332,1332,1332,1332,1332,1332,1332,1332,1332,1332,
1350,1350,1350,1350,1350,1350,1350,1350,1350,1350,1350,1350,1350,1350,1350,1350,
1368,1368,1368,1368,1368,1368,1368,1368,1368,1368,1368,1368,1368,1368,1368,1368,
0,0,0,0,0,0,0,0,0,0,0,0,0,0,0,0,
0,0,0,0,0,0,0,0,0,0,0,0,0,0,0,0,
0,0,0,0,0,0,0,0,0,0,0,0,0,0,0,0
</chunk>
   <chunk x="16" y="-48" width="16" height="16">
0,0,0,0,0,0,0,0,0,0,0,0,0,0,0,0,
0,0,0,0,0,0,0,0,0,0,0,0,0,0,0,0,
0,0,0,0,0,0,0,0,0,0,0,0,0,0,0,0,
0,0,0,0,0,0,0,0,0,0,0,0,0,0,0,0,
0,0,0,0,0,0,0,0,0,0,0,0,0,0,0,0,
0,0,0,0,0,0,0,0,0,0,0,0,0,0,0,0,
0,0,0,0,0,0,0,0,0,0,0,0,0,0,0,0,
0,0,0,0,0,0,0,0,0,0,0,0,0,0,0,0,
0,0,0,0,0,0,0,0,0,0,0,0,0,0,0,0,
0,0,0,0,0,0,0,0,0,0,0,0,0,0,0,0,
1332,1332,1332,1332,1332,1332,1332,1332,1332,1332,1332,1332,1332,1332,1332,1332,
1350,1350,1350,1350,1350,1350,1350,1350,1350,1350,1350,1350,1350,1350,1350,1350,
1368,1368,1368,1368,1368,1368,1368,1368,1368,1368,1368,1368,1368,1368,1368,1368,
0,0,0,0,0,0,0,0,0,0,0,0,0,0,0,0,
0,0,0,0,0,0,0,0,0,0,0,0,0,0,0,0,
0,0,0,0,0,0,0,0,0,0,0,0,0,0,0,0
</chunk>
   <chunk x="32" y="-48" width="16" height="16">
0,0,0,0,0,0,0,0,0,0,0,0,0,0,0,0,
0,0,0,0,0,0,0,0,0,0,0,0,0,0,0,0,
0,0,0,0,0,0,0,0,0,0,0,0,0,0,0,0,
0,0,0,0,0,0,0,0,0,0,0,0,0,0,0,0,
0,0,0,0,0,0,12491,12492,12493,12494,12495,12496,12497,12498,12499,12500,
0,0,0,0,0,0,12507,12508,12509,12510,12511,12512,12513,12514,12515,12516,
0,0,0,0,0,0,12523,12524,12525,12526,12527,12528,12529,12530,12531,12532,
0,0,0,0,0,0,12539,12540,12541,12542,12543,12544,12545,12546,12547,12548,
0,0,0,0,0,0,12555,12556,12557,12558,12559,12560,12561,12562,12563,12564,
0,0,0,0,0,0,12571,12572,12573,12574,12575,12576,12577,12578,12579,12580,
1332,1332,1332,1332,1332,1332,1332,1332,1332,1332,1332,1332,1332,1332,1332,1332,
1350,1350,1350,1350,1350,1350,1350,1350,1350,1350,1350,1350,1350,1350,1350,1350,
1368,1368,1368,1368,1368,1368,1368,1368,1368,1368,1368,1368,1368,1368,1368,1368,
0,0,0,0,0,0,0,0,0,0,0,0,0,0,0,0,
0,0,0,0,0,0,0,0,0,0,0,0,0,0,0,0,
0,0,0,0,0,0,0,0,0,0,0,0,0,0,0,0
</chunk>
   <chunk x="48" y="-48" width="16" height="16">
0,0,0,0,0,0,0,0,0,0,0,0,0,0,0,0,
0,0,0,0,0,0,0,0,0,0,0,0,0,0,0,0,
0,0,0,0,0,0,0,0,0,0,0,0,0,0,0,0,
0,0,0,0,0,0,0,0,0,0,0,0,0,0,0,0,
12501,12502,0,0,0,0,0,0,0,0,0,0,0,0,12587,12588,
12517,12518,0,0,0,0,0,0,0,0,0,0,0,0,12603,12604,
12533,12534,0,0,0,11351,11351,11351,0,0,0,0,0,0,12619,12620,
12549,12550,0,0,0,0,0,0,0,0,0,0,0,0,12635,12636,
12565,12566,0,0,0,0,0,0,0,0,0,0,0,0,12651,12652,
12581,12582,0,0,0,0,0,0,0,0,0,0,0,0,12667,12668,
1332,1332,12950,12952,12951,12952,12951,12952,12951,12952,12951,12951,12952,12952,12953,1332,
1350,1350,12966,12968,12967,12968,12967,12968,12967,12968,12967,12967,12968,12968,12969,1350,
1368,1368,12982,12984,12983,12984,12983,12984,12983,12984,12983,12983,12984,12984,12985,1368,
0,0,0,0,0,0,0,0,0,0,0,0,0,0,0,0,
0,0,0,0,0,0,0,0,0,0,0,0,0,0,0,0,
0,0,0,0,0,0,0,0,0,0,0,0,0,0,0,0
</chunk>
   <chunk x="64" y="-48" width="16" height="16">
0,0,0,0,0,0,0,0,0,0,0,0,0,0,0,0,
0,0,0,0,0,0,0,0,0,0,0,0,0,0,0,0,
0,0,0,0,0,0,0,0,0,0,0,0,0,0,0,0,
0,0,0,0,0,0,0,0,0,0,0,0,0,0,0,0,
12589,12590,12591,12592,12593,12594,12595,12596,12597,12598,0,0,0,0,0,0,
12605,12606,12607,12608,12609,12610,12611,12612,12613,12614,0,0,0,0,0,0,
12621,12622,12623,12624,12625,12626,12627,12628,12629,12630,0,0,0,0,0,0,
12637,12638,12639,12640,12641,12642,12643,12644,12645,12646,0,0,0,0,0,0,
12653,12654,12655,12656,12657,12658,12659,12660,12661,12662,0,0,0,0,0,0,
12669,12670,12671,12672,12673,12674,12675,12676,12677,12678,0,0,0,0,0,0,
1332,1332,1332,1332,1332,1332,1332,1332,1332,1332,1332,1332,1332,1332,1332,1332,
1350,1350,1350,1350,1350,1350,1350,1350,1350,1350,1350,1350,1350,1350,1350,1350,
1368,1368,1368,1368,1368,1368,1368,1368,1368,1368,1368,1368,1368,1368,1368,1368,
0,0,0,0,0,0,0,0,0,0,0,0,0,0,0,0,
0,0,0,0,0,0,0,0,0,0,0,0,0,0,0,0,
0,0,0,0,0,0,0,0,0,0,0,0,0,0,0,0
</chunk>
   <chunk x="80" y="-48" width="16" height="16">
0,0,0,0,0,0,0,0,0,0,0,0,0,0,0,0,
0,0,0,0,0,0,0,0,0,0,0,0,0,0,0,0,
0,0,0,0,0,0,0,0,0,0,0,0,0,0,0,0,
0,0,0,0,0,0,0,0,0,0,0,0,0,0,0,0,
0,0,0,0,0,0,0,0,0,0,0,0,0,0,0,0,
0,0,0,0,0,0,0,0,0,0,0,0,0,0,0,0,
0,0,0,0,0,0,0,0,0,0,0,0,0,0,0,0,
0,0,0,0,0,0,0,0,0,0,0,0,0,0,0,0,
0,0,0,0,0,0,0,0,0,0,0,0,0,0,0,0,
0,0,0,0,0,0,0,0,0,0,0,0,0,0,0,0,
1332,1332,1332,1332,1332,1332,1332,1332,1332,1332,1332,1332,1332,1332,1332,1332,
1350,1350,1350,1350,1350,1350,1350,1350,1350,1350,1350,1350,1350,1350,1350,1350,
1368,1368,1368,1368,1368,1368,1368,1368,1368,1368,1368,1368,1368,1368,1368,1368,
0,0,0,0,0,0,0,0,0,0,0,0,0,0,0,0,
0,0,0,0,0,0,0,0,0,0,0,0,0,0,0,0,
0,0,0,0,0,0,0,0,0,0,0,0,0,0,0,0
</chunk>
   <chunk x="96" y="-48" width="16" height="16">
0,0,0,0,0,0,0,0,0,0,0,0,0,0,0,0,
0,0,0,0,0,0,0,0,0,0,0,0,0,0,0,0,
0,0,0,0,0,0,0,0,0,0,0,0,0,0,0,0,
0,0,0,0,0,0,0,0,0,0,0,0,0,0,0,0,
0,0,0,0,0,0,0,0,0,0,0,0,0,0,0,0,
0,0,0,0,0,0,0,0,0,0,0,0,0,0,0,0,
0,0,0,0,0,0,0,0,0,0,0,0,0,0,0,0,
0,0,0,0,0,0,0,0,0,0,0,0,0,0,0,0,
0,0,0,0,0,0,0,0,0,0,0,0,0,0,0,0,
0,0,0,0,0,0,0,0,0,0,0,0,0,0,0,0,
1332,1332,1332,1332,1332,1332,1332,1332,1332,1332,1332,1332,1332,1331,0,0,
1350,1350,1350,1350,1350,1350,1350,1350,1350,1350,1350,1350,1350,7491,0,0,
1368,1368,1368,1368,1368,1368,1368,1368,1368,1368,1368,1368,1368,7491,0,0,
0,0,0,0,0,0,0,0,0,0,0,0,0,7491,0,0,
0,0,0,0,0,0,0,0,0,0,0,0,0,7491,0,0,
0,0,0,0,0,0,0,0,0,0,0,0,0,7491,0,0
</chunk>
   <chunk x="-48" y="-32" width="16" height="16">
0,0,0,0,0,0,0,0,0,0,0,0,0,0,0,7494,
0,0,0,0,0,0,0,0,0,0,0,0,0,0,0,7494,
0,0,0,0,0,0,0,0,0,0,0,0,0,0,0,7494,
0,0,0,0,0,0,0,0,0,0,0,0,0,0,0,7494,
0,0,0,0,0,0,0,0,0,0,0,0,0,0,0,7494,
0,0,0,0,0,0,0,0,0,0,0,0,0,10473,10474,7494,
0,0,0,0,0,0,0,0,0,0,0,0,0,10505,10506,7494,
0,0,0,0,0,0,0,0,0,0,0,0,0,10505,10506,7494,
0,0,0,0,0,0,0,0,0,0,0,0,0,10473,10474,7494,
0,0,0,0,0,0,0,0,0,0,0,0,0,10505,10506,7494,
0,0,0,0,0,0,0,0,0,0,0,0,0,10505,10506,7494,
0,0,0,0,0,0,0,0,0,0,0,0,0,10505,10506,7494,
0,0,0,0,0,0,0,0,0,0,0,0,0,10505,10506,1356,
0,0,0,0,0,0,0,0,0,0,0,0,0,10505,10506,1374,
0,0,0,0,0,0,0,0,0,0,0,0,0,10505,10506,0,
0,0,0,0,0,0,0,0,0,0,0,0,0,10505,10506,0
</chunk>
   <chunk x="80" y="-32" width="16" height="16">
0,0,0,0,0,0,0,0,0,0,0,0,0,0,0,0,
0,0,0,0,0,0,0,0,0,0,0,0,0,0,0,0,
0,0,0,0,0,0,0,0,0,0,0,0,0,0,0,0,
0,0,0,0,0,0,0,0,0,0,0,0,0,0,0,0,
0,0,0,0,0,0,0,0,0,0,0,0,0,0,0,0,
0,0,0,0,0,0,0,0,0,0,0,0,0,0,0,0,
0,0,0,0,0,0,0,0,0,0,0,0,0,0,0,0,
0,0,0,0,0,0,0,0,0,0,0,0,0,0,0,0,
0,0,0,0,0,0,0,0,0,0,0,0,0,0,0,0,
0,0,0,0,0,0,0,0,0,0,0,0,0,0,0,0,
0,0,0,0,0,0,0,0,0,0,0,0,0,0,0,0,
0,0,0,0,0,0,0,0,0,0,0,0,0,0,0,0,
0,0,0,0,0,0,0,0,0,0,0,0,0,0,0,0,
0,0,0,0,0,0,0,0,0,0,0,0,0,0,0,0,
0,0,0,0,0,0,0,0,0,0,0,0,0,0,0,0,
0,0,0,5304,5305,5306,5307,5308,5309,0,0,0,0,0,0,0
</chunk>
   <chunk x="96" y="-32" width="16" height="16">
0,0,0,0,0,0,0,0,0,0,0,0,0,7491,0,0,
0,0,0,0,0,0,0,0,0,0,0,0,0,7491,0,0,
0,0,0,0,0,0,0,0,0,0,0,0,0,7491,0,0,
0,0,0,0,0,0,0,0,0,0,0,0,0,7491,0,0,
0,0,0,0,0,0,0,0,0,0,0,0,0,7491,0,0,
0,0,0,0,0,0,0,0,0,0,0,0,0,7491,0,0,
0,0,0,0,0,0,0,0,0,0,0,0,0,7491,0,0,
0,0,0,0,0,0,0,0,0,0,0,0,0,7491,10473,10474,
0,0,0,0,0,0,0,0,0,0,0,0,0,7491,10473,10474,
0,0,0,0,0,0,0,0,0,0,0,0,0,7491,10473,10474,
0,0,0,0,0,0,0,0,0,0,0,0,0,7491,10473,10474,
0,0,0,0,0,0,0,0,0,0,0,0,0,7491,10473,10474,
0,0,0,0,0,0,0,0,0,0,0,0,0,7491,10473,10474,
0,0,0,0,0,0,0,0,0,0,0,0,0,0,10473,10474,
0,0,0,0,0,0,0,0,0,0,0,0,0,0,10473,10474,
0,0,0,0,0,0,0,0,0,0,0,0,0,0,10473,10474
</chunk>
   <chunk x="-48" y="-16" width="16" height="16">
0,0,0,0,0,0,0,0,0,0,0,0,0,10505,10506,0,
0,0,0,0,0,0,0,0,0,0,0,0,0,10505,10506,0,
0,0,0,0,0,0,0,0,0,0,0,0,0,10505,10506,0,
0,0,0,0,0,0,0,0,0,0,0,0,0,10505,10506,0,
0,0,0,0,0,0,0,0,0,0,0,0,0,10505,10506,0,
0,0,0,0,0,0,0,0,0,0,0,0,0,10505,10506,0,
0,0,0,0,0,0,0,0,0,0,0,0,0,10505,10506,0,
0,0,0,0,0,0,0,0,0,0,0,0,0,10505,10506,0,
0,0,0,0,0,0,0,0,0,0,0,0,0,10505,10506,7494,
0,0,0,0,0,0,0,0,0,0,0,0,0,10505,10506,7494,
0,0,0,0,0,0,0,0,0,0,0,0,0,10505,10506,7494,
0,0,0,0,0,0,0,0,0,0,0,0,0,10505,10506,7494,
0,0,0,0,0,0,0,0,0,0,0,0,0,10505,10506,7494,
0,0,0,0,0,0,0,0,0,0,0,0,0,10505,10506,7494,
0,0,0,0,0,0,0,0,0,0,0,0,0,10505,10506,7494,
0,0,0,0,0,0,0,0,0,0,0,0,0,10505,10506,7494
</chunk>
   <chunk x="80" y="-16" width="16" height="16">
0,0,0,5312,5313,5314,5315,5316,5317,0,0,0,0,0,0,0,
0,0,0,5320,5321,5322,5323,5324,5325,0,0,0,0,0,0,0,
0,0,0,5328,5329,5330,5331,5332,5333,0,0,0,0,0,0,0,
0,0,0,5336,5337,5338,5339,5340,5341,0,0,0,0,0,0,0,
0,0,0,5344,5345,5346,5347,5348,5349,0,0,0,0,0,0,0,
0,0,0,5352,5353,5354,5355,5356,5357,0,0,0,0,0,0,0,
0,0,0,5360,5361,5362,5363,5364,5365,0,0,0,0,0,0,0,
0,0,0,0,0,0,0,0,0,0,0,0,0,0,0,0,
0,0,0,0,0,0,0,0,0,0,0,0,0,0,0,0,
0,0,0,0,0,0,0,0,0,0,0,0,0,0,0,0,
0,0,0,0,0,0,0,0,0,0,0,0,0,0,0,0,
0,0,0,0,0,0,0,0,0,0,0,0,0,0,0,0,
0,0,0,0,0,0,0,0,0,0,0,0,0,0,0,0,
0,0,0,0,0,0,0,0,0,0,0,0,0,0,0,0,
0,0,0,0,0,0,0,0,0,0,0,0,0,0,0,0,
0,0,0,0,0,0,0,0,0,0,0,0,0,0,0,0
</chunk>
   <chunk x="96" y="-16" width="16" height="16">
0,0,0,0,0,0,0,0,0,0,0,0,0,0,10473,10474,
0,0,0,0,0,0,0,0,0,0,0,0,0,0,10473,10474,
0,0,0,0,0,0,0,0,0,0,0,0,0,0,10473,10474,
0,0,0,0,0,0,0,0,0,0,0,0,0,0,10473,10474,
0,0,0,0,0,0,0,0,0,0,0,0,0,0,10473,10474,
0,0,0,0,0,0,0,0,0,0,0,0,0,0,10473,10474,
0,0,0,0,0,0,0,0,0,0,0,0,0,0,10505,10506,
0,0,0,0,0,0,0,0,0,0,0,0,0,0,10473,10474,
0,0,0,0,0,0,0,0,0,0,0,0,0,0,10473,10474,
0,0,0,0,0,0,0,0,0,0,0,0,0,0,10473,10474,
0,0,0,0,0,0,0,0,0,0,0,0,0,0,10473,10474,
0,0,0,0,0,0,0,0,0,0,0,0,0,7491,10473,10474,
0,0,0,0,0,0,0,0,0,0,0,0,0,7491,10473,10474,
0,0,0,0,0,0,0,0,0,0,0,0,0,7491,10473,10474,
0,0,0,0,0,0,0,0,0,0,0,0,0,7491,10473,10474,
0,0,0,0,0,0,0,0,0,0,0,0,0,7491,10473,10474
</chunk>
   <chunk x="-48" y="0" width="16" height="16">
0,0,0,0,0,0,0,0,0,0,0,0,0,10505,10506,7494,
0,0,0,0,0,0,0,0,0,0,0,0,0,10505,10506,7494,
0,0,0,0,0,0,0,0,0,0,0,0,0,10505,10506,7494,
0,0,0,0,0,0,0,0,0,0,0,0,0,10505,10506,7494,
0,0,0,0,0,0,0,0,0,0,0,0,0,0,0,7494,
0,0,0,0,0,0,0,0,0,0,0,0,0,0,0,7494,
0,0,0,0,0,0,0,0,0,0,0,0,0,0,0,7494,
0,0,0,0,0,0,0,0,0,0,0,0,0,0,0,7494,
0,0,0,0,0,0,0,0,0,0,0,0,0,0,0,7494,
0,0,0,0,0,0,0,0,0,0,0,0,0,0,0,7494,
0,0,0,0,0,0,0,0,0,0,0,0,0,0,0,7494,
0,0,0,0,0,0,0,0,0,0,0,0,0,0,0,7494,
0,0,0,0,0,0,0,0,0,0,0,0,0,0,0,7494,
0,0,0,0,0,0,0,0,0,0,0,0,0,0,0,7494,
0,0,0,0,0,0,0,0,0,0,0,0,0,0,0,7494,
0,0,0,0,0,0,0,0,0,0,0,0,0,0,0,7494
</chunk>
   <chunk x="96" y="0" width="16" height="16">
0,0,0,0,0,0,0,0,0,0,0,0,0,7491,10473,10474,
0,0,0,0,0,0,0,0,0,0,0,0,0,7491,10473,10474,
0,0,0,0,0,0,0,0,0,0,0,0,0,7491,10473,10474,
0,0,0,0,0,0,0,0,0,0,0,0,0,7491,10473,10474,
0,0,0,0,0,0,0,0,0,0,0,0,0,7491,10505,10506,
0,0,0,0,0,0,0,0,0,0,0,0,0,7491,0,0,
0,0,0,0,0,0,0,0,0,0,0,0,0,7491,0,0,
0,0,0,0,0,0,0,0,0,0,0,0,0,7491,0,0,
0,0,0,0,0,0,0,0,0,0,0,0,0,7491,0,0,
0,0,0,0,0,0,0,0,0,0,0,0,0,7491,0,0,
0,0,0,0,0,0,0,0,0,0,0,0,0,7491,0,0,
0,0,0,0,0,0,0,0,0,0,0,0,0,7491,0,0,
0,0,0,0,0,0,0,0,0,0,0,0,0,7491,0,0,
0,0,0,0,0,0,0,0,0,0,0,0,0,7491,0,0,
0,0,0,0,0,0,0,0,0,0,0,0,0,7491,0,0,
0,0,0,0,0,0,0,0,0,0,0,0,0,7491,0,0
</chunk>
   <chunk x="-48" y="16" width="16" height="16">
0,0,0,0,0,0,0,0,0,0,0,0,0,0,0,7494,
0,0,0,0,0,0,0,0,0,0,0,0,0,0,0,7494,
0,0,0,0,0,0,0,0,0,0,0,0,0,0,0,7494,
0,0,0,0,0,0,0,0,0,0,0,0,0,0,0,7494,
0,0,0,0,0,0,0,0,0,0,0,0,0,0,0,7494,
0,0,0,0,0,0,0,0,0,0,0,0,0,0,0,7494,
0,0,0,0,0,0,0,0,0,0,0,0,0,0,0,7494,
0,0,0,0,0,0,0,0,0,0,0,0,0,0,0,7494,
0,0,0,0,0,0,0,0,0,0,0,0,0,0,0,7494,
0,0,0,0,0,0,0,0,0,0,0,0,0,0,0,7494,
0,0,0,0,0,0,0,0,0,0,0,0,0,0,0,7494,
0,0,0,0,0,0,0,0,0,0,0,0,0,0,0,7494,
0,0,0,0,0,0,0,0,0,0,0,0,0,0,0,7494,
0,0,0,0,0,0,0,0,0,0,0,0,0,0,0,7494,
0,0,0,0,0,0,0,0,0,0,0,0,0,0,0,7494,
0,0,0,0,0,0,0,0,0,0,0,0,0,0,0,7494
</chunk>
   <chunk x="96" y="16" width="16" height="16">
0,0,0,0,0,0,0,0,0,0,0,0,0,7491,0,0,
0,0,0,0,0,0,0,0,0,0,0,0,0,7491,0,0,
0,0,0,0,0,0,0,0,0,0,0,0,0,7491,0,0,
0,0,0,0,0,0,0,0,0,0,0,0,0,7491,0,0,
0,0,0,0,0,0,0,0,0,0,0,0,0,7491,0,0,
0,0,0,0,0,0,0,0,0,0,0,0,0,7491,0,0,
0,0,0,0,0,0,0,0,0,0,0,0,0,7491,0,0,
0,0,0,0,0,0,0,0,0,0,0,0,0,7491,0,0,
0,0,0,0,0,0,0,0,0,0,0,0,0,7491,0,0,
0,0,0,0,0,0,0,0,0,0,0,0,0,7491,0,0,
0,0,0,0,0,0,0,0,0,0,0,0,0,7491,0,0,
0,0,0,0,0,0,0,0,0,0,0,0,0,7491,0,0,
0,0,0,0,0,0,0,0,0,0,0,0,0,7491,0,0,
0,0,0,0,0,0,0,0,0,0,0,0,0,7491,0,0,
0,0,0,0,0,0,0,0,0,0,0,0,0,7491,0,0,
0,0,0,0,0,0,0,0,0,0,0,0,0,7491,0,0
</chunk>
   <chunk x="-48" y="32" width="16" height="16">
0,0,0,0,0,0,0,0,0,0,0,0,0,0,0,7494,
0,0,0,0,0,0,0,0,0,0,0,0,0,0,0,7494,
0,0,0,0,0,0,0,0,0,0,0,0,0,0,0,7494,
0,0,0,0,0,0,0,0,0,0,0,0,0,0,0,0,
0,0,0,0,0,0,0,0,0,0,0,0,0,0,0,0,
0,0,0,0,0,0,0,0,0,0,0,0,0,0,0,0,
0,0,0,0,0,0,0,0,0,0,0,0,0,0,0,0,
0,0,0,0,0,0,0,0,0,0,0,0,0,0,0,0,
0,0,0,0,0,0,0,0,0,0,0,0,0,0,0,0,
0,0,0,0,0,0,0,0,0,0,0,0,0,0,0,0,
0,0,0,0,0,0,0,0,0,0,0,0,0,0,0,0,
0,0,0,0,0,0,0,0,0,0,0,0,0,0,0,0,
0,0,0,0,0,0,0,0,0,0,0,0,0,0,0,0,
0,0,0,0,0,0,0,0,0,0,0,0,0,0,0,0,
0,0,0,0,0,0,0,0,0,0,0,0,0,0,0,0,
0,0,0,0,0,0,0,0,0,0,0,0,0,0,0,0
</chunk>
   <chunk x="96" y="32" width="16" height="16">
0,0,0,0,0,0,0,0,0,0,0,0,0,7491,0,0,
0,0,0,0,0,0,0,0,0,0,0,0,0,7491,0,0,
0,0,0,0,0,0,0,0,0,0,0,0,0,7491,0,0,
0,0,0,0,0,0,0,0,0,0,0,0,0,0,0,0,
0,0,0,0,0,0,0,0,0,0,0,0,0,0,0,0,
0,0,0,0,0,0,0,0,0,0,0,0,0,0,0,0,
0,0,0,0,0,0,0,0,0,0,0,0,0,0,0,0,
0,0,0,0,0,0,0,0,0,0,0,0,0,0,0,0,
0,0,0,0,0,0,0,0,0,0,0,0,0,0,0,0,
0,0,0,0,0,0,0,0,0,0,0,0,0,0,0,0,
0,0,0,0,0,0,0,0,0,0,0,0,0,0,0,0,
0,0,0,0,0,0,0,0,0,0,0,0,0,0,0,0,
0,0,0,0,0,0,0,0,0,0,0,0,0,0,0,0,
0,0,0,0,0,0,0,0,0,0,0,0,0,0,0,0,
0,0,0,0,0,0,0,0,0,0,0,0,0,0,0,0,
0,0,0,0,0,0,0,0,0,0,0,0,0,0,0,0
</chunk>
  </data>
 </layer>
 <layer id="18" name="terrain_-1" width="15" height="15">
  <data encoding="csv">
   <chunk x="-16" y="-48" width="16" height="16">
0,0,0,0,0,0,0,0,0,0,0,0,0,0,0,0,
0,0,0,0,0,0,0,0,0,0,0,0,0,0,0,0,
0,0,0,0,0,0,0,0,0,0,0,0,0,0,0,0,
0,0,0,0,0,0,0,0,0,0,0,0,0,0,0,0,
0,0,0,0,0,0,0,0,0,0,0,0,0,0,0,0,
0,0,0,0,0,0,0,0,0,0,0,0,0,0,0,0,
0,0,0,0,0,0,0,0,0,0,0,0,0,0,0,0,
0,0,0,0,0,0,0,0,0,0,0,0,0,0,0,0,
0,0,0,0,0,0,0,0,0,0,0,0,0,12429,12430,12430,
0,0,0,0,0,0,0,0,0,0,0,0,0,12445,12446,12446,
0,0,0,0,0,0,0,0,0,0,0,0,0,0,0,0,
0,0,0,0,0,0,0,0,0,0,0,0,0,0,0,0,
0,0,0,0,0,0,0,0,0,0,0,0,0,0,0,0,
0,0,0,0,0,0,0,0,0,0,0,0,0,0,0,0,
0,0,0,0,0,0,0,0,0,0,0,0,0,0,0,0,
0,0,0,0,0,0,0,0,0,0,0,0,0,0,0,0
</chunk>
   <chunk x="0" y="-48" width="16" height="16">
0,0,0,0,0,0,0,0,0,0,0,0,0,0,0,0,
0,0,0,0,0,0,0,0,0,0,0,0,0,0,0,0,
0,0,0,0,0,0,0,0,0,0,0,0,0,0,0,0,
0,0,0,0,0,0,0,0,0,0,0,0,0,0,0,0,
0,0,0,0,0,0,0,0,0,0,0,0,0,0,0,0,
0,0,0,0,0,0,0,0,0,0,0,0,0,0,0,0,
0,0,0,0,0,0,0,0,0,0,0,0,0,0,0,0,
0,0,0,0,0,0,0,0,0,0,0,0,0,0,0,0,
12430,12430,12430,12430,12430,12430,12430,12430,12430,12429,12429,12429,12429,12429,12430,12430,
12446,12446,12446,12446,12446,12446,12446,12446,12446,12445,12445,12445,12445,12445,12446,12446,
0,0,0,0,0,0,0,0,0,0,0,0,0,0,0,0,
0,0,0,0,0,0,0,0,0,0,0,0,0,0,0,0,
0,0,0,0,0,0,0,0,0,0,0,0,0,0,0,0,
0,0,0,0,0,0,0,0,0,0,0,0,0,0,0,0,
0,0,0,0,0,0,0,0,0,0,0,0,0,0,0,0,
0,0,0,0,0,0,0,0,0,0,0,0,0,0,0,0
</chunk>
   <chunk x="16" y="-48" width="16" height="16">
0,0,0,0,0,0,0,0,0,0,0,0,0,0,0,0,
0,0,0,0,0,0,0,0,0,0,0,0,0,0,0,0,
0,0,0,0,0,0,0,0,0,0,0,0,0,0,0,0,
0,0,0,0,0,0,0,0,0,0,0,0,0,0,0,0,
0,0,0,0,0,0,0,0,0,0,0,0,0,0,0,0,
0,0,0,0,0,0,0,0,0,0,0,0,0,0,0,0,
0,0,0,0,0,0,0,0,0,0,0,0,0,0,0,0,
0,0,0,0,0,0,0,0,0,0,0,0,0,0,0,0,
12430,12430,12429,12430,12430,12430,12430,12430,12430,12430,12430,12430,12446,12430,12430,12430,
12446,12446,12445,12446,12446,12446,12446,12446,12446,12446,12446,12446,12446,12446,12446,12446,
0,0,0,0,0,0,0,0,0,0,0,0,0,0,0,0,
0,0,0,0,0,0,0,0,0,0,0,0,0,0,0,0,
0,0,0,0,0,0,0,0,0,0,0,0,0,0,0,0,
0,0,0,0,0,0,0,0,0,0,0,0,0,0,0,0,
0,0,0,0,0,0,0,0,0,0,0,0,0,0,0,0,
0,0,0,0,0,0,0,0,0,0,0,0,0,0,0,0
</chunk>
   <chunk x="32" y="-48" width="16" height="16">
0,0,0,0,0,0,0,0,0,0,0,0,0,0,0,0,
0,0,0,0,0,0,0,0,0,0,0,0,0,0,0,0,
0,0,0,0,0,0,0,0,0,0,0,0,0,0,0,0,
0,0,0,0,0,0,0,0,0,0,0,0,0,0,0,0,
0,0,0,0,0,0,0,0,0,0,0,0,0,0,0,0,
0,0,0,0,0,0,0,0,0,0,0,0,0,0,0,0,
0,0,0,0,0,0,0,0,0,0,0,0,0,0,0,0,
0,0,0,0,0,0,0,0,0,0,0,0,0,0,0,0,
12430,12430,12430,12430,12430,12430,12430,12430,12430,0,0,0,0,0,0,0,
12446,12446,12446,12446,12446,12446,12446,12446,12446,0,0,0,0,0,0,0,
0,0,0,0,0,0,0,0,0,0,0,0,0,0,0,0,
0,0,0,0,0,0,0,0,0,0,0,0,0,0,0,0,
0,0,0,0,0,0,0,0,0,0,0,0,0,0,0,0,
0,0,0,0,0,0,0,0,0,0,0,0,0,0,0,0,
0,0,0,0,0,0,0,0,0,0,0,0,0,0,0,0,
0,0,0,0,0,0,0,0,0,0,0,0,0,0,0,0
</chunk>
   <chunk x="48" y="-48" width="16" height="16">
0,0,0,0,0,0,0,0,0,0,0,0,0,0,0,0,
0,0,0,0,0,0,0,0,0,0,0,0,0,0,0,0,
0,0,0,0,0,0,0,0,0,0,0,0,0,0,0,0,
0,0,0,0,0,0,0,0,0,0,0,0,0,0,0,0,
0,0,0,0,0,0,0,0,0,0,0,0,0,0,0,0,
0,0,0,0,0,0,0,0,0,0,0,0,0,0,0,0,
0,0,0,0,0,0,0,0,0,0,0,0,0,0,0,0,
0,0,0,0,0,0,0,0,0,0,0,0,0,0,0,0,
12429,12429,12429,12429,12429,12429,12429,12429,12429,12429,12430,12429,12429,12429,12429,12429,
12445,12445,12445,12445,12445,12445,12445,12445,12445,12445,12446,12445,12445,12445,12445,12445,
0,0,0,0,0,0,0,0,0,0,0,0,0,0,0,0,
0,0,0,0,0,0,0,0,0,0,0,0,0,0,0,0,
0,0,0,0,0,0,0,0,0,0,0,0,0,0,0,0,
0,0,0,0,0,0,0,0,0,0,0,0,0,0,0,0,
0,0,0,0,0,0,0,0,0,0,0,0,0,0,0,0,
0,0,0,0,0,0,0,0,0,0,0,0,0,0,0,0
</chunk>
   <chunk x="64" y="-48" width="16" height="16">
0,0,0,0,0,0,0,0,0,0,0,0,0,0,0,0,
0,0,0,0,0,0,0,0,0,0,0,0,0,0,0,0,
0,0,0,0,0,0,0,0,0,0,0,0,0,0,0,0,
0,0,0,0,0,0,0,0,0,0,0,0,0,0,0,0,
0,0,0,0,0,0,0,0,0,0,0,0,0,0,0,0,
0,0,0,0,0,0,0,0,0,0,0,0,0,0,0,0,
0,0,0,0,0,0,0,0,0,0,0,0,0,0,0,0,
0,0,0,0,0,0,0,0,0,0,0,0,0,0,0,0,
12429,12429,12429,12429,12429,12429,12429,12430,12429,12429,12429,12429,12429,12429,12430,0,
12445,12445,12445,12445,12445,12445,12445,12446,12445,12445,12445,12445,12445,12445,12446,0,
0,0,0,0,0,0,0,0,0,0,0,0,0,0,0,0,
0,0,0,0,0,0,0,0,0,0,0,0,0,0,0,0,
0,0,0,0,0,0,0,0,0,0,0,0,0,0,0,0,
0,0,0,0,0,0,0,0,0,0,0,0,0,0,0,0,
0,0,0,0,0,0,0,0,0,0,0,0,0,0,0,0,
0,0,0,0,0,0,0,0,0,0,0,0,0,0,0,0
</chunk>
  </data>
 </layer>
 <layer id="12" name="terrain_2" width="160" height="96">
  <data encoding="csv">
   <chunk x="-48" y="-48" width="16" height="16">
0,0,0,0,0,0,0,0,0,0,0,0,0,0,0,0,
0,0,0,0,0,0,0,0,0,0,0,0,0,0,0,0,
0,0,0,0,0,0,0,0,0,0,0,0,0,0,0,0,
0,0,0,0,0,0,0,0,0,0,0,0,0,0,0,0,
0,0,0,0,0,0,0,0,0,0,0,0,0,0,0,0,
0,0,0,0,0,0,0,0,0,0,0,0,0,0,0,0,
0,0,0,0,0,0,0,0,0,0,0,0,0,0,0,0,
0,0,0,0,0,0,0,0,0,0,0,0,0,0,0,7331,
0,0,0,0,0,0,0,0,0,0,0,0,0,0,0,7363,
0,0,0,0,0,0,0,0,0,0,0,0,0,0,0,7395,
0,0,0,0,0,0,0,0,0,0,0,0,0,0,0,7427,
0,0,0,0,0,0,0,0,0,0,0,0,0,0,0,0,
0,0,0,0,0,0,0,0,0,0,0,0,0,0,0,0,
0,0,0,0,0,0,0,0,0,0,0,0,0,0,0,0,
0,0,0,0,0,0,0,0,0,0,0,0,0,0,0,0,
0,0,0,0,0,0,0,0,0,0,0,0,0,0,0,0
</chunk>
   <chunk x="-32" y="-48" width="16" height="16">
0,0,0,0,0,0,0,0,0,0,0,0,0,0,0,0,
0,0,0,0,0,0,0,0,0,0,0,0,0,0,0,0,
0,0,0,0,0,0,0,0,0,0,0,0,0,0,0,0,
0,0,0,0,0,0,0,0,0,0,0,0,0,0,0,0,
0,0,0,0,0,0,0,0,0,0,0,0,0,0,0,0,
0,0,0,0,0,0,0,0,0,0,0,0,0,0,0,0,
0,0,0,0,0,0,0,0,0,0,0,0,0,0,0,0,
7332,7333,7334,7331,7332,7333,7334,7331,7332,7333,7334,7331,7332,7333,7334,7331,
7364,7365,7366,7363,7364,7365,7366,7363,7364,7365,7366,7363,7364,7365,7366,7363,
7396,7397,7398,7395,7396,7397,7398,7395,7396,7397,7398,7395,7396,7397,7398,7395,
7428,7429,7430,7427,7428,7429,7430,7427,7428,7429,7430,7427,7428,7429,7430,7427,
0,0,0,0,0,0,0,0,0,0,0,0,0,0,0,0,
0,0,0,0,0,0,0,0,0,0,0,0,0,0,0,0,
0,0,0,0,0,0,0,0,0,0,0,0,0,0,0,0,
0,0,0,0,0,0,0,0,0,0,0,0,0,0,0,0,
0,0,0,0,0,0,0,0,0,0,0,0,0,0,0,0
</chunk>
   <chunk x="-16" y="-48" width="16" height="16">
0,0,0,0,0,0,0,0,0,0,0,0,0,0,0,0,
0,0,0,0,0,0,0,0,0,0,0,0,0,0,0,0,
0,0,0,0,0,0,0,0,0,0,0,0,0,0,0,0,
0,0,0,0,0,0,0,0,0,0,0,0,0,0,0,0,
0,0,0,0,0,0,0,0,0,0,0,0,0,0,0,0,
0,0,0,0,0,0,0,0,0,0,0,0,0,0,0,0,
0,0,0,0,0,0,0,0,0,0,0,0,0,0,0,0,
7332,7333,7334,7331,7332,7333,7334,7331,7332,7333,7334,7331,7332,7333,7334,7331,
7364,7365,7366,7363,7364,7365,7366,7363,7364,7365,7366,7363,7364,7365,7366,7363,
7396,7397,7398,7395,7396,7397,7398,7395,7396,7397,7398,7395,7396,7397,7398,7395,
7428,7429,7430,7427,7428,7429,7430,7427,7428,7429,7430,7427,7428,7429,7430,7427,
0,0,0,0,0,0,0,0,0,0,0,0,0,0,0,0,
0,0,0,0,0,0,0,0,0,0,0,0,0,0,0,0,
0,0,0,0,0,0,0,0,0,0,0,0,0,0,0,0,
0,0,0,0,0,0,0,0,0,0,0,0,0,0,0,0,
0,0,0,0,0,0,0,0,0,0,0,0,0,0,0,0
</chunk>
   <chunk x="0" y="-48" width="16" height="16">
0,0,0,0,0,0,0,0,0,0,0,0,0,0,0,0,
0,0,0,0,0,0,0,0,0,0,0,0,0,0,0,0,
0,0,0,0,0,0,0,0,0,0,0,0,0,0,0,0,
0,0,0,0,0,0,0,0,0,0,0,0,0,0,0,0,
0,0,0,0,0,0,0,0,0,0,0,0,0,0,0,0,
0,0,0,0,0,0,0,0,0,0,0,0,0,0,0,0,
0,0,0,0,0,0,0,0,0,0,0,0,0,0,0,0,
7332,7333,7334,7331,7332,7333,7334,7331,7332,7333,7334,7331,7332,7333,7334,7331,
7364,7365,7366,7363,7364,7365,7366,7363,7364,7365,7366,7363,7364,7365,7366,7363,
7396,7397,7398,7395,7396,7397,7398,7395,7396,7397,7398,7395,7396,7397,7398,7395,
7428,7429,7430,7427,7428,7429,7430,7427,7428,7429,7430,7427,7428,7429,7430,7427,
0,0,0,0,0,0,0,0,0,0,0,0,0,0,0,0,
0,0,0,0,0,0,0,0,0,0,0,0,0,0,0,0,
0,0,0,0,0,0,0,0,0,0,0,0,0,0,0,0,
0,0,0,0,0,0,0,0,0,0,0,0,0,0,0,0,
0,0,0,0,0,0,0,0,0,0,0,0,0,0,0,0
</chunk>
   <chunk x="16" y="-48" width="16" height="16">
0,0,0,0,0,0,0,0,0,0,0,0,0,0,0,0,
0,0,0,0,0,0,0,0,0,0,0,0,0,0,0,0,
0,0,0,0,0,0,0,0,0,0,0,0,0,0,0,0,
0,0,0,0,0,0,0,0,0,0,0,0,0,0,0,0,
0,0,0,0,0,0,0,0,0,0,0,0,0,0,0,0,
0,0,0,0,0,0,0,0,0,0,0,0,0,0,0,0,
0,0,0,0,0,0,0,0,0,0,0,0,0,0,0,0,
7332,7333,7334,7331,7332,7333,7334,7331,7332,7333,7334,7331,7332,7333,7334,7331,
7364,7365,7366,7363,7364,7365,7366,7363,7364,7365,7366,7363,7364,7365,7366,7363,
7396,7397,7398,7395,7396,7397,7398,7395,7396,7397,7398,7395,7396,7397,7398,7395,
7428,7429,7430,7427,7428,7429,7430,7427,7428,7429,7430,7427,7428,7429,7430,7427,
0,0,0,0,0,0,0,0,0,0,0,0,0,0,0,0,
0,0,0,0,0,0,0,0,0,0,0,0,0,0,0,0,
0,0,0,0,0,0,0,0,0,0,0,0,0,0,0,0,
0,0,0,0,0,0,0,0,0,0,0,0,0,0,0,0,
0,0,0,0,0,0,0,0,0,0,0,0,0,0,0,0
</chunk>
   <chunk x="32" y="-48" width="16" height="16">
0,0,0,0,0,0,0,0,0,0,0,0,0,0,0,0,
0,0,0,0,0,0,0,0,0,0,0,0,0,0,0,0,
0,0,0,0,0,0,0,0,0,0,0,0,0,0,0,0,
0,0,0,0,0,0,0,0,0,0,0,0,0,0,0,0,
0,0,0,0,0,0,0,0,0,0,0,0,0,0,0,0,
0,0,0,0,0,0,0,0,0,0,0,0,0,0,0,0,
0,0,0,0,0,0,0,0,0,0,0,0,0,0,0,0,
7332,7333,7334,7331,7332,7333,7334,7331,7332,7333,7334,7331,7332,7333,7334,7332,
7364,7365,7366,7363,7364,7365,7366,7363,7364,7365,7366,7363,7364,7365,7366,7364,
7396,7397,7398,7395,7396,7397,7398,7395,7396,7397,7398,7395,7396,7397,7398,7396,
7428,7429,7430,7427,7428,7429,7430,7427,7428,7429,7430,7427,7428,7429,7430,7428,
0,0,0,0,0,0,0,0,0,0,0,0,0,0,0,0,
0,0,0,0,0,0,0,0,0,0,0,0,0,0,0,0,
0,0,0,0,0,0,0,0,0,0,0,0,0,0,0,0,
0,0,0,0,0,0,0,0,0,0,0,0,0,0,0,0,
0,0,0,0,0,0,0,0,0,0,0,0,0,0,0,0
</chunk>
   <chunk x="48" y="-48" width="16" height="16">
0,0,0,0,0,0,0,0,0,0,0,0,0,0,0,0,
0,0,0,0,0,0,0,0,0,0,0,0,0,0,0,0,
0,0,0,0,0,0,0,0,0,0,0,0,0,0,0,0,
0,0,0,0,0,0,0,0,0,0,0,0,0,0,0,0,
0,0,12587,12588,12589,12590,12591,12592,12593,12594,12595,12596,12597,12598,0,0,
0,0,12603,12604,12605,12606,12607,12608,12609,12610,12611,12612,12613,12614,0,0,
0,0,12619,12620,12621,12622,12623,12624,12625,12626,12627,12628,12629,12630,0,0,
7333,7334,12635,12636,12637,12638,12639,12640,12641,12642,12643,12644,12645,12646,7331,7332,
7365,7366,12651,12652,12653,12654,12655,12656,12657,12658,12659,12660,12661,12662,7363,7364,
7397,7398,12667,12668,12669,12670,12671,12672,12673,12674,12675,12676,12677,12678,7395,7396,
7429,7430,0,0,0,0,0,0,0,0,0,0,0,0,7427,7428,
0,0,0,0,0,0,0,0,0,0,0,0,0,0,0,0,
0,0,0,0,0,0,0,0,0,0,0,0,0,0,0,0,
0,0,0,0,0,0,0,0,0,0,0,0,0,0,0,0,
0,0,0,0,0,0,0,0,0,0,0,0,0,0,0,0,
0,0,0,0,0,0,0,0,0,0,0,0,0,0,0,0
</chunk>
   <chunk x="64" y="-48" width="16" height="16">
0,0,0,0,0,0,0,0,0,0,0,0,0,0,0,0,
0,0,0,0,0,0,0,0,0,0,0,0,0,0,0,0,
0,0,0,0,0,0,0,0,0,0,0,0,0,0,0,0,
0,0,0,0,0,0,0,0,0,0,0,0,0,0,0,0,
0,0,0,0,0,0,0,0,0,0,0,0,0,0,0,0,
0,0,0,0,0,0,0,0,0,0,0,0,0,0,0,0,
0,0,0,0,0,0,0,0,0,0,0,0,0,0,0,0,
7333,7334,7331,7332,7333,7334,7331,7332,7333,7334,7331,7332,7333,7334,7331,7332,
7365,7366,7363,7364,7365,7366,7363,7364,7365,7366,7363,7364,7365,7366,7363,7364,
7397,7398,7395,7396,7397,7398,7395,7396,7397,7398,7395,7396,7397,7398,7395,7396,
7429,7430,7427,7428,7429,7430,7427,7428,7429,7430,7427,7428,7429,7430,7427,7428,
0,0,0,0,0,0,0,0,0,0,0,0,0,0,0,0,
0,0,0,0,0,0,0,0,0,0,0,0,0,0,0,0,
0,0,0,0,0,0,0,0,0,0,0,0,0,0,0,0,
0,0,0,0,0,0,0,0,0,0,0,0,0,0,0,0,
0,0,0,0,0,0,0,0,0,0,0,0,0,0,0,0
</chunk>
   <chunk x="80" y="-48" width="16" height="16">
0,0,0,0,0,0,0,0,0,0,0,0,0,0,0,0,
0,0,0,0,0,0,0,0,0,0,0,0,0,0,0,0,
0,0,0,0,0,0,0,0,0,0,0,0,0,0,0,0,
0,0,0,0,0,0,0,0,0,0,0,0,0,0,0,0,
0,0,0,0,0,0,0,0,0,0,0,0,0,0,0,0,
0,0,0,0,0,0,0,0,0,0,0,0,0,0,0,0,
0,0,0,0,0,0,0,0,0,0,0,0,0,0,0,0,
7333,7334,7331,7332,7333,7334,7331,7332,7333,7334,7331,7332,7333,7334,7331,7332,
7365,7366,7363,7364,7365,7366,7363,7364,7365,7366,7363,7364,7365,7366,7363,7364,
7397,7398,7395,7396,7397,7398,7395,7396,7397,7398,7395,7396,7397,7398,7395,7396,
7429,7430,7427,7428,7429,7430,7427,7428,7429,7430,7427,7428,7429,7430,7427,7428,
0,0,0,0,0,0,0,0,0,0,0,0,0,0,0,0,
0,0,0,0,0,0,0,0,0,0,0,0,0,0,0,0,
0,0,0,0,0,0,0,0,0,0,0,0,0,0,0,0,
0,0,0,0,0,0,0,0,0,0,0,0,0,0,0,0,
0,0,0,0,0,0,0,0,0,0,0,0,0,0,0,0
</chunk>
   <chunk x="96" y="-48" width="16" height="16">
0,0,0,0,0,0,0,0,0,0,0,0,0,0,0,0,
0,0,0,0,0,0,0,0,0,0,0,0,0,0,0,0,
0,0,0,0,0,0,0,0,0,0,0,0,0,0,0,0,
0,0,0,0,0,0,0,0,0,0,0,0,0,0,0,0,
0,0,0,0,0,0,0,0,0,0,0,0,0,0,0,0,
0,0,0,0,0,0,0,0,0,0,0,0,0,0,0,0,
0,0,0,0,0,0,0,0,0,0,0,0,0,0,0,0,
7333,7334,7331,7332,7333,7334,7331,7332,7333,7334,7331,7332,7333,7334,0,0,
7365,7366,7363,7364,7365,7366,7363,7364,7365,7366,7363,7364,7365,7366,0,0,
7397,7398,7395,7396,7397,7398,7395,7396,7397,7398,7395,7396,7397,7398,0,0,
7429,7430,7427,7428,7429,7430,7427,7428,7429,7430,7427,7428,7429,7430,0,0,
0,0,0,0,0,0,0,0,0,0,0,0,0,0,0,0,
0,0,0,0,0,0,0,0,0,0,0,0,0,0,0,0,
0,0,0,0,0,0,0,0,0,0,0,0,0,0,0,0,
0,0,0,0,0,0,0,0,0,0,0,0,0,0,0,0,
0,0,0,0,0,0,0,0,0,0,0,0,0,0,0,0
</chunk>
  </data>
 </layer>
 <layer id="13" name="terrain_3" width="80" height="16">
  <data encoding="csv">
   <chunk x="32" y="-48" width="16" height="16">
0,0,0,0,0,0,0,0,0,0,0,0,0,0,0,0,
0,0,0,0,0,0,0,0,0,0,0,0,0,0,0,0,
0,0,0,0,0,0,0,0,0,0,0,0,0,0,0,0,
0,0,0,0,0,0,0,0,0,0,0,0,0,0,0,0,
0,0,0,0,0,0,0,0,0,0,0,0,0,0,0,0,
0,0,0,0,0,0,0,0,0,0,0,0,0,0,0,0,
0,0,0,0,0,0,0,0,0,0,0,0,0,0,0,0,
0,0,0,0,0,0,0,0,0,0,0,0,0,0,7331,7332,
0,0,0,0,0,0,0,0,0,0,0,0,0,0,7363,7364,
0,0,0,0,0,0,0,0,0,0,0,0,0,0,7395,7396,
0,0,0,0,0,0,0,0,0,0,0,7427,7428,7429,7427,7428,
0,0,0,0,0,0,0,0,0,0,0,0,0,0,0,0,
0,0,0,0,0,0,0,0,0,0,0,0,0,0,0,0,
0,0,0,0,0,0,0,0,0,0,0,0,0,0,0,0,
0,0,0,0,0,0,0,0,0,0,0,0,0,0,0,0,
0,0,0,0,0,0,0,0,0,0,0,0,0,0,0,0
</chunk>
   <chunk x="48" y="-48" width="16" height="16">
0,0,0,0,0,0,0,0,0,0,0,0,0,0,0,0,
0,0,0,0,0,0,0,0,0,0,0,0,0,0,0,0,
0,0,0,0,0,0,0,0,0,0,0,0,0,0,0,0,
0,0,0,0,0,0,0,0,0,0,0,0,0,0,0,0,
0,0,0,0,0,0,0,0,0,0,0,0,0,0,0,0,
0,0,0,0,0,0,0,0,0,0,0,0,0,0,0,0,
0,0,0,0,0,0,0,0,0,0,0,0,0,0,0,0,
7333,7334,0,0,0,0,0,0,0,0,0,0,0,0,0,0,
7365,7366,0,0,0,0,0,0,0,0,0,0,0,0,0,0,
7397,7398,0,0,0,0,0,0,0,0,0,0,0,0,0,0,
7429,7430,0,0,0,0,0,0,0,0,0,0,0,0,0,0,
0,0,0,0,0,0,0,0,0,0,0,0,0,0,0,0,
0,0,0,0,0,0,0,0,0,0,0,0,0,0,0,0,
0,0,0,0,0,0,0,0,0,0,0,0,0,0,0,0,
0,0,0,0,0,0,0,0,0,0,0,0,0,0,0,0,
0,0,0,0,0,0,0,0,0,0,0,0,0,0,0,0
</chunk>
  </data>
 </layer>
 <layer id="10" name="buildings_0.5" width="160" height="80">
  <data encoding="csv">
   <chunk x="32" y="-48" width="16" height="16">
0,0,0,0,0,0,0,0,0,0,0,0,0,0,0,0,
0,0,0,0,0,0,0,0,0,0,0,0,0,0,0,0,
0,0,0,0,0,0,0,0,0,0,0,0,0,0,0,0,
0,0,0,0,0,0,0,0,0,0,0,0,0,0,0,0,
0,0,0,0,0,0,0,0,0,0,0,0,0,0,0,0,
0,0,0,0,0,0,0,0,0,0,0,0,0,0,0,0,
0,0,0,0,0,0,0,0,0,0,0,0,0,0,0,0,
0,0,0,0,0,0,0,0,0,0,0,0,0,0,0,0,
0,0,0,0,0,0,0,0,0,0,0,0,0,0,0,0,
0,0,0,0,0,0,0,0,0,0,0,0,0,0,0,0,
0,8276,8277,8278,0,0,0,0,0,0,0,0,0,0,0,0,
0,8306,8307,8308,0,0,0,0,0,0,0,0,0,0,0,0,
0,8336,8337,8338,0,0,0,0,0,0,0,0,0,0,0,0,
0,8366,8367,8368,0,0,0,0,0,0,0,0,0,0,0,0,
0,8396,8397,8398,0,0,0,0,0,0,0,0,0,0,0,0,
0,0,0,0,0,0,0,0,0,0,0,0,0,0,0,0
</chunk>
   <chunk x="-32" y="-32" width="16" height="16">
0,0,0,0,0,0,0,0,0,0,0,0,0,0,0,0,
0,0,0,0,0,0,0,0,0,0,0,0,0,0,0,0,
0,0,0,0,0,0,0,0,0,0,0,0,0,0,0,0,
0,0,0,0,0,0,0,0,0,0,0,0,0,0,0,0,
0,0,0,0,0,0,0,0,0,0,0,0,0,0,0,0,
0,0,0,0,0,0,0,0,0,0,0,0,0,0,0,0,
8276,8277,8278,0,0,0,0,0,0,0,0,0,0,0,0,0,
8306,8307,8308,0,0,0,0,0,0,0,0,0,0,0,0,0,
8336,8337,8338,0,0,0,0,0,0,0,0,0,0,0,0,0,
8366,8367,8368,8482,8482,8482,8482,8482,8482,8482,8482,8482,8482,8482,8482,8482,
8396,8397,8398,8512,8512,8512,8512,8512,8512,8512,8512,8512,8512,8512,8512,8512,
8542,8542,8542,8542,8542,8542,8542,8542,8542,8542,8542,8542,8542,8542,8542,8542,
8572,8572,8572,8572,8572,8572,8572,8572,8572,8572,8572,8572,8572,8572,8572,8572,
8602,8602,8602,8602,8602,8602,8602,8602,8602,8602,8602,8602,8602,8602,8602,8602,
0,0,0,0,0,0,0,0,0,0,0,0,0,0,0,0,
0,0,0,0,0,0,0,0,0,0,0,0,0,0,0,0
</chunk>
   <chunk x="-16" y="-32" width="16" height="16">
0,0,0,0,0,0,0,0,0,0,0,0,0,0,0,0,
0,0,0,0,0,0,0,0,0,0,0,0,0,0,0,0,
0,0,0,0,0,0,0,0,0,0,0,0,0,0,0,0,
0,0,0,0,0,0,0,0,0,0,0,0,0,0,0,0,
0,0,0,0,0,0,0,0,0,0,0,0,0,0,0,0,
0,0,0,0,0,0,0,0,0,0,0,0,0,0,0,0,
0,0,0,0,0,0,0,0,0,0,0,0,0,0,0,0,
0,0,0,0,0,0,0,0,0,0,0,0,0,0,0,0,
0,0,0,0,0,0,0,0,0,0,0,0,0,0,0,0,
8482,8482,8482,8482,8482,8482,8482,8482,8482,8482,8482,8482,8482,8482,8482,8482,
8512,8512,8512,8512,8512,8512,8512,8512,8512,8512,8512,8512,8512,8512,8512,8512,
8542,8542,8542,8542,8542,8542,8542,8542,8542,8542,8542,8542,8542,8542,8542,8542,
8572,8572,8572,8572,8572,8572,8572,8572,8572,8572,8572,8572,8572,8572,8572,8572,
8602,8602,8602,8602,8602,8602,8602,8602,8602,8602,8602,8602,8602,8602,8602,8602,
0,0,0,0,0,0,0,0,0,0,0,0,0,0,0,0,
0,0,0,0,0,0,0,0,0,0,0,0,0,0,0,0
</chunk>
   <chunk x="0" y="-32" width="16" height="16">
0,0,0,0,0,0,0,0,0,0,0,0,0,0,0,0,
0,0,0,0,0,0,0,0,0,0,0,0,0,0,0,0,
0,0,0,0,0,0,0,0,0,0,0,0,0,0,0,0,
0,0,0,0,0,0,0,0,0,0,0,0,0,0,0,0,
0,0,0,0,0,0,0,0,0,0,0,0,0,0,0,0,
0,0,0,0,0,0,0,0,0,0,0,0,0,0,0,0,
0,0,0,0,0,0,0,0,0,0,0,0,0,0,0,0,
0,0,0,0,0,0,0,0,0,0,0,0,0,0,0,0,
0,0,0,0,0,0,0,0,0,0,0,0,0,0,0,0,
8482,8482,8482,8482,0,0,0,0,0,0,0,0,8482,8482,8482,8482,
8512,8512,8512,8512,0,0,0,0,0,0,0,0,8512,8512,8512,8512,
8542,8542,8542,8542,0,0,0,0,0,0,0,0,8542,8542,8542,8542,
8572,8572,8572,8572,0,0,0,0,0,0,0,0,8572,8572,8572,8572,
8602,8602,8602,8602,0,0,0,0,0,0,0,0,8602,8602,8602,8602,
0,0,0,0,0,0,0,0,0,0,0,0,0,0,0,0,
0,0,0,0,0,0,0,0,0,0,0,0,0,0,0,0
</chunk>
   <chunk x="16" y="-32" width="16" height="16">
0,0,0,0,0,0,0,0,0,0,0,0,0,0,0,0,
0,0,0,0,0,0,0,0,0,0,0,0,0,0,0,0,
0,0,0,0,0,0,0,0,0,0,0,0,0,0,0,0,
0,0,0,0,0,0,0,0,0,0,0,0,0,0,0,0,
0,0,0,0,0,0,0,0,0,0,0,0,0,0,0,0,
0,0,0,0,0,0,0,0,0,0,0,0,0,0,0,0,
0,0,0,0,0,0,0,0,0,0,0,0,0,0,0,0,
0,0,0,0,0,0,0,0,0,0,0,0,0,0,0,0,
0,0,0,0,0,0,0,0,0,0,0,0,0,0,0,0,
8482,8482,8482,8482,8482,8482,8482,8482,8482,8482,8482,8482,8482,8482,8482,8482,
8512,8512,8512,8512,8512,8512,8512,8512,8512,8512,8512,8512,8512,8512,8512,8512,
8542,8542,8542,8542,8542,8542,8542,8542,8542,8542,8542,8542,8542,8542,8542,8542,
8572,8572,8572,8572,8572,8572,8572,8572,8572,8572,8572,8572,8572,8572,8572,8572,
8602,8602,8602,8602,8602,8602,8602,8602,8602,8602,8602,8602,8602,8602,8602,8602,
0,0,0,0,0,0,0,0,0,0,0,0,0,0,0,0,
0,0,0,0,0,0,0,0,0,0,0,0,0,0,0,0
</chunk>
   <chunk x="32" y="-32" width="16" height="16">
0,0,0,0,0,0,0,0,0,0,0,0,0,0,0,0,
0,0,0,0,0,0,0,0,0,0,0,0,0,0,0,0,
0,0,0,0,0,0,0,0,0,0,0,0,0,0,0,0,
0,0,0,0,0,0,0,0,0,0,0,0,0,0,0,0,
0,0,0,0,0,0,0,0,0,0,0,0,0,0,0,0,
0,0,0,0,0,0,0,0,0,0,0,0,0,0,0,0,
0,0,0,0,0,0,0,0,0,0,0,0,0,0,0,0,
0,0,0,0,0,0,0,0,0,0,0,0,0,0,0,0,
0,8276,8277,8278,0,0,0,0,0,0,0,0,0,0,0,0,
8482,8306,8307,8308,8572,0,0,0,0,0,0,0,0,0,0,0,
8512,8336,8337,8338,0,0,0,0,0,0,0,0,0,0,0,0,
8542,8366,8367,8368,0,0,0,0,0,0,0,0,0,0,0,0,
8572,8396,8397,8398,0,0,0,0,0,0,0,0,0,0,0,0,
8602,8602,8602,0,0,0,0,0,0,0,0,0,0,0,0,0,
0,0,0,0,0,0,0,0,0,0,0,0,0,0,0,0,
0,0,0,0,0,0,0,0,0,0,0,0,0,0,0,0
</chunk>
   <chunk x="96" y="-16" width="16" height="16">
0,0,0,0,0,0,0,0,0,0,0,0,0,0,0,0,
0,0,0,0,0,0,0,0,0,0,0,0,0,0,0,0,
0,0,0,0,0,0,0,0,0,0,0,0,0,0,0,0,
0,0,0,0,0,0,0,0,0,0,0,0,0,0,0,0,
0,0,0,0,0,0,0,0,0,0,0,0,0,0,0,0,
0,0,0,0,0,0,0,0,0,0,0,0,0,0,0,0,
0,0,0,0,0,0,0,0,0,0,0,0,0,0,0,0,
0,0,0,0,0,0,0,0,0,0,0,0,0,0,0,0,
0,0,0,0,0,0,0,0,0,0,0,0,0,0,0,0,
0,0,0,0,0,0,0,0,0,0,0,0,0,0,0,0,
0,0,0,0,0,0,0,0,0,0,0,0,0,0,0,0,
0,0,0,0,0,0,0,0,0,0,8276,8277,8278,0,0,0,
0,0,0,0,0,0,0,0,0,0,8306,8307,8308,0,0,0,
0,0,0,0,0,0,0,0,0,0,8336,8337,8338,0,0,0,
0,0,0,0,0,0,0,0,0,0,8366,8367,8368,0,0,0,
0,0,0,0,0,0,0,0,0,0,8396,8397,8398,0,0,0
</chunk>
   <chunk x="96" y="0" width="16" height="16">
0,0,0,0,0,0,0,0,0,0,8426,8427,8428,0,0,0,
0,0,0,0,0,0,0,0,0,0,0,0,0,0,0,0,
0,0,0,0,0,0,0,0,0,0,0,0,0,0,0,0,
0,0,0,0,0,0,0,0,0,0,0,0,0,0,0,0,
0,0,0,0,0,0,0,0,0,0,0,0,0,0,0,0,
0,0,0,0,0,0,0,0,0,0,0,0,0,0,0,0,
0,0,0,0,0,0,0,0,0,0,0,0,0,0,0,0,
0,0,0,0,0,0,0,0,0,0,0,0,0,0,0,0,
0,0,0,0,0,0,0,0,0,0,0,0,0,0,0,0,
0,0,0,0,0,0,0,0,0,0,0,0,0,0,0,0,
0,0,0,0,0,0,0,0,0,0,0,0,0,0,0,0,
0,0,0,0,0,0,0,0,0,0,0,0,0,0,0,0,
0,0,0,0,0,0,0,0,0,0,0,0,0,0,0,0,
0,0,0,0,0,0,0,0,0,0,0,0,0,0,0,0,
0,0,0,0,0,0,0,0,0,0,0,0,0,0,0,0,
0,0,0,0,0,0,0,0,0,0,0,0,0,0,0,0
</chunk>
  </data>
 </layer>
 <layer id="1" name="buildings" width="160" height="112">
  <data encoding="csv">
   <chunk x="-32" y="-48" width="16" height="16">
0,0,0,0,0,0,0,0,0,0,0,0,0,0,0,0,
0,0,0,0,0,0,0,0,0,0,0,0,0,0,0,0,
0,0,0,0,0,0,0,0,0,0,0,0,0,0,0,0,
0,0,0,0,0,0,0,0,0,0,0,0,0,0,0,0,
0,0,0,0,0,0,0,0,0,0,0,0,0,0,0,0,
0,0,0,0,0,0,0,0,0,0,0,0,0,0,0,0,
0,0,0,0,0,0,0,0,0,0,0,0,0,0,0,0,
0,0,0,0,0,0,0,0,0,0,0,0,0,0,0,0,
0,0,0,0,0,0,0,0,0,0,0,0,0,0,0,0,
0,0,0,0,0,0,0,0,0,0,0,0,0,0,0,0,
0,0,0,0,0,0,0,0,0,0,0,0,0,0,0,0,
8276,8277,8278,0,0,0,0,0,0,0,0,0,0,0,0,0,
8306,8307,8308,0,0,0,0,0,0,0,0,0,0,0,0,0,
8336,8337,8338,0,0,0,0,0,0,0,0,0,0,0,0,0,
8366,8367,8368,0,0,0,0,0,0,0,0,0,0,0,0,0,
8396,8397,8398,0,0,0,0,0,4745,4746,4747,4748,4749,4750,0,0
</chunk>
   <chunk x="-16" y="-48" width="16" height="16">
0,0,0,0,0,0,0,0,0,0,0,0,0,0,0,0,
0,0,0,0,0,0,0,0,0,0,0,0,0,0,0,0,
0,0,0,0,0,0,0,0,0,0,0,0,0,0,0,0,
0,0,0,0,0,0,0,0,0,0,0,0,0,0,0,0,
0,0,0,0,0,0,0,0,0,0,0,0,0,0,0,0,
0,0,0,0,0,0,0,0,0,0,0,0,0,0,0,0,
0,0,0,0,0,0,0,0,0,0,0,0,0,0,0,0,
0,0,0,0,0,0,0,0,0,0,0,0,0,0,0,0,
0,0,0,0,0,0,0,0,0,0,0,0,0,0,0,0,
0,0,0,0,0,0,0,0,0,0,0,0,0,0,0,0,
0,0,0,0,0,0,0,0,0,0,0,0,0,0,0,0,
0,0,0,0,0,0,0,0,0,0,0,0,0,0,0,0,
0,0,0,0,0,0,0,0,0,0,0,0,0,0,0,0,
0,0,0,0,0,0,0,0,0,0,0,0,0,0,0,0,
0,0,0,0,0,0,0,0,0,0,0,0,0,0,0,0,
0,0,4097,4098,4099,4100,4101,4102,0,0,0,0,4745,4746,4747,4748
</chunk>
   <chunk x="0" y="-48" width="16" height="16">
0,0,0,0,0,0,0,0,0,0,0,0,0,0,0,0,
0,0,0,0,0,0,0,0,0,0,0,0,0,0,0,0,
0,0,0,0,0,0,0,0,0,0,0,0,0,0,0,0,
0,0,0,0,0,0,0,0,0,0,0,0,0,0,0,0,
0,0,0,0,0,0,0,0,0,0,0,0,0,0,0,0,
0,0,0,0,0,0,0,0,0,0,0,0,0,0,0,0,
0,0,0,0,0,0,0,0,0,0,0,0,0,0,0,0,
0,0,0,0,0,0,0,0,0,0,0,0,0,0,0,0,
0,0,0,0,0,0,0,0,0,0,0,0,0,0,0,0,
0,0,0,0,0,0,0,0,0,0,0,0,0,0,0,0,
0,0,0,0,0,0,0,0,0,0,0,0,0,0,0,0,
0,0,0,0,0,0,0,0,0,0,0,0,0,0,0,0,
0,0,0,0,0,0,0,0,0,0,0,0,0,0,0,0,
0,0,0,0,0,0,0,0,0,0,0,0,0,0,0,0,
0,0,0,0,0,0,0,0,0,0,0,0,0,0,0,0,
4749,4750,4751,0,0,0,0,4607,4608,4609,4610,4611,4612,4613,4614,0
</chunk>
   <chunk x="16" y="-48" width="16" height="16">
0,0,0,0,0,0,0,0,0,0,0,0,0,0,0,0,
0,0,0,0,0,0,0,0,0,0,0,0,0,0,0,0,
0,0,0,0,0,0,0,0,0,0,0,0,0,0,0,0,
0,0,0,0,0,0,0,0,0,0,0,0,0,0,0,0,
0,0,0,0,0,0,0,0,0,0,0,0,0,0,0,0,
0,0,0,0,0,0,0,0,0,0,0,0,0,0,0,0,
0,0,0,0,0,0,0,0,0,0,0,0,0,0,0,0,
0,0,0,0,0,0,0,0,0,0,0,0,0,0,0,0,
0,0,0,0,0,0,0,0,0,0,0,0,0,0,0,0,
0,0,0,0,0,0,0,0,0,0,0,0,0,0,0,0,
0,0,0,0,0,0,0,0,0,0,0,0,0,0,0,0,
0,0,0,0,0,0,0,0,0,0,0,0,0,0,0,0,
0,0,0,0,0,0,0,0,0,0,0,0,0,0,0,0,
0,0,0,0,0,0,0,0,0,0,0,0,0,0,0,0,
0,0,0,0,0,0,0,0,0,0,0,0,0,0,0,0,
0,0,0,4535,4536,4537,4538,4539,4540,0,0,0,0,4625,4626,4627
</chunk>
   <chunk x="32" y="-48" width="16" height="16">
0,0,0,0,0,0,0,0,0,0,0,0,0,0,0,0,
0,0,0,0,0,0,0,0,0,0,0,0,0,0,0,0,
0,0,0,0,0,0,0,0,0,0,0,0,0,0,0,0,
0,0,0,0,0,0,0,0,0,0,0,0,0,0,0,0,
0,0,0,0,0,0,0,0,0,0,0,0,0,0,0,0,
0,0,0,0,0,0,0,0,0,0,0,0,0,0,0,0,
0,0,0,0,0,0,0,0,0,0,0,0,0,0,0,0,
0,0,0,0,0,0,0,0,0,0,0,0,0,0,0,0,
0,0,0,0,0,0,0,0,0,0,0,0,0,0,0,0,
0,0,0,0,0,0,0,0,0,0,0,0,0,0,0,0,
0,0,0,0,0,0,0,0,0,0,0,0,0,0,0,0,
0,0,0,0,0,0,0,0,0,0,0,0,0,0,0,0,
0,0,0,0,8542,0,0,0,0,0,0,0,0,0,0,0,
0,0,0,0,8572,0,0,0,0,0,0,0,0,0,0,0,
0,0,0,0,8572,0,0,0,0,0,0,0,0,0,0,0,
4628,4629,4630,0,8572,0,0,0,0,0,0,0,0,0,0,9830
</chunk>
   <chunk x="48" y="-48" width="16" height="16">
0,0,0,0,0,0,0,0,0,0,0,0,0,0,0,0,
0,0,0,0,0,0,0,0,0,0,0,0,0,0,0,0,
0,0,0,0,0,0,0,0,0,0,0,0,0,0,0,0,
0,0,0,0,0,0,0,0,0,0,0,0,0,0,0,0,
0,0,0,0,0,0,0,0,0,0,0,0,0,0,0,0,
0,0,0,0,0,0,0,0,0,0,0,0,0,0,0,0,
0,0,0,0,0,0,0,0,0,0,0,0,0,0,0,0,
0,0,0,0,0,0,0,0,0,0,0,0,0,0,0,0,
0,0,0,0,0,0,0,0,0,0,0,0,0,0,0,0,
0,0,0,0,0,0,0,0,0,0,0,0,0,0,0,0,
0,0,0,0,0,0,0,0,0,0,0,0,0,0,0,0,
0,0,0,0,0,0,0,0,0,0,0,0,0,0,0,0,
0,0,0,0,0,0,0,0,0,0,0,0,0,0,0,0,
0,0,0,0,0,0,0,0,0,0,0,0,0,0,0,0,
0,0,0,0,0,0,0,0,0,0,0,0,0,0,0,0,
9831,9832,9833,9834,9835,9836,9837,9838,9839,9840,9841,9842,9843,9844,9845,9846
</chunk>
   <chunk x="64" y="-48" width="16" height="16">
0,0,0,0,0,0,0,0,0,0,0,0,0,0,0,0,
0,0,0,0,0,0,0,0,0,0,0,0,0,0,0,0,
0,0,0,0,0,0,0,0,0,0,0,0,0,0,0,0,
0,0,0,0,0,0,0,0,0,0,0,0,0,0,0,0,
0,0,0,0,0,0,0,0,0,0,0,0,0,0,0,0,
0,0,0,0,0,0,0,0,0,0,0,0,0,0,0,0,
0,0,0,0,0,0,0,0,0,0,0,0,0,0,0,0,
0,0,0,0,0,0,0,0,0,0,0,0,0,0,0,0,
0,0,0,0,0,0,0,0,0,0,0,0,0,0,0,0,
0,0,0,0,0,0,0,0,0,0,0,0,0,0,0,0,
0,0,0,0,0,0,0,6813,6814,6815,6816,0,0,0,0,0,
0,0,0,0,0,0,0,6845,6846,6847,6848,0,0,0,0,0,
0,0,0,0,0,6047,6048,6877,6878,6879,6880,6045,6046,0,0,0,
0,0,0,0,0,6079,6080,6909,6910,6911,6912,6077,6078,0,0,0,
0,0,0,0,0,0,0,6941,6942,6943,6944,0,0,0,0,0,
9847,0,0,0,0,0,0,6973,6974,6975,6976,0,0,0,0,0
</chunk>
   <chunk x="80" y="-48" width="16" height="16">
0,0,0,0,0,0,0,0,0,0,0,0,0,0,0,0,
0,0,0,0,0,0,0,0,0,0,0,0,0,0,0,0,
0,0,0,0,0,0,0,0,0,0,0,0,0,0,0,0,
0,0,0,0,0,0,0,0,0,0,0,0,0,0,0,0,
0,0,0,0,0,0,0,0,0,0,0,0,0,0,0,0,
0,0,0,0,0,0,0,0,0,0,0,0,0,0,0,0,
0,0,0,0,0,0,0,0,0,0,0,0,0,0,0,0,
0,0,0,0,0,0,0,0,0,0,0,0,0,0,0,0,
0,0,0,0,0,0,0,0,0,0,0,0,0,0,0,0,
0,0,0,0,0,0,0,0,0,0,0,0,0,0,0,0,
0,0,0,0,0,0,0,0,0,0,0,0,0,0,0,0,
0,0,0,0,0,0,0,0,0,0,0,0,0,0,0,0,
0,0,0,0,0,0,0,0,0,0,0,0,0,0,0,0,
0,6695,0,0,0,0,0,0,0,0,0,0,0,0,0,0,
0,6695,0,0,0,0,0,0,0,0,0,0,0,0,0,0,
0,6695,0,0,0,0,0,0,0,0,0,0,0,0,0,0
</chunk>
   <chunk x="-32" y="-32" width="16" height="16">
8276,8277,8278,0,0,0,0,0,4777,4778,4779,4780,4781,4782,0,0,
8306,8307,8308,0,0,0,0,0,4809,4810,4811,4812,4813,4814,0,0,
8336,8337,8338,0,0,0,0,0,4841,4842,4843,4844,4845,4846,0,0,
8366,8367,8368,0,0,0,0,0,4983,4984,4985,4986,4987,4988,0,0,
8396,8397,8398,0,0,0,0,0,5015,5016,5017,5018,5019,5020,0,0,
0,0,0,0,0,0,0,0,5047,5048,5049,5050,5051,5052,0,0,
0,0,0,0,0,0,0,0,5079,5080,0,0,0,0,0,0,
0,0,0,0,0,0,0,0,0,0,0,0,0,0,0,0,
0,0,0,0,0,0,0,0,0,0,0,0,0,0,0,0,
8482,8482,8482,0,0,0,0,0,0,0,0,0,0,0,0,0,
8512,8512,8512,0,0,0,0,0,0,0,0,0,0,0,0,0,
8542,8542,8542,0,0,0,0,0,0,0,0,0,0,0,0,0,
8572,8572,8572,0,0,0,0,0,0,0,0,0,0,0,0,0,
8602,8602,8602,0,0,0,0,0,0,0,0,0,0,0,0,0,
0,0,0,0,0,0,0,0,0,0,0,0,0,0,0,0,
0,0,0,0,0,0,0,0,0,0,0,0,0,0,0,0
</chunk>
   <chunk x="-16" y="-32" width="16" height="16">
0,0,4129,4130,4131,4132,4133,4134,0,0,0,0,4777,4778,4779,4780,
0,0,4161,4162,4163,4164,4165,4166,0,0,0,0,4809,4810,4811,4812,
0,0,4193,4194,4195,4196,4197,4198,0,0,0,0,4841,4842,4843,4844,
0,0,4225,4226,4227,4228,4229,4230,0,0,0,0,4873,4874,4875,4876,
0,4256,4257,4258,4259,4260,4261,4262,0,0,0,0,4905,4906,4907,4908,
0,4288,4289,4290,4291,4292,4293,4294,0,0,0,0,4937,4938,4939,4940,
0,4320,4321,4322,4323,4324,4325,4326,0,0,0,0,4969,4970,4971,4972,
0,0,0,0,0,0,0,0,0,0,0,0,0,0,0,0,
0,0,0,0,0,0,0,0,0,0,0,0,0,0,0,0,
0,0,0,0,0,0,0,0,0,0,0,0,0,0,0,0,
0,0,0,0,0,0,0,0,0,0,0,0,0,0,0,0,
0,0,0,0,0,0,0,0,0,0,0,0,0,0,0,0,
0,0,0,0,0,0,0,0,0,0,0,0,0,0,0,0,
0,0,0,0,0,0,0,0,0,0,0,0,0,0,0,0,
0,0,0,0,0,0,0,0,0,0,0,0,0,0,0,0,
0,0,0,0,0,0,0,0,0,0,0,0,0,0,0,0
</chunk>
   <chunk x="0" y="-32" width="16" height="16">
4781,4782,4783,0,0,0,0,4639,4640,4641,4642,4643,4644,4645,4646,0,
4813,4814,4815,0,0,0,0,4671,4672,4673,4674,4675,4676,4677,4678,0,
4845,4846,4847,0,0,0,0,4703,4704,4705,4706,4707,4708,4709,4710,0,
4877,4878,4879,0,0,0,0,4735,4736,4737,4738,4739,4740,4741,4742,0,
4909,4910,4911,0,0,0,0,4767,4768,4769,4770,4771,4772,4773,4774,0,
4941,4942,4943,0,0,0,0,4799,4800,4801,4802,4803,4804,4805,4806,0,
4973,4974,4975,0,0,0,0,0,0,0,0,0,0,0,0,0,
0,0,0,0,0,0,0,0,0,0,0,0,0,0,0,0,
0,0,0,0,0,0,0,0,0,0,0,0,0,0,0,0,
0,0,0,0,0,0,0,0,0,0,0,0,0,0,0,0,
0,0,0,0,0,0,0,0,0,0,0,0,0,0,0,0,
0,0,0,0,0,0,0,0,0,0,0,0,0,0,0,0,
0,0,0,0,0,0,0,0,0,0,0,0,0,0,0,0,
0,0,0,0,0,0,0,0,0,0,0,0,0,0,0,0,
0,0,0,0,0,0,0,0,0,0,0,0,0,0,0,0,
0,0,0,0,0,0,0,0,0,0,0,0,0,0,0,0
</chunk>
   <chunk x="16" y="-32" width="16" height="16">
0,0,0,4567,4568,4569,4570,4571,4572,0,0,0,0,4657,4658,4659,
0,0,0,4599,4600,4601,4602,4603,4604,0,0,0,0,4689,4690,4691,
0,0,0,4631,4632,4633,4634,4635,4636,0,0,0,0,4721,4722,4723,
0,0,0,4663,4664,4665,4666,4667,4668,0,0,0,0,4753,4754,4755,
0,0,0,4695,4696,4697,4698,4699,4700,0,0,0,0,4785,4786,4787,
0,0,0,4727,4728,4729,4730,4731,4732,0,0,0,0,4817,4818,4819,
0,0,0,4759,4760,4761,4762,4763,4764,0,0,0,0,0,0,4851,
0,0,0,0,0,0,0,0,0,0,0,0,0,0,0,0,
0,0,0,0,0,0,0,0,0,0,0,0,0,0,0,0,
0,0,0,0,0,0,0,0,0,0,0,0,0,0,0,0,
0,0,0,0,0,0,0,0,0,0,0,0,0,0,0,0,
0,0,0,0,0,0,0,0,0,0,0,0,0,0,0,0,
0,0,0,0,0,0,0,0,0,0,0,0,0,0,0,0,
0,0,0,0,0,0,0,0,0,0,0,0,0,0,0,0,
0,0,0,0,0,0,0,0,0,0,0,0,0,0,0,0,
0,0,0,0,0,0,0,5304,5305,5306,5307,5308,5309,0,0,0
</chunk>
   <chunk x="32" y="-32" width="16" height="16">
4660,4661,4662,0,8572,0,0,0,0,0,0,0,0,0,0,9854,
4692,4693,4694,0,8572,0,0,0,0,0,0,0,0,0,0,9878,
4724,4725,4726,0,8572,0,0,0,0,0,0,0,0,0,0,9902,
4756,4757,4758,0,8572,0,0,0,0,0,0,0,0,0,0,9926,
4788,4789,4790,0,8572,0,0,0,0,0,0,0,0,0,0,9950,
4820,4821,4822,0,8572,0,0,0,0,0,0,0,0,0,0,9974,
4852,4853,4854,0,8572,0,0,0,0,0,0,0,0,0,0,9998,
0,0,0,0,8572,0,0,0,0,0,0,0,0,0,0,10022,
0,0,0,0,8572,0,0,0,0,0,0,0,0,0,0,10046,
0,8482,8482,8482,8482,0,0,0,0,0,0,0,0,0,0,10070,
0,8512,8512,8512,8512,0,0,0,0,0,0,0,0,0,0,10094,
0,8542,8542,8542,8542,0,0,0,0,0,0,0,0,0,0,10118,
0,8572,8572,8572,8572,0,0,0,0,0,0,0,0,0,0,10142,
0,8602,8602,8602,8602,0,0,0,0,0,0,0,0,0,0,10166,
0,0,0,0,0,0,0,0,0,0,0,0,0,0,0,10190,
0,0,0,0,0,0,0,0,0,0,0,0,0,0,0,10214
</chunk>
   <chunk x="48" y="-32" width="16" height="16">
9855,9856,9857,9858,9859,9860,9861,9862,9863,9864,9865,9866,9867,9868,9869,9870,
9879,9880,9881,9882,9883,9884,9885,9886,9887,9888,9889,9890,9891,9892,9893,9894,
9903,9904,9905,9906,9907,9908,9909,9910,9911,9912,9913,9914,9915,9916,9917,9918,
9927,9928,9929,9930,9931,9932,9933,9934,9935,9936,9937,9938,9939,9940,9941,9942,
9951,9952,9953,9954,9955,9956,9957,9958,9959,9960,9961,9962,9963,9964,9965,9966,
9975,9976,9977,9978,9979,9980,9981,9982,9983,9984,9985,9986,9987,9988,9989,9990,
9999,10000,10001,10002,10003,10004,10005,10006,10007,10008,10009,10010,10011,10012,10013,10014,
10023,10024,10025,10026,10027,10028,10029,10030,10031,10032,10033,10034,10035,10036,10037,10038,
10047,10048,10049,10050,10051,10052,10053,10054,10055,10056,10057,10058,10059,10060,10061,10062,
10071,10072,10073,10074,10075,10076,10077,10078,10079,10080,10081,10082,10083,10084,10085,10086,
10095,10096,10097,10098,10099,10100,10101,10102,10103,10104,10105,10106,10107,10108,10109,10110,
10119,10120,10121,10122,10123,10124,10125,10126,10127,10128,10129,10130,10131,10132,10133,10134,
10143,10144,10145,10146,10147,10148,10149,10150,10151,10152,10153,10154,10155,10156,10157,10158,
10167,10168,10169,10170,10171,10172,10173,10174,10175,10176,10177,10178,10179,10180,10181,10182,
10191,10192,10193,10194,10195,10196,10197,10198,10199,10200,10201,10202,10203,10204,10205,10206,
10215,10216,10217,10218,10219,10220,10221,10222,10223,10224,10225,10226,10227,10228,10229,10230
</chunk>
   <chunk x="64" y="-32" width="16" height="16">
9871,0,0,0,0,0,0,0,0,0,0,0,0,0,0,0,
9895,0,0,0,0,0,0,0,0,0,0,0,0,0,0,0,
9919,0,0,0,0,0,0,0,0,0,0,0,0,0,0,0,
9943,0,0,0,0,0,0,0,0,0,0,0,0,0,0,0,
9967,0,0,0,0,0,0,0,0,0,0,0,0,0,0,0,
9991,0,0,0,0,0,0,0,0,0,0,0,0,0,0,0,
10015,0,0,0,0,0,0,0,0,0,0,0,0,0,0,0,
10039,0,0,0,0,0,0,0,0,0,0,0,0,0,0,0,
10063,0,0,0,0,0,0,0,0,0,0,0,0,0,0,0,
10087,0,0,0,0,0,0,0,0,0,0,0,0,0,0,0,
10111,0,0,0,0,0,0,0,0,0,0,0,0,0,0,0,
10135,0,0,0,0,0,0,0,0,0,0,0,0,0,0,0,
10159,0,0,0,0,0,0,0,0,0,0,0,0,0,0,0,
10183,0,0,0,0,0,0,0,0,0,0,0,0,0,0,0,
10207,0,0,0,0,0,0,0,0,0,0,0,0,0,0,0,
10231,0,0,0,0,0,0,0,0,0,0,0,0,0,0,0
</chunk>
   <chunk x="80" y="-32" width="16" height="16">
0,6695,0,0,0,0,0,0,0,0,0,0,0,0,0,0,
0,6695,0,0,0,0,0,0,0,0,0,6247,6248,6249,6250,6251,
0,6695,0,0,0,0,0,0,0,0,0,6279,6280,6281,6282,6283,
0,6695,0,0,0,0,0,0,0,0,0,6311,6312,6313,6314,6315,
0,6695,0,0,0,0,0,0,0,0,0,6343,6344,6345,6346,6347,
0,6695,6696,6697,6697,6697,6697,6697,6697,6697,6697,6375,6376,0,0,0,
0,6727,6728,6729,6729,6729,6729,6729,6729,6729,6729,6407,6408,0,0,0,
0,6759,6760,6761,6761,6761,6761,6761,6761,6761,6761,6439,6440,0,0,0,
0,6791,6792,6793,6793,6793,6793,6793,6793,6793,6793,6471,6472,0,0,0,
0,0,0,0,0,0,0,0,0,0,0,0,0,0,0,0,
0,0,0,0,0,0,0,0,0,0,0,0,0,0,0,0,
0,0,0,0,0,0,0,0,0,0,0,0,0,0,0,0,
0,0,0,0,0,0,0,0,0,0,0,0,0,0,0,0,
0,0,0,0,0,0,0,0,0,0,0,0,0,0,0,0,
0,0,0,0,0,0,0,0,0,0,0,0,0,0,0,0,
0,0,0,0,0,0,0,0,0,0,0,0,0,0,0,0
</chunk>
   <chunk x="96" y="-32" width="16" height="16">
0,0,0,0,0,0,0,0,0,0,0,0,0,0,0,0,
6252,6253,6254,0,0,0,0,0,0,0,0,0,0,0,0,0,
6284,6285,6286,0,0,0,0,0,0,0,0,0,0,0,0,0,
6316,6317,6318,0,0,0,0,0,0,0,0,0,0,0,0,0,
6348,6349,6350,0,0,0,0,0,0,0,0,0,0,0,0,0,
0,6381,6382,6697,6697,6697,6697,6697,6697,6697,6697,6699,6700,0,0,0,
0,6413,6414,6729,6729,6729,6729,6729,6729,6729,6729,6731,6732,0,0,0,
0,6445,6446,6761,6761,6761,6761,6761,6761,6761,6761,6763,6764,0,0,0,
0,6477,6478,6793,6793,6793,6793,6793,6793,6793,6793,6795,6796,0,0,0,
0,0,0,0,0,0,0,0,0,0,0,0,0,0,0,0,
0,0,0,0,0,0,0,0,0,0,0,0,0,0,0,0,
0,0,0,0,0,0,0,0,0,0,0,0,0,0,0,0,
0,0,0,0,0,0,0,0,0,0,0,0,0,0,0,0,
0,0,0,0,0,0,0,0,0,0,0,0,0,0,0,0,
0,0,0,0,0,0,0,0,0,0,0,0,0,0,0,0,
0,0,0,0,0,0,0,0,0,0,0,0,0,0,0,0
</chunk>
   <chunk x="-32" y="-16" width="16" height="16">
0,0,0,0,0,0,0,0,0,0,0,0,0,0,0,0,
0,0,0,0,0,0,0,0,0,0,0,0,0,0,0,0,
0,0,0,0,0,0,0,0,0,0,0,0,0,0,0,0,
0,0,0,0,0,0,0,0,0,0,0,0,0,0,0,0,
0,0,0,0,0,0,0,0,0,0,0,0,0,0,0,0,
0,0,0,0,0,36,37,38,39,40,41,42,43,44,45,46,
0,0,0,0,0,68,69,70,71,72,73,74,75,76,77,78,
0,0,0,0,0,100,101,102,103,104,105,106,107,108,109,110,
0,0,0,0,0,132,133,134,135,136,137,138,139,140,141,142,
0,0,0,0,0,164,165,166,167,168,169,170,171,172,173,174,
0,0,0,0,0,196,197,198,199,200,201,202,203,204,205,206,
0,0,0,0,0,228,229,230,231,232,233,234,235,236,237,238,
0,0,0,0,0,260,261,262,263,264,265,266,267,268,269,270,
0,0,0,0,0,292,293,294,295,296,297,298,299,300,301,302,
0,0,0,0,0,324,325,326,327,328,329,330,331,332,333,334,
0,0,0,0,0,356,357,358,359,360,361,362,363,364,365,366
</chunk>
   <chunk x="-16" y="-16" width="16" height="16">
0,0,0,0,0,0,0,0,0,0,0,0,0,0,0,0,
0,0,0,0,0,0,0,0,0,0,0,0,0,0,0,0,
0,0,0,0,0,0,0,0,0,0,0,0,0,0,0,0,
0,0,0,0,0,0,0,0,0,0,0,0,0,0,0,0,
0,0,0,0,0,0,0,0,0,0,0,0,0,0,0,0,
47,48,49,50,51,52,53,54,55,56,57,58,59,60,61,62,
79,80,81,82,83,84,85,86,87,88,89,90,91,92,93,94,
111,112,113,114,115,116,117,118,119,120,121,122,123,124,125,126,
143,144,145,146,147,148,149,150,151,152,153,154,155,156,157,158,
175,176,177,178,179,180,181,182,183,184,185,186,187,188,189,190,
207,208,209,210,211,212,213,214,215,216,217,218,219,220,221,222,
239,240,241,242,243,244,245,246,247,248,249,250,251,252,253,254,
271,272,273,274,275,276,277,278,279,280,281,282,283,284,285,286,
303,304,305,306,307,308,309,310,311,312,313,314,315,316,317,318,
335,336,337,338,339,340,341,342,343,344,345,346,347,348,349,350,
367,368,369,370,371,372,373,374,375,376,377,378,379,380,381,382
</chunk>
   <chunk x="0" y="-16" width="16" height="16">
0,0,0,0,0,0,0,0,0,0,0,0,0,0,0,0,
0,0,0,0,0,0,0,0,0,0,0,0,0,0,0,0,
0,0,0,0,0,0,0,0,0,0,0,0,0,0,0,0,
0,0,0,0,0,0,0,0,0,0,0,0,0,0,0,0,
0,0,0,0,0,0,0,0,0,0,0,0,0,0,0,0,
63,64,39,2567,0,0,0,0,0,0,0,0,0,0,0,0,
95,96,71,2599,0,0,0,0,0,0,0,0,0,0,0,0,
127,128,103,2631,0,0,0,0,0,0,0,0,0,0,0,0,
159,160,135,2663,0,0,0,0,0,0,0,0,0,0,0,0,
191,192,167,2695,0,0,0,0,0,0,0,0,0,0,0,0,
223,224,199,2727,0,0,0,0,0,0,0,0,0,0,0,0,
255,256,231,2759,0,0,0,0,0,0,0,0,0,0,0,0,
287,288,263,2791,0,0,0,0,0,0,0,0,0,0,1579,1580,
319,320,300,2823,0,0,0,0,0,0,0,0,0,0,1611,1612,
351,352,332,2855,0,0,0,0,0,0,0,0,0,0,1643,1644,
383,384,364,2887,0,0,0,0,0,0,0,0,0,0,1675,1676
</chunk>
   <chunk x="16" y="-16" width="16" height="16">
0,0,0,0,0,0,0,5312,5313,5314,5315,5316,5317,0,0,0,
0,0,0,0,0,0,0,5320,5321,5322,5323,5324,5325,0,0,0,
0,0,0,0,0,0,0,5328,5329,5330,5331,5332,5333,0,0,0,
0,0,0,0,0,0,0,5336,5337,5338,5339,5340,5341,0,0,0,
0,0,0,0,0,0,0,5344,5345,5346,5347,5348,5349,0,0,0,
0,0,0,0,0,0,0,5352,5353,5354,5355,5356,5357,0,0,0,
0,0,0,0,0,0,0,5360,5361,5362,5363,5364,5365,0,0,0,
0,0,0,0,0,0,0,0,0,0,0,0,0,0,0,0,
0,0,0,0,0,0,0,0,0,0,0,0,0,0,0,0,
0,0,0,0,0,0,0,0,0,0,1580,1581,1582,1583,1584,1585,
0,0,0,0,0,0,0,0,0,0,1612,1613,1614,1615,1616,1617,
0,0,0,0,0,0,0,0,0,0,1644,1645,1646,1647,1648,1649,
1581,1582,1583,1584,1585,1586,1587,1588,1589,1590,1591,1592,1593,1594,1595,1596,
1613,1614,1615,1616,1617,1618,1619,1620,1621,1622,1623,1624,1625,1626,1627,1628,
1645,1646,1647,1648,1649,1650,1651,1652,1653,1654,1655,1656,1657,1658,1659,1660,
1677,1678,1679,1680,1681,1682,1683,1684,1685,1686,1687,1688,1689,1690,1691,1692
</chunk>
   <chunk x="32" y="-16" width="16" height="16">
0,0,0,0,0,0,0,0,0,0,0,0,0,0,0,10238,
0,0,0,0,0,0,0,0,0,0,0,0,0,0,0,10262,
0,0,0,0,0,0,0,0,0,0,0,0,0,0,0,10286,
0,0,0,0,0,0,0,0,0,0,0,0,0,0,0,10310,
0,0,0,0,0,0,0,0,0,0,0,0,0,0,0,10334,
0,0,0,0,0,0,0,0,0,0,0,0,0,0,0,0,
0,0,0,0,0,0,0,0,0,0,0,0,0,0,0,0,
0,0,0,0,0,0,0,0,0,0,0,0,0,0,0,0,
0,0,0,0,0,0,0,0,0,0,0,0,0,0,0,0,
1586,1587,1588,1589,0,0,1592,1593,1594,1595,1596,1597,1598,1599,1600,1601,
1618,1619,0,0,0,0,1624,1625,1626,1627,1628,1629,1630,1631,1632,1633,
1650,1651,1652,1653,0,0,1656,1657,1658,1659,1660,1661,1662,1663,1664,1665,
1597,1598,1599,1600,1601,0,0,0,0,0,1692,1693,1694,0,1696,1697,
1629,1630,1631,1632,1633,1634,0,0,0,0,0,0,0,0,0,0,
1661,1662,1663,1664,1665,1666,0,0,0,0,1756,5367,5368,5369,5370,5371,
1693,1694,1695,1696,1697,1698,0,0,0,0,0,5391,5392,5393,5394,5395
</chunk>
   <chunk x="48" y="-16" width="16" height="16">
10239,10240,10241,10242,10243,10244,10245,10246,10247,10248,10249,10250,10251,10252,10253,10254,
10263,10264,10265,10266,10267,10268,10269,10270,10271,10272,10273,10274,10275,10276,10277,10278,
10287,10288,10289,10290,10291,10292,10293,10294,10295,10296,10297,10298,10299,10300,10301,10302,
10311,10312,10313,10314,10315,10316,10317,10318,10319,10320,10321,10322,10323,10324,10325,10326,
10335,10336,10337,10338,10339,10340,10341,10342,10343,10344,10345,10346,10347,10348,10349,10350,
0,0,0,0,0,0,0,0,0,0,0,0,0,0,0,0,
0,0,0,0,0,0,0,0,0,0,0,0,0,0,0,0,
0,0,0,0,0,0,0,0,0,0,0,0,0,0,0,0,
0,0,0,0,0,0,0,0,0,0,0,0,0,0,0,0,
0,0,0,0,0,0,0,0,0,0,0,0,0,0,0,0,
0,0,0,0,0,0,0,0,0,0,0,0,0,0,0,0,
0,0,0,0,0,0,0,0,0,0,0,0,0,0,0,0,
0,0,0,0,0,0,0,0,0,0,0,0,0,0,0,0,
0,0,0,0,0,0,0,0,0,0,0,0,0,0,0,0,
5372,5373,5374,5375,5376,5377,5378,5379,5380,5381,5382,5383,5384,5385,5386,5387,
5396,5397,5398,5399,5400,5401,5402,5403,5404,5405,5406,5407,5408,5409,5410,5411
</chunk>
   <chunk x="64" y="-16" width="16" height="16">
10255,0,0,0,0,0,0,0,0,0,0,0,0,0,0,0,
10279,0,0,0,0,0,0,0,0,0,0,0,0,0,0,0,
10303,0,0,0,0,0,0,0,0,0,0,0,0,0,0,0,
10327,0,0,0,0,0,0,0,0,0,0,0,0,0,0,0,
10351,0,0,0,0,0,0,0,0,0,0,0,0,0,0,0,
0,0,0,0,0,0,0,0,0,0,0,0,0,0,0,0,
0,0,0,0,0,0,0,0,0,0,0,0,0,0,0,0,
0,0,0,0,0,0,0,0,0,0,0,0,0,0,0,0,
0,0,0,0,0,0,0,0,0,0,0,0,0,0,0,0,
0,0,0,0,0,0,0,0,0,0,0,0,0,0,0,0,
0,0,0,0,0,0,0,0,0,0,0,0,0,0,0,0,
0,0,0,0,0,0,0,0,0,0,0,0,0,0,0,0,
0,0,0,0,0,0,0,0,0,0,0,0,0,0,0,0,
0,0,0,0,0,0,0,0,0,8480,8480,8480,8480,8480,8480,8480,
5388,5389,5390,0,0,0,0,0,0,8510,8510,8510,8510,8510,8510,8510,
5412,5413,5414,0,0,0,0,0,0,8540,8540,8540,8540,8540,8540,8540
</chunk>
   <chunk x="80" y="-16" width="16" height="16">
0,0,0,0,0,0,0,0,0,0,0,0,0,0,0,0,
0,0,0,0,0,0,0,0,0,0,0,0,0,0,0,0,
0,0,0,0,0,0,0,0,0,0,0,0,0,0,0,0,
0,0,0,0,0,0,0,0,0,0,0,0,0,0,0,0,
0,0,0,0,0,0,0,0,0,0,0,0,0,0,0,0,
0,0,0,0,0,0,0,0,0,0,0,0,0,0,0,0,
0,0,0,0,0,0,0,0,0,0,0,0,0,0,0,0,
0,0,0,0,0,0,0,0,0,0,0,0,0,0,0,0,
0,0,0,0,0,0,0,0,0,0,0,0,0,0,0,0,
0,0,0,0,0,0,0,0,0,0,0,0,0,0,0,0,
0,0,0,0,0,0,0,0,0,0,0,0,0,0,0,0,
0,0,0,0,0,0,0,0,0,0,0,0,0,0,0,0,
0,0,0,0,0,0,0,0,0,0,0,0,0,0,0,0,
8480,8480,8480,8480,8480,8480,8480,8480,8480,8480,8480,8480,8480,8480,8480,8480,
8510,8510,8510,8510,8510,8510,8510,8510,8510,8510,8510,8510,8510,8510,8510,8510,
8540,8540,8540,8540,8540,8540,8540,8540,8540,8540,8540,8540,8540,8540,8540,8540
</chunk>
   <chunk x="96" y="-16" width="16" height="16">
0,0,0,0,0,0,0,0,0,0,0,0,0,0,0,0,
0,0,0,0,0,0,0,0,0,0,0,0,0,0,0,0,
0,0,0,0,0,0,0,0,0,0,0,0,0,0,0,0,
0,0,0,0,0,0,0,0,0,0,0,0,0,0,0,0,
0,0,0,0,0,0,0,0,0,0,0,0,0,0,0,0,
0,0,0,0,0,0,0,0,0,0,0,0,0,0,0,0,
0,0,0,0,0,0,0,0,0,0,0,0,0,0,0,0,
0,0,0,0,0,0,0,0,0,0,0,0,0,0,0,0,
0,0,0,0,0,0,0,0,0,0,0,0,0,0,0,0,
0,0,0,0,0,0,0,0,0,0,0,0,0,0,0,0,
0,0,0,0,0,0,0,0,0,0,0,0,0,0,0,0,
0,0,0,0,0,0,0,0,0,0,0,0,0,0,0,0,
0,0,0,0,0,0,0,0,0,0,0,0,0,0,0,0,
8480,8480,8480,8480,8480,8480,8480,8480,8480,8480,8480,8482,8482,0,0,0,
8510,8510,8510,8510,8510,8510,8510,8510,8510,8510,8510,8512,8512,0,0,0,
8540,8540,8540,8540,8540,8540,8540,8540,8540,8540,8540,8542,8542,0,0,0
</chunk>
   <chunk x="-32" y="0" width="16" height="16">
0,0,0,0,0,388,389,390,391,392,393,394,395,396,397,398,
0,0,0,0,0,420,421,422,423,424,425,426,427,428,429,430,
0,0,0,0,0,452,453,454,455,456,457,458,459,460,461,462,
0,0,0,0,0,484,485,486,487,488,489,490,491,492,493,494,
0,0,0,0,0,516,517,518,519,520,521,522,523,524,525,526,
0,0,0,0,0,548,549,550,551,552,553,554,555,556,557,558,
0,0,0,0,0,580,581,582,583,584,585,586,587,588,589,590,
0,0,0,0,0,612,613,614,615,616,617,618,619,620,621,622,
0,0,0,0,0,644,645,646,647,648,649,650,651,652,653,654,
0,0,0,0,0,676,677,678,679,680,681,682,683,684,685,686,
0,0,0,0,0,708,709,710,711,712,713,714,715,716,717,718,
0,0,0,0,0,740,741,742,743,744,745,746,747,748,749,750,
0,0,0,0,0,772,773,774,775,776,777,778,779,780,781,782,
0,0,0,0,0,804,805,806,807,808,809,810,811,812,813,814,
0,0,0,0,0,836,837,838,839,840,841,842,843,844,845,846,
0,0,0,0,0,868,869,870,871,872,873,874,875,876,877,878
</chunk>
   <chunk x="-16" y="0" width="16" height="16">
399,400,401,402,403,404,405,406,407,408,409,410,411,412,413,414,
431,432,433,434,435,436,437,438,439,440,441,442,443,444,445,446,
463,464,465,466,467,468,469,470,471,472,473,474,475,476,477,478,
495,496,497,498,499,500,501,502,503,504,505,506,507,508,509,510,
527,528,529,530,531,532,533,534,535,536,537,538,539,540,541,542,
559,560,561,562,563,564,565,566,567,568,569,570,571,572,573,574,
591,592,593,594,595,596,597,598,599,600,601,602,603,604,605,606,
623,624,625,626,627,628,629,630,631,632,633,634,635,636,637,638,
655,656,657,658,659,660,661,662,663,664,665,666,667,668,669,670,
687,688,689,690,691,692,693,694,695,696,697,698,699,700,701,702,
719,720,721,722,723,724,725,726,727,728,729,730,731,732,733,734,
751,752,753,754,755,756,757,758,759,760,761,762,763,764,765,766,
783,784,785,786,787,788,789,790,791,792,793,794,795,796,797,798,
815,816,817,818,819,820,821,822,823,824,825,826,827,828,829,830,
847,848,849,850,851,852,853,854,855,856,857,858,859,860,861,862,
879,880,881,882,883,884,885,886,887,888,889,890,891,892,893,894
</chunk>
   <chunk x="0" y="0" width="16" height="16">
415,416,396,2920,2921,2922,0,0,0,0,0,0,0,0,1707,1708,
447,448,428,2952,2953,2954,0,0,0,0,0,0,0,0,1739,1740,
479,480,460,2984,2985,2986,0,0,0,0,0,0,0,0,1771,1772,
511,512,492,3016,3017,3018,0,0,0,0,0,0,0,0,1803,1804,
543,544,2541,2542,2543,2544,0,0,0,0,0,0,0,0,1835,1836,
575,576,2573,2574,2575,2576,0,0,0,0,0,0,0,0,1867,1868,
607,608,2605,2606,2607,2608,0,0,0,0,0,0,0,0,1899,1900,
639,640,2637,2638,2639,2640,0,0,0,0,0,0,0,0,1931,1932,
671,672,2669,2670,2671,2672,0,0,0,0,0,0,0,0,1963,1964,
703,704,2701,2702,2703,2704,0,0,0,0,0,0,0,0,1995,1996,
735,736,2733,2734,2735,2736,0,0,0,0,0,0,0,0,2027,2028,
767,768,2765,2766,2767,2768,0,0,0,0,0,0,0,0,2059,2060,
799,800,2797,2798,2799,2800,0,0,0,0,0,0,0,0,2091,2092,
831,832,2829,2830,2831,2832,0,0,0,0,0,0,0,0,2123,2124,
863,864,2861,2862,2863,2864,0,0,0,0,0,0,0,0,2155,2156,
895,896,2893,2894,2895,2896,0,0,0,0,0,0,0,0,2187,2188
</chunk>
   <chunk x="16" y="0" width="16" height="16">
1709,1710,1711,1712,1713,1714,1715,1716,1717,1718,1719,1720,1721,1722,1723,1724,
1741,1742,1743,1744,1745,1746,1747,1748,1749,1750,1751,1752,1753,1754,1755,1756,
1773,1774,1775,1776,1777,1778,1779,1780,1781,1782,1783,1784,1785,1786,1787,1788,
1805,1806,1807,1808,1809,1810,1811,1812,1813,1814,1815,1816,1817,1818,1819,1820,
1837,1838,1839,1840,1841,1842,1843,1844,1845,1846,1847,1848,1849,1850,1851,1852,
1869,1870,1871,1872,1873,1874,1875,1876,1877,1878,1879,1880,1881,1882,1883,1884,
1901,1902,1903,1904,1905,1906,1907,1908,1909,1910,1911,1912,1913,1914,1915,1916,
1933,1934,1935,1936,1937,1938,1939,1940,1941,1942,1943,1944,1945,1946,1947,1948,
1965,1966,1967,1968,1969,1970,1971,1972,1973,1974,1975,1976,1977,1978,1979,1980,
1997,1998,1999,2000,2001,2002,2003,2004,2005,2006,2007,2008,2009,2010,2011,2012,
2029,2030,2031,2032,2033,2034,2035,2036,2037,2038,2039,2040,2041,2042,2043,2044,
2061,2062,2063,2064,2065,2066,2067,2068,2069,2070,2071,2072,2073,2074,2075,2076,
2093,2094,2095,2096,2097,2098,2099,2100,2101,2102,2103,2104,2105,2106,2107,2108,
2125,2126,2127,2128,2129,2130,2131,2132,2133,2134,2135,2136,2137,2138,2139,2140,
2157,2158,2159,2160,2161,2162,2163,2164,2165,2166,2167,2168,2169,2170,2171,2172,
2189,2190,2191,2192,2193,2194,2195,2196,2197,2198,2199,2200,2201,2202,2203,2204
</chunk>
   <chunk x="32" y="0" width="16" height="16">
1725,1726,1727,1728,1729,1730,0,0,0,0,0,5415,5416,5417,5418,5419,
1757,1758,1759,1760,1761,1762,0,0,0,0,0,5439,5440,5441,5442,5443,
1789,1790,1791,1792,1793,1794,0,0,0,0,0,5463,5464,5465,5466,5467,
1821,1822,1823,1824,1825,1826,0,0,0,0,0,5487,5488,5489,5490,5491,
1853,1854,1855,1856,1857,1858,0,0,0,0,0,5511,5512,5513,5514,5515,
1885,1886,1887,1888,1889,1890,0,0,0,0,0,5535,5536,5537,5538,5539,
1917,1918,1919,1920,1921,1922,0,0,0,0,0,5559,5560,5561,5562,5563,
1949,1950,1951,1952,1953,1954,0,0,0,0,0,5583,5584,5585,5586,5587,
1981,1982,1983,1984,1985,1986,0,0,0,0,0,5607,5608,5609,5610,5611,
2013,2014,2015,2016,2017,2018,0,0,0,0,0,5631,5632,5633,5634,5635,
2045,2046,2047,2048,2049,2050,0,0,0,0,0,5655,5656,5657,5658,5659,
2077,2078,2079,2080,2081,2082,0,0,0,0,0,5679,5680,5681,5682,5683,
2109,2110,2111,2112,2113,2114,0,0,0,0,0,5703,5704,5705,5706,5707,
2141,2142,2143,2144,2145,2146,0,0,0,0,0,5727,5728,5729,5730,5731,
2173,2174,2175,2176,2177,2178,0,0,0,0,0,5751,5752,5753,5754,5755,
2205,2206,2207,2208,2209,2210,0,0,0,0,0,5775,5776,5777,5778,5779
</chunk>
   <chunk x="48" y="0" width="16" height="16">
5420,5421,5422,5423,5424,5425,5426,5427,5428,5429,5430,5431,5432,5433,5434,5435,
5444,5445,5446,5447,5448,5449,5450,5451,5452,5453,5454,5455,5456,5457,5458,5459,
5468,5469,5470,5471,5472,5473,5474,5475,5476,5477,5478,5479,5480,5481,5482,5483,
5492,5493,5494,5495,5496,5497,5498,5499,5500,5501,5502,5503,5504,5505,5506,5507,
5516,5517,5518,5519,5520,5521,5522,5523,5524,5525,5526,5527,5528,5529,5530,5531,
5540,5541,5542,5543,5544,5545,5546,5547,5548,5549,5550,5551,5552,5553,5554,5555,
5564,5565,5566,5567,5568,5569,5570,5571,5572,5573,5574,5575,5576,5577,5578,5579,
5588,5589,5590,5591,5592,5593,5594,5595,5596,5597,5598,5599,5600,5601,5602,5603,
5612,5613,5614,5615,5616,5617,5618,5619,5620,5621,5622,5623,5624,5625,5626,5627,
5636,5637,5638,5639,5640,5641,5642,5643,5644,5645,5646,5647,5648,5649,5650,5651,
5660,5661,5662,5663,5664,5665,5666,5667,5668,5669,5670,5671,5672,5673,5674,5675,
5684,5685,5686,5687,5688,5689,5690,5691,5692,5693,5694,5695,5696,5697,5698,5699,
5708,5709,5710,5711,5712,5713,5714,5715,5716,5717,5718,5719,5720,5721,5722,5723,
5732,5733,5734,5735,5736,5737,5738,5739,5740,5741,5742,5743,5744,5745,5746,5747,
5756,5757,5758,5759,5760,5761,5762,5763,5764,5765,5766,5767,5768,5769,5770,5771,
5780,5781,5782,5783,5784,5785,5786,5787,5788,5789,5790,5791,5792,5793,5794,5795
</chunk>
   <chunk x="64" y="0" width="16" height="16">
5436,5437,5438,0,0,0,0,0,0,8570,8570,8570,8570,8570,8570,8570,
5460,5461,5462,0,0,0,0,0,0,8510,8600,8600,8600,8600,8600,8600,
5484,5485,5486,0,0,0,0,0,0,8510,0,0,0,0,0,0,
5508,5509,5510,0,0,0,0,0,0,8510,0,0,0,0,0,0,
5532,5533,5534,0,0,0,0,0,0,8510,0,0,0,0,0,0,
5556,5557,5558,0,0,0,0,0,0,8510,0,0,0,0,0,0,
5580,5581,5582,0,0,0,0,0,0,8510,0,0,0,0,0,0,
5604,5605,5606,0,0,0,0,0,0,8510,0,0,0,0,0,0,
5628,5629,5630,0,0,0,0,0,0,8510,0,0,0,0,0,0,
5652,5653,5654,0,0,0,0,0,0,8510,0,0,0,0,0,0,
5676,5677,5678,0,0,0,0,0,0,0,0,0,0,0,0,0,
5700,5701,5702,0,0,0,0,0,0,0,0,0,0,0,0,0,
5724,5725,5726,0,0,0,0,0,0,0,0,0,0,0,0,0,
5748,5749,5750,0,0,0,0,0,0,0,0,0,0,0,0,0,
5772,5773,5774,0,0,0,0,0,0,0,0,0,0,0,0,0,
5796,5797,5798,0,0,0,0,0,0,0,0,0,0,0,0,0
</chunk>
   <chunk x="80" y="0" width="16" height="16">
8570,8570,8570,8570,8570,8570,8570,8570,8570,8570,8570,8570,8570,8570,8570,8570,
8600,8600,8600,8600,8600,8600,8600,8600,8600,8600,8600,8600,8600,8600,8600,8600,
0,0,0,0,0,0,0,0,0,0,0,0,0,0,0,0,
0,0,0,0,0,0,0,0,0,0,0,0,0,0,0,0,
0,0,0,0,0,0,0,0,0,0,0,0,0,0,0,0,
0,0,0,0,0,0,0,0,0,0,0,0,0,0,0,0,
0,0,0,0,0,0,0,0,0,0,0,0,0,0,0,0,
0,0,0,0,0,0,0,0,0,0,0,0,0,0,0,0,
0,0,0,0,0,0,0,0,0,0,0,0,0,0,0,0,
0,0,0,0,0,0,0,0,0,0,0,0,0,0,0,0,
0,0,0,0,0,0,0,0,0,0,0,0,0,0,0,0,
0,0,0,0,0,0,0,0,0,0,0,0,0,0,0,0,
0,0,0,0,0,0,0,0,0,0,0,0,0,0,0,0,
0,0,0,0,0,0,0,0,0,0,0,0,0,0,0,0,
0,0,0,0,0,0,0,0,0,0,0,0,0,0,0,0,
0,0,0,0,0,0,0,0,0,0,0,0,0,0,0,0
</chunk>
   <chunk x="96" y="0" width="16" height="16">
8570,8570,8570,8570,8570,8570,8570,8570,8570,8570,8570,8572,8572,0,0,0,
8600,8600,8600,8600,8600,8600,8600,8600,8600,8600,8600,8602,8602,0,0,0,
0,0,0,0,0,0,0,0,0,0,0,0,0,0,0,0,
0,0,0,0,0,0,0,0,0,0,0,0,0,0,0,0,
0,0,0,0,0,0,0,0,0,0,0,0,0,0,0,0,
0,0,0,0,0,0,0,0,0,0,0,0,0,0,0,0,
0,0,0,0,0,0,0,0,0,0,0,0,0,0,0,0,
0,0,0,0,0,0,0,0,0,0,0,0,0,0,0,0,
0,0,0,0,0,0,0,0,0,0,0,0,0,0,0,0,
0,0,0,0,0,0,0,0,0,0,0,0,0,0,0,0,
0,0,0,0,0,0,0,0,0,0,0,0,0,0,0,0,
0,0,0,0,0,0,0,0,0,0,0,0,0,0,0,0,
0,0,0,0,0,0,0,0,0,0,0,0,0,0,0,0,
0,0,0,0,0,0,0,0,0,0,0,0,0,0,0,0,
0,0,0,0,0,0,0,0,0,0,0,0,0,0,0,0,
0,0,0,0,0,0,0,0,0,0,0,0,0,0,0,0
</chunk>
   <chunk x="-32" y="16" width="16" height="16">
0,0,0,0,0,900,901,902,903,904,905,906,907,908,909,910,
0,0,0,0,0,932,933,934,935,936,937,938,939,940,941,942,
0,0,0,0,0,964,965,966,967,968,969,970,971,972,973,974,
0,0,0,0,0,996,997,998,999,1000,1001,1002,1003,1004,1005,1006,
0,0,0,0,0,3560,3561,3562,3563,3564,3565,3566,3567,3568,3569,3570,
0,0,0,0,0,3593,3594,3595,3596,3597,3598,3599,3600,3601,3602,3603,
0,0,0,0,0,3626,3627,3628,3629,3630,3631,3632,3633,3634,3635,3636,
0,0,0,0,0,3659,3660,3661,3662,3663,3664,3665,3666,3667,3668,3669,
0,0,0,0,3691,3692,3693,3694,3695,3696,3697,3698,3699,3700,3701,3702,
0,0,0,0,3724,3725,3726,3727,3728,3729,3730,3731,3732,3733,3734,3735,
0,0,0,0,3757,3758,3759,3760,3761,3762,3763,3764,3765,3766,3767,3768,
0,0,0,0,3790,3791,3792,3793,3794,3795,3796,3797,3798,3799,3800,3801,
0,0,0,0,3823,3824,3825,3826,3827,3828,3829,3830,3831,3832,3833,3834,
0,0,0,0,3856,3857,3858,3859,3860,3861,3862,3863,3864,3865,3866,3867,
0,0,0,0,3889,3890,3891,3892,3893,3894,3895,3896,3897,3898,3899,3900,
0,0,0,0,3922,3923,3924,3925,3926,3927,3928,3929,3930,3931,3932,3933
</chunk>
   <chunk x="-16" y="16" width="16" height="16">
911,912,913,914,915,916,917,918,919,920,921,922,923,924,925,926,
943,944,945,946,947,948,949,950,951,952,953,954,955,956,957,958,
975,976,977,978,979,980,981,982,983,984,985,986,987,988,989,990,
1007,1008,1009,1010,1011,1012,1013,1014,1015,1016,1017,1018,1019,1020,1021,1022,
3571,3572,3573,3574,3575,3576,3577,3578,3579,3580,3581,3582,3583,3584,3585,3586,
3604,3605,3606,3607,3608,3609,3610,3611,3612,3613,3614,3615,3616,3617,3618,3619,
3637,3638,3639,3640,3641,3642,3643,3644,3645,3646,3647,3648,3649,3650,3651,3652,
3670,3671,3672,3673,3674,3675,3676,3677,3678,3679,3680,3681,3682,3683,3684,3685,
3703,0,0,0,3707,3708,3709,0,0,0,3713,3714,3715,3716,3717,3718,
3736,0,0,0,3740,3741,3742,0,0,0,3746,3747,3748,3749,3750,3751,
3769,0,0,0,3773,3774,3775,0,0,0,3779,3780,3781,3782,3783,3784,
3802,0,0,0,3806,3807,3808,0,0,0,3812,3813,3814,3815,3816,3817,
3835,0,0,0,3839,3840,3841,0,0,0,3845,3846,3847,3848,3849,3850,
3868,0,0,0,0,3873,3874,0,0,0,3878,3879,3880,3881,3882,3883,
3901,0,0,0,0,3906,3907,0,3909,3910,3911,3912,3913,3914,3915,3916,
3934,3935,0,0,0,3939,3940,0,3942,3943,3944,3945,3946,3947,3948,3949
</chunk>
   <chunk x="0" y="16" width="16" height="16">
927,928,2925,2926,2927,2928,0,0,0,0,0,0,0,0,2219,2220,
959,960,2957,2958,2959,2960,0,0,0,0,0,0,0,0,2251,2252,
991,992,2989,2990,2991,2992,0,0,0,0,0,0,0,0,2283,2284,
1023,1024,3021,3022,3023,3024,0,0,0,0,0,0,0,0,2315,2316,
3587,3588,2549,2550,2551,2552,0,0,0,0,0,0,0,0,2347,2348,
3620,3621,2581,2582,2583,2584,0,0,0,0,0,0,0,0,2379,2380,
3653,3654,2613,2614,2615,2616,0,0,0,0,0,0,0,0,2411,2412,
3686,3687,2645,2646,2647,2648,0,0,0,0,0,0,0,0,2443,2444,
3719,3720,2677,2678,2679,2680,0,0,0,0,0,0,0,0,0,0,
3752,3753,2709,2710,2711,2712,0,0,0,0,0,0,0,0,0,0,
3785,3786,2741,2742,2743,2744,0,0,0,0,0,0,0,0,0,0,
3818,3819,2773,2774,2775,2776,0,0,0,0,0,0,0,0,0,0,
3851,3852,2805,2806,2807,2808,0,0,0,0,0,0,0,0,0,0,
3884,3885,2837,2838,2839,2840,0,0,0,0,0,0,0,0,0,0,
3917,3918,3919,3920,0,0,0,0,0,0,0,0,0,0,0,0,
3950,3951,3952,3953,0,0,0,0,0,0,0,0,0,0,0,0
</chunk>
   <chunk x="16" y="16" width="16" height="16">
2221,2222,2223,2224,2225,2226,2227,2228,2229,2230,2231,2232,2233,2234,2235,2236,
2253,2254,2255,2256,2257,2258,2259,2260,2261,2262,2263,2264,2265,2266,2267,2268,
2285,2286,2287,2288,2289,2290,2291,2292,2293,2294,2295,2296,2297,2298,2299,2300,
2317,2318,2319,2320,2321,2322,2323,2324,2325,2326,2327,2328,2329,2330,2331,2332,
2349,2350,2351,2352,2353,2354,2355,2356,2357,2358,2359,2360,2361,2362,2363,2364,
2381,2382,2383,2384,2385,2386,2387,2388,2389,2390,2391,2392,2393,2394,2395,2396,
2413,2414,2415,2416,2417,2418,2419,2420,2421,2422,2423,2424,2425,2426,2427,2428,
2445,2446,2447,2448,2449,2450,2451,2452,2453,2454,2455,2456,2457,2458,2459,2460,
0,0,0,0,0,0,0,0,0,0,0,0,0,0,0,0,
0,0,0,0,0,0,0,0,0,0,0,0,0,0,0,0,
0,0,0,0,0,0,0,0,0,0,0,0,0,0,0,0,
0,0,0,0,0,0,0,0,0,0,0,0,0,0,0,0,
0,0,0,0,0,0,0,0,0,0,0,0,0,0,0,0,
0,0,0,0,0,0,0,0,0,0,0,0,0,0,0,0,
0,0,0,0,0,0,0,0,0,0,0,0,0,0,0,0,
0,0,0,0,0,0,0,0,0,0,0,0,0,0,0,0
</chunk>
   <chunk x="32" y="16" width="16" height="16">
2237,2238,2239,2240,2241,2242,0,0,0,0,0,5799,5800,5801,5802,5803,
2269,2270,2271,2272,2273,2274,0,0,0,0,0,5823,5824,5825,5826,5827,
2301,2302,2303,2304,2305,2306,0,0,0,0,0,5847,5848,5849,5850,5851,
2333,2334,2335,2336,2337,2338,0,0,0,0,0,5871,5872,5873,5874,5875,
2365,2366,2367,2368,2369,2370,0,0,0,0,0,5895,5896,5897,5898,5899,
2397,2398,2399,2400,2401,2402,0,0,0,0,0,5919,5920,5921,5922,5923,
2429,2430,2431,2432,2433,2434,0,0,0,0,0,5943,5944,5945,5946,5947,
2461,2462,2463,2464,2465,2466,0,0,0,0,0,5967,5968,5969,5970,5971,
0,0,0,0,0,0,0,0,0,0,0,5991,5992,5993,5994,5995,
0,0,0,0,0,0,0,0,0,0,0,6015,6016,6017,6018,6019,
0,0,0,0,0,0,0,0,0,0,0,0,0,0,0,0,
0,0,0,0,0,0,0,0,0,0,0,0,0,0,0,0,
0,0,0,0,0,0,0,0,0,0,0,0,0,0,0,0,
0,0,0,0,0,0,0,0,0,0,0,0,0,0,0,0,
0,0,0,0,0,0,0,0,0,0,0,0,0,0,0,0,
0,0,0,0,0,0,0,0,0,0,0,0,0,0,0,0
</chunk>
   <chunk x="48" y="16" width="16" height="16">
5804,5805,5806,5807,5808,5809,5810,5811,5812,5813,5814,5815,5816,5817,5818,5819,
5828,5829,5830,5831,5832,5833,5834,5835,5836,5837,5838,5839,5840,5841,5842,5843,
5852,5853,5854,5855,5856,5857,5858,5859,5860,5861,5862,5863,5864,5865,5866,5867,
5876,5877,5878,5879,5880,5881,5882,5883,5884,5885,5886,5887,5888,5889,5890,5891,
5900,5901,5902,5903,5904,5905,5906,5907,5908,5909,5910,5911,5912,5913,5914,5915,
5924,5925,5926,5927,5928,5929,5930,5931,5932,5933,5934,5935,5936,5937,5938,5939,
5948,5949,5950,5951,5952,5953,5954,5955,5956,5957,5958,5959,5960,5961,5962,5963,
5972,5973,5974,5975,5976,5977,5978,5979,5980,5981,5982,5983,5984,5985,5986,5987,
5996,5997,5998,5999,6000,6001,6002,6003,6004,6005,6006,6007,6008,6009,6010,6011,
6020,6021,6022,6023,6024,6025,6026,6027,6028,6029,6030,6031,6032,6033,6034,6035,
0,0,0,0,0,0,0,0,0,0,0,0,0,0,0,0,
0,0,0,0,5304,5305,5306,5307,5308,5309,0,0,0,0,0,0,
0,0,0,0,5312,5313,5314,5315,5316,5317,0,0,0,0,0,0,
0,0,0,0,5320,5321,5322,5323,5324,5325,0,0,0,0,0,0,
0,0,0,0,5328,5329,5330,5331,5332,5333,0,0,0,0,0,0,
0,0,0,0,5336,5337,5338,5339,5340,5341,0,0,0,0,0,0
</chunk>
   <chunk x="64" y="16" width="16" height="16">
5820,5821,5822,0,0,0,0,0,0,0,0,0,0,0,0,0,
5844,5845,5846,0,0,0,0,0,0,0,0,0,0,0,0,0,
5868,5869,5870,0,0,0,0,0,0,0,0,0,0,0,0,0,
5892,5893,5894,0,0,0,0,0,0,0,0,0,0,0,0,0,
5916,5917,5918,0,0,0,0,0,0,8510,0,0,0,0,0,0,
5940,5941,5942,0,0,0,0,0,0,8510,0,0,0,0,0,0,
5964,5965,5966,0,0,0,0,0,0,8510,0,0,0,0,0,0,
5988,5989,5990,0,0,0,0,0,0,8510,0,0,0,0,0,0,
6012,6013,6014,0,0,0,0,0,0,8510,0,0,0,0,0,0,
6036,6037,6038,0,0,0,0,0,0,8510,0,0,0,0,0,0,
0,0,0,0,0,0,0,0,0,8510,0,0,0,0,0,0,
0,0,0,0,0,0,0,0,0,8510,0,0,0,0,0,0,
0,0,0,0,0,0,0,0,0,8510,0,0,0,0,0,0,
0,0,0,0,0,0,0,0,0,8510,0,0,0,0,0,0,
0,0,0,0,0,0,8276,8277,8278,8510,0,0,0,0,0,0,
0,0,0,0,0,0,8306,8307,8308,8510,6359,6360,0,0,0,0
</chunk>
   <chunk x="96" y="16" width="16" height="16">
0,0,0,0,0,0,0,0,0,0,0,0,0,0,0,0,
0,0,0,0,0,0,0,0,0,0,0,0,0,0,0,0,
0,0,0,0,0,0,0,0,0,0,0,0,0,0,0,0,
0,0,0,0,0,0,0,0,0,0,0,0,0,0,0,0,
0,0,0,0,0,0,0,0,0,0,0,0,0,0,0,0,
0,0,0,0,0,0,0,0,0,0,0,0,0,0,0,0,
0,0,0,0,0,0,0,0,0,0,0,0,0,0,0,0,
0,0,0,0,0,0,0,0,0,0,0,0,0,0,0,0,
0,0,0,0,0,0,0,0,0,0,0,0,0,0,0,0,
0,0,0,0,0,0,0,0,0,0,0,0,0,0,0,0,
0,0,0,0,0,0,0,0,0,0,0,0,0,0,0,0,
0,0,0,0,0,0,0,0,0,0,0,0,0,0,0,0,
0,0,0,0,0,0,0,0,0,0,0,0,0,0,0,0,
0,0,0,0,0,0,0,0,0,0,0,0,0,0,0,0,
0,0,0,0,0,0,0,0,0,0,0,0,0,0,0,0,
0,0,0,0,0,0,0,0,0,6489,6490,6491,6492,0,0,0
</chunk>
   <chunk x="48" y="32" width="16" height="16">
0,0,0,0,5344,5345,5346,5347,5348,5349,0,0,0,0,0,0,
0,0,0,0,5352,5353,5354,5355,5356,5357,0,0,0,0,0,0,
0,0,0,0,5360,5361,5362,5363,5364,5365,0,0,0,0,0,0,
0,0,0,0,0,0,0,0,0,0,0,0,0,0,0,0,
0,0,0,0,0,0,0,0,0,0,0,0,0,0,0,0,
0,0,0,0,0,0,0,0,0,0,0,0,0,0,0,0,
0,0,0,0,0,0,0,0,0,0,0,0,0,0,0,0,
0,0,0,0,0,0,0,0,0,0,0,0,0,0,0,0,
0,0,0,0,0,0,0,0,0,0,0,0,0,0,0,0,
0,0,0,0,0,0,0,0,0,0,0,0,0,0,0,0,
0,0,0,0,0,0,0,0,0,0,0,0,0,0,0,0,
0,0,0,0,0,0,0,0,0,0,0,0,0,0,0,0,
0,0,0,0,0,0,0,0,0,0,0,0,0,0,0,0,
0,0,0,0,0,0,0,0,0,0,0,0,0,0,0,0,
0,0,0,0,0,0,0,0,0,0,0,0,0,0,0,0,
0,0,0,0,0,0,0,0,0,0,0,0,0,0,0,0
</chunk>
   <chunk x="64" y="32" width="16" height="16">
0,0,0,0,0,0,8336,8337,8338,8510,6391,6392,0,0,0,0,
0,0,0,0,0,0,8366,8367,8368,8510,6423,6424,0,0,0,0,
0,0,0,0,0,0,8396,8397,8398,8510,6455,6456,0,0,0,0,
0,0,0,0,0,0,8426,8427,8428,0,0,0,0,0,0,0,
0,0,0,0,0,0,0,0,0,0,0,0,0,0,0,0,
0,0,0,0,0,0,0,0,0,0,0,0,0,0,0,0,
0,0,0,0,0,0,0,0,0,0,0,0,0,0,0,0,
0,0,0,0,0,0,0,0,0,0,0,0,0,0,0,0,
0,0,0,0,0,0,0,0,0,0,0,0,0,0,0,0,
0,0,0,0,0,0,0,0,0,0,0,0,0,0,0,0,
0,0,0,0,0,0,0,0,0,0,0,0,0,0,0,0,
0,0,0,0,0,0,0,0,0,0,0,0,0,0,0,0,
0,0,0,0,0,0,0,0,0,0,0,0,0,0,0,0,
0,0,0,0,0,0,0,0,0,0,0,0,0,0,0,0,
0,0,0,0,0,0,0,0,0,0,0,0,0,0,0,0,
0,0,0,0,0,0,0,0,0,0,0,0,0,0,0,0
</chunk>
   <chunk x="96" y="32" width="16" height="16">
0,0,0,0,0,0,0,0,0,6521,6522,6523,6524,0,0,0,
0,0,0,0,0,0,0,0,0,6553,6554,6555,6556,0,0,0,
0,0,0,0,0,0,0,0,0,6585,6586,6587,6588,0,0,0,
0,0,0,0,0,0,0,0,0,0,0,0,0,0,0,0,
0,0,0,0,0,0,0,0,0,0,0,0,0,0,0,0,
0,0,0,0,0,0,0,0,0,0,0,0,0,0,0,0,
0,0,0,0,0,0,0,0,0,0,0,0,0,0,0,0,
0,0,0,0,0,0,0,0,0,0,0,0,0,0,0,0,
0,0,0,0,0,0,0,0,0,0,0,0,0,0,0,0,
0,0,0,0,0,0,0,0,0,0,0,0,0,0,0,0,
0,0,0,0,0,0,0,0,0,0,0,0,0,0,0,0,
0,0,0,0,0,0,0,0,0,0,0,0,0,0,0,0,
0,0,0,0,0,0,0,0,0,0,0,0,0,0,0,0,
0,0,0,0,0,0,0,0,0,0,0,0,0,0,0,0,
0,0,0,0,0,0,0,0,0,0,0,0,0,0,0,0,
0,0,0,0,0,0,0,0,0,0,0,0,0,0,0,0
</chunk>
  </data>
 </layer>
 <layer id="9" name="buildings_1.5" width="48" height="32">
  <data encoding="csv">
   <chunk x="64" y="-16" width="16" height="16">
0,0,0,0,0,0,0,0,0,0,0,0,0,0,0,0,
0,0,0,0,0,0,0,0,0,0,0,0,0,0,0,0,
0,0,0,0,0,0,0,0,0,0,0,0,0,0,0,0,
0,0,0,0,0,0,0,0,0,0,0,0,0,0,0,0,
0,0,0,0,0,0,0,0,0,0,0,0,0,0,0,0,
0,0,0,0,0,0,0,0,0,0,0,0,0,0,0,0,
0,0,0,0,0,0,0,0,0,0,0,0,0,0,0,0,
0,0,0,0,0,0,0,0,0,0,0,0,0,0,0,0,
0,0,0,0,0,0,0,0,0,0,0,0,0,0,0,0,
0,0,0,0,0,0,0,0,0,0,0,0,0,0,0,0,
0,0,0,0,0,0,0,0,0,0,0,0,0,0,0,0,
0,0,0,0,0,0,0,0,0,0,0,0,0,0,0,0,
0,0,0,0,0,0,0,0,0,0,0,0,0,0,0,0,
0,0,0,0,0,0,0,0,0,0,0,0,0,0,0,0,
0,0,0,0,0,0,0,0,0,0,8270,8271,8272,8273,8274,8275,
0,0,0,0,0,0,0,0,0,0,8300,8301,8302,8303,8304,8305
</chunk>
   <chunk x="64" y="0" width="16" height="16">
0,0,0,0,0,0,0,0,0,0,8330,8331,8332,8333,8334,8335,
0,0,0,0,0,0,0,0,0,0,8360,8361,8362,8363,8364,8365,
0,0,0,0,0,0,0,0,0,0,8390,8391,8392,8393,8394,8395,
0,0,0,0,0,0,0,0,0,0,8420,8421,8422,8423,8424,8425,
0,0,0,0,0,0,0,0,0,0,0,0,0,0,0,0,
0,0,0,0,0,0,0,0,0,0,0,0,0,0,0,0,
0,0,0,0,0,0,0,0,0,0,0,0,0,0,0,0,
0,0,0,0,0,0,0,0,0,0,0,0,0,0,0,0,
0,0,0,0,0,0,0,0,0,0,0,0,0,0,0,0,
0,0,0,0,0,0,0,0,0,0,0,0,0,0,0,0,
0,0,0,0,0,0,0,0,0,0,0,0,0,0,0,0,
0,0,0,0,0,0,0,0,0,0,0,0,0,0,0,0,
0,0,0,0,0,0,0,0,0,0,0,0,0,0,0,0,
0,0,0,0,0,0,0,0,0,0,0,0,0,0,0,0,
0,0,0,0,0,0,0,0,0,0,0,0,0,0,0,0,
0,0,0,0,0,0,0,0,0,0,0,0,0,0,0,0
</chunk>
   <chunk x="80" y="0" width="16" height="16">
0,0,0,0,0,0,0,0,0,0,0,0,8087,8088,8089,0,
0,0,0,0,0,0,0,0,0,0,0,0,8117,8118,8119,0,
0,0,0,0,0,0,0,0,0,0,0,0,8147,8148,8149,0,
0,0,0,0,0,0,0,0,0,0,0,0,0,0,0,0,
0,0,0,0,0,0,0,0,0,0,0,0,0,0,0,0,
0,0,0,0,0,0,0,0,0,0,0,0,0,0,0,0,
0,0,0,0,0,0,0,0,0,0,0,0,0,0,0,0,
0,0,0,0,0,0,0,0,0,0,0,0,0,0,0,0,
0,0,0,0,0,0,0,0,0,0,0,0,0,0,0,0,
0,0,0,0,0,0,0,0,0,0,0,0,0,0,0,0,
0,0,0,0,0,0,0,0,0,0,0,0,0,0,0,0,
0,0,0,0,0,0,0,0,0,0,0,0,0,0,0,0,
0,0,0,0,0,0,0,0,0,0,0,0,0,0,0,0,
0,0,0,0,0,0,0,0,0,0,0,0,0,0,0,0,
0,0,0,0,0,0,0,0,0,0,0,0,0,0,0,0,
0,0,0,0,0,0,0,0,0,0,0,0,0,0,0,0
</chunk>
   <chunk x="96" y="0" width="16" height="16">
0,0,0,0,0,0,0,0,0,0,8090,8091,8092,0,0,0,
0,0,0,0,0,0,0,0,0,0,8120,8121,8122,0,0,0,
0,0,0,0,0,0,0,0,0,0,8150,8151,8152,0,0,0,
0,0,0,0,0,0,0,0,0,0,0,0,0,0,0,0,
0,0,0,0,0,0,0,0,0,0,0,0,0,0,0,0,
0,0,0,0,0,0,0,0,0,0,0,0,0,0,0,0,
0,0,0,0,0,0,0,0,0,0,0,0,0,0,0,0,
0,0,0,0,0,0,0,0,0,0,0,0,0,0,0,0,
0,0,0,0,0,0,0,0,0,0,0,0,0,0,0,0,
0,0,0,0,0,0,0,0,0,0,0,0,0,0,0,0,
0,0,0,0,0,0,0,0,0,0,0,0,0,0,0,0,
0,0,0,0,0,0,0,0,0,0,0,0,0,0,0,0,
0,0,0,0,0,0,0,0,0,0,0,0,0,0,0,0,
0,0,0,0,0,0,0,0,0,0,0,0,0,0,0,0,
0,0,0,0,0,0,0,0,0,0,0,0,0,0,0,0,
0,0,0,0,0,0,0,0,0,0,0,0,0,0,0,0
</chunk>
  </data>
 </layer>
 <layer id="6" name="buildings_1" width="144" height="96">
  <data encoding="csv">
   <chunk x="32" y="-48" width="16" height="16">
0,0,0,0,0,0,0,0,0,0,0,0,0,0,0,0,
0,0,0,0,0,0,0,0,0,0,0,0,0,0,0,0,
0,0,0,0,0,0,0,0,0,0,0,0,0,0,0,0,
0,0,0,0,0,0,0,0,0,0,0,0,0,0,0,0,
0,0,0,0,0,0,0,0,0,0,0,0,0,0,0,0,
0,0,0,0,0,0,0,0,0,0,0,0,0,0,0,0,
0,0,0,0,0,0,0,0,0,0,0,0,0,0,0,0,
0,0,0,0,0,0,0,0,0,0,0,0,0,0,0,0,
0,0,0,0,0,0,0,0,0,0,0,0,0,0,0,0,
0,0,0,0,0,0,0,0,0,0,0,0,0,0,0,0,
0,0,0,0,0,0,0,0,0,0,8276,8277,8278,0,0,0,
0,0,0,0,0,0,0,0,0,0,8306,8307,8308,0,0,0,
0,0,0,0,0,0,0,0,0,0,8336,8337,8338,0,0,0,
0,0,0,0,0,0,0,0,0,0,8366,8367,8368,0,0,0,
0,0,0,0,0,0,0,0,0,0,8396,8397,8398,0,0,0,
0,0,0,0,0,0,0,0,0,0,8426,8427,8428,0,0,0
</chunk>
   <chunk x="64" y="-48" width="16" height="16">
0,0,0,0,0,0,0,0,0,0,0,0,0,0,0,0,
0,0,0,0,0,0,0,0,0,0,0,0,0,0,0,0,
0,0,0,0,0,0,0,0,0,0,0,0,0,0,0,0,
0,0,0,0,0,0,0,0,0,0,0,0,0,0,0,0,
0,0,0,0,0,0,0,0,0,0,0,0,0,0,0,0,
0,0,0,0,0,0,0,0,0,0,0,0,0,0,0,0,
0,0,0,0,0,0,0,0,0,0,0,0,0,0,0,0,
0,0,0,0,0,0,0,0,0,0,0,0,0,0,0,0,
0,0,0,0,0,0,0,0,0,0,0,0,0,0,0,0,
0,0,0,0,0,0,0,0,0,0,0,0,0,0,0,0,
0,0,8276,8277,8278,0,0,0,0,0,0,0,0,0,8276,8277,
0,0,8306,8307,8308,0,0,0,0,0,0,0,0,0,8306,8307,
0,0,8336,8337,8338,0,0,0,0,0,0,0,0,0,8336,8337,
0,0,8366,8367,8368,6177,6178,0,0,0,0,6045,6046,0,8366,8367,
0,0,8396,8397,8398,6209,6210,0,0,0,0,6077,6078,0,8396,8397,
0,0,8426,8427,8428,0,0,0,0,0,0,0,0,0,8426,8427
</chunk>
   <chunk x="80" y="-48" width="16" height="16">
0,0,0,0,0,0,0,0,0,0,0,0,0,0,0,0,
0,0,0,0,0,0,0,0,0,0,0,0,0,0,0,0,
0,0,0,0,0,0,0,0,0,0,0,0,0,0,0,0,
0,0,0,0,0,0,0,0,0,0,0,0,0,0,0,0,
0,0,0,0,0,0,0,0,0,0,0,0,0,0,0,0,
0,0,0,0,0,0,0,0,0,0,0,0,0,0,0,0,
0,0,0,0,0,0,0,0,0,0,0,0,0,0,0,0,
0,0,0,0,0,0,0,0,0,0,0,0,0,0,0,0,
0,0,0,0,0,0,0,0,0,0,0,0,0,0,0,0,
0,0,0,0,0,0,0,0,0,0,0,0,0,0,0,0,
8278,0,0,0,0,0,0,0,0,0,0,0,0,0,0,0,
8308,0,0,0,0,0,0,0,0,0,0,0,0,0,0,0,
8338,0,0,0,0,0,0,0,0,0,0,0,0,0,0,0,
8368,0,0,0,0,0,0,0,0,0,0,0,0,0,0,0,
8398,0,0,0,0,0,0,0,0,0,0,0,0,0,0,0,
8428,0,0,0,0,0,0,0,0,0,0,0,0,0,0,0
</chunk>
   <chunk x="96" y="-32" width="16" height="16">
0,0,0,0,0,0,0,0,0,0,0,0,0,0,0,0,
0,0,0,0,0,0,0,0,0,0,0,0,0,0,0,0,
0,0,0,0,0,0,0,0,0,0,0,0,0,0,0,0,
0,0,0,0,0,0,0,0,0,0,0,0,0,0,0,0,
0,0,0,0,0,0,0,0,0,0,0,0,0,0,0,0,
0,0,0,0,0,0,0,0,0,0,0,0,0,0,0,0,
0,0,0,0,0,0,0,0,0,0,8276,8277,8278,0,0,0,
0,0,0,0,0,0,0,0,0,0,8306,8307,8308,0,0,0,
0,0,0,0,0,0,0,0,0,0,8336,8337,8338,0,0,0,
0,0,0,0,0,0,0,0,0,0,8366,8367,8368,0,0,0,
0,0,0,0,0,0,0,0,0,0,8396,8397,8398,0,0,0,
0,0,0,0,0,0,0,0,0,0,8426,8427,8428,0,0,0,
0,0,0,0,0,0,0,0,0,0,0,0,0,0,0,0,
0,0,0,0,0,0,0,0,0,0,0,0,0,0,0,0,
0,0,0,0,0,0,0,0,0,0,0,0,0,0,0,0,
0,0,0,0,0,0,0,0,0,0,0,0,0,0,0,0
</chunk>
   <chunk x="32" y="-16" width="16" height="16">
0,0,0,0,0,0,0,0,0,0,0,0,0,0,0,0,
0,0,0,0,0,0,0,0,0,0,0,0,0,0,0,0,
0,0,0,0,0,0,0,0,0,0,0,0,0,0,0,0,
0,0,0,0,0,0,0,0,0,0,0,0,0,0,0,0,
0,0,0,0,0,0,0,0,0,0,0,0,0,7383,7384,0,
0,0,0,0,0,0,0,0,0,0,0,0,0,7415,7416,0,
0,0,0,0,0,0,0,0,0,0,0,0,0,0,0,0,
0,0,0,0,0,0,0,0,0,0,0,0,0,0,0,0,
0,0,0,0,0,0,0,0,0,0,0,0,0,0,0,0,
0,0,0,0,0,0,0,0,0,0,0,0,0,0,0,0,
0,0,0,0,0,0,0,0,0,0,0,0,0,0,0,0,
0,0,0,0,0,0,0,0,0,0,0,0,0,0,0,0,
0,0,0,0,0,0,0,0,0,0,0,0,0,0,0,0,
0,0,0,0,0,0,0,0,0,0,0,0,0,0,0,0,
0,0,0,0,0,0,0,0,0,0,0,0,0,0,0,0,
0,0,0,0,0,0,0,0,0,0,0,0,0,0,0,0
</chunk>
   <chunk x="64" y="-16" width="16" height="16">
0,0,0,0,0,0,0,0,0,0,0,0,0,0,0,0,
0,0,0,0,0,0,0,0,0,0,0,0,0,0,0,0,
0,0,0,0,0,0,0,0,0,0,0,0,0,0,0,0,
0,0,0,0,0,0,0,0,0,0,0,0,0,0,0,0,
0,0,7383,7384,0,0,0,0,0,0,0,0,0,0,0,0,
0,0,7415,7416,0,0,0,0,0,0,0,0,0,0,0,0,
0,0,0,0,0,0,0,0,0,0,0,0,0,0,0,0,
0,0,0,0,0,0,0,0,0,0,0,0,0,0,0,0,
0,0,0,0,0,0,0,0,0,0,0,0,0,0,0,0,
0,0,0,0,0,0,0,0,0,0,0,0,0,0,0,0,
0,0,0,0,0,0,0,0,0,0,0,0,0,0,0,0,
0,0,0,0,0,0,0,0,0,0,0,0,0,0,0,0,
0,0,0,0,0,0,0,0,0,0,0,0,0,0,0,0,
0,0,0,0,0,0,0,0,0,0,0,0,0,0,0,0,
0,0,0,0,0,0,0,0,0,0,0,0,0,0,0,0,
0,0,0,0,0,0,0,0,0,0,0,0,0,0,0,0
</chunk>
   <chunk x="64" y="0" width="16" height="16">
0,0,0,0,0,0,0,0,0,0,0,0,0,0,9149,9149,
0,0,0,0,0,0,0,0,0,0,0,0,0,0,9161,9161,
0,0,0,0,0,0,0,0,0,0,0,0,0,0,9173,9173,
0,0,0,0,0,0,0,0,0,0,0,0,0,0,9185,9185,
0,0,0,0,0,0,0,0,0,0,0,0,0,0,9197,9197,
0,0,0,0,0,0,0,0,0,0,0,0,0,0,9209,9209,
0,0,0,0,0,0,0,0,0,0,0,0,0,0,9275,9276,
0,0,0,0,0,0,0,0,0,0,0,0,0,0,9299,9300,
0,0,0,0,0,0,0,0,0,0,0,0,0,0,9323,9324,
0,0,0,0,0,0,0,0,0,0,0,0,0,0,9347,9348,
0,0,0,0,0,0,0,0,0,0,0,0,0,0,9371,9372,
0,0,0,0,0,0,0,0,0,0,0,0,0,0,9395,9396,
0,0,0,0,0,0,0,0,0,0,0,0,0,0,0,0,
0,0,0,0,0,0,0,0,0,0,0,0,0,0,0,0,
0,0,0,0,0,0,0,0,0,0,0,0,0,0,0,0,
0,0,0,0,0,0,0,0,0,0,0,0,0,0,0,0
</chunk>
   <chunk x="80" y="0" width="16" height="16">
9149,9150,9151,9152,9153,9154,9149,9150,9151,9152,9153,9154,0,0,9155,9156,
9161,9162,9163,9164,9165,9166,9161,9162,9163,9164,9165,9166,0,0,9167,9168,
9173,9174,9175,9176,9177,9178,9173,9174,9175,9176,9177,9178,0,0,9179,9180,
9185,9186,9187,9188,9189,9190,9185,9186,9187,9188,9189,9190,0,0,9191,9192,
9197,9198,9199,9200,9201,9202,9197,9198,9199,9200,9201,9202,0,0,9203,9204,
9209,9210,9211,9212,9213,9214,9209,9210,9211,9212,9213,9214,0,0,9215,9216,
9276,9276,9276,9276,9276,9276,9276,9277,9278,9276,9279,9280,0,0,9287,9288,
9300,9300,9300,9300,9300,9300,9300,9301,9302,9300,9303,9304,0,0,9311,9312,
9324,9324,9324,9324,9324,9324,9324,9325,9326,9324,9327,9328,0,0,9335,9336,
9348,9348,9348,9348,9348,9348,9348,9349,9350,9348,9351,9352,0,0,9359,9360,
9372,9372,9372,9372,9372,9372,9372,9373,9374,9372,9375,9376,0,0,9383,9384,
9396,9396,9396,9396,9396,9396,9396,9397,9398,9396,9399,9400,0,0,9407,9408,
0,0,0,0,0,0,0,0,0,0,0,0,0,0,0,0,
0,0,0,0,0,0,0,0,0,0,0,0,0,0,0,0,
0,0,0,0,0,0,0,0,0,0,0,0,0,0,0,0,
0,0,0,0,0,0,0,0,0,0,0,0,0,0,0,0
</chunk>
   <chunk x="96" y="0" width="16" height="16">
9157,9158,9159,9160,9155,9156,9157,9158,9159,9160,9155,0,0,0,0,0,
9169,9170,9171,9172,9167,9168,9169,9170,9171,9172,9167,0,0,0,0,0,
9181,9182,9183,9184,9179,9180,9181,9182,9183,9184,9179,0,0,0,0,0,
9193,9194,9195,9196,9191,9192,9193,9194,9195,9196,9191,0,0,0,0,0,
9205,9206,9207,9208,9203,9204,9205,9206,9207,9208,9203,0,0,0,0,0,
9217,9218,9219,9220,9215,9216,9217,9218,9219,9220,9215,0,0,0,0,0,
9289,9290,9291,9289,9290,9288,9289,9290,9291,9291,9292,0,0,0,0,0,
9313,9314,9315,9313,9314,9312,9313,9314,9315,9315,9316,0,0,0,0,0,
9337,9338,9339,9337,9338,9336,9337,9338,9339,9339,9340,0,0,0,0,0,
9361,9362,9363,9361,9362,9360,9361,9362,9363,9363,9364,0,0,0,0,0,
9385,9386,9387,9385,9386,9384,9385,9386,9387,9387,9388,0,0,0,0,0,
9409,9410,9411,9409,9410,9408,9409,9410,9411,9411,9412,0,0,0,0,0,
0,0,0,0,0,0,0,0,0,0,0,0,0,0,0,0,
0,0,0,0,0,0,0,0,0,0,0,0,0,0,0,0,
0,0,0,0,0,0,0,0,0,0,0,0,0,0,0,0,
0,0,0,0,0,0,0,0,0,0,0,0,0,0,0,0
</chunk>
   <chunk x="-32" y="16" width="16" height="16">
0,0,0,0,0,0,0,0,0,0,0,0,0,0,0,0,
0,0,0,0,0,0,0,0,0,0,0,0,0,0,0,0,
0,0,0,0,0,0,0,0,0,0,0,0,0,0,0,0,
0,0,0,0,0,0,0,0,0,0,0,0,0,0,0,0,
0,0,0,0,0,0,0,0,0,0,0,0,0,0,0,0,
0,0,0,0,0,0,0,0,0,0,0,0,0,0,0,0,
0,0,0,0,0,0,0,0,0,0,0,0,0,0,0,0,
0,0,0,0,0,0,0,0,0,0,0,0,0,0,0,0,
0,0,0,0,0,0,0,0,0,0,0,0,0,0,0,0,
0,0,0,0,0,0,0,0,0,0,0,0,0,0,0,0,
0,0,0,0,0,0,0,0,0,0,0,0,0,0,0,0,
0,0,0,0,0,0,0,0,0,0,0,0,0,0,0,0,
0,0,0,0,0,0,0,0,0,0,0,0,0,0,0,0,
0,0,0,0,0,0,0,0,0,0,0,0,0,0,0,0,
8276,8277,8278,0,0,0,0,0,0,0,0,0,0,0,0,0,
8306,8307,8308,0,0,0,0,0,0,0,0,0,0,0,0,0
</chunk>
   <chunk x="64" y="16" width="16" height="16">
0,0,0,0,0,0,0,0,0,0,0,0,0,0,0,0,
0,0,0,0,0,0,0,0,0,0,0,0,0,0,9155,9156,
0,0,0,0,0,0,0,0,0,0,0,0,0,0,9167,9168,
0,0,0,0,0,0,0,0,0,0,0,0,0,0,9179,9180,
0,0,0,0,0,0,0,0,0,0,0,0,0,0,9191,9192,
0,0,0,0,0,0,0,0,0,0,0,0,0,0,9203,9204,
0,0,0,0,0,0,0,0,0,0,0,0,0,0,9215,9216,
0,0,0,0,0,0,0,0,0,0,0,0,0,0,9287,9288,
0,0,0,0,0,0,0,0,0,0,0,0,0,0,9311,9312,
0,0,0,0,0,0,0,0,0,0,0,0,0,0,9335,9336,
0,0,0,0,0,0,0,0,0,0,0,0,0,0,9359,9360,
0,0,0,0,0,0,0,0,0,0,0,0,0,0,9383,9384,
0,0,0,0,0,0,0,0,0,0,0,0,0,0,9407,9408,
0,0,0,0,0,0,0,0,0,0,0,0,0,0,0,0,
0,0,0,0,0,0,0,0,0,0,0,0,0,0,0,0,
0,0,0,0,0,0,0,0,0,0,0,0,0,0,0,0
</chunk>
   <chunk x="80" y="16" width="16" height="16">
0,0,0,0,0,0,0,0,0,0,0,0,0,0,0,0,
9157,9158,9159,9160,9155,9155,9156,9157,9158,9159,9155,9156,9157,9155,9156,9157,
9169,9170,9171,9172,9167,9167,9168,9169,9170,9171,9167,9168,9169,9167,9168,9169,
9181,9182,9183,9184,9179,9179,9180,9181,9182,9183,9179,9180,9181,9179,9180,9181,
9193,9194,9195,9196,9191,9191,9192,9193,9194,9195,9191,9192,9193,9191,9192,9193,
9205,9206,9207,9208,9203,9203,9204,9205,9206,9207,9287,9288,9289,9290,9291,9292,
9217,9218,9219,9220,9215,9215,9216,9217,9218,9219,9311,9312,9313,9314,9315,9316,
9289,9290,9291,9292,9287,9288,9289,9290,9291,9292,9335,9336,9337,9338,9339,9340,
9313,9314,9315,9316,9311,9312,9313,9314,9315,9316,9359,9360,9361,9362,9363,9364,
9337,9338,9339,9340,9335,9336,9337,9338,9339,9340,9383,9384,9385,9386,9387,9388,
9361,9362,9363,9364,9359,9360,9361,9362,9363,9364,9407,9408,9409,9410,9411,9412,
9385,9386,9387,9388,9383,9384,9385,9386,9387,9388,8543,8544,8545,8546,8547,8548,
9409,9410,9411,9412,9407,9408,9409,9410,9411,9412,8573,8574,8575,8576,8577,8578,
0,0,0,0,0,0,0,0,0,0,0,0,0,0,0,0,
0,0,0,0,0,0,0,0,0,0,0,0,0,0,0,0,
0,0,0,0,0,0,0,0,0,0,0,0,0,0,0,0
</chunk>
   <chunk x="96" y="16" width="16" height="16">
0,0,0,0,0,0,0,0,0,0,0,0,0,0,0,0,
9157,9157,9158,9159,9160,9155,9156,9157,9158,9159,9160,0,0,0,0,0,
9169,9169,9170,9171,9172,9167,9168,9169,9170,9171,9172,0,0,0,0,0,
9181,9181,9182,9183,9184,9179,9180,9181,9182,9183,9184,0,0,0,0,0,
9193,9193,9194,9195,9196,9191,9192,9193,9194,9195,9196,0,0,0,0,0,
9205,9205,9206,9207,9208,9203,9204,9205,9206,9207,9208,0,0,0,0,0,
9217,9217,9218,9219,9220,9215,9216,9217,9218,9219,9220,0,0,0,0,0,
9287,9288,9289,9290,9291,9292,9288,9289,9290,9291,9292,0,0,0,0,0,
9311,9312,9313,9314,9315,9316,9312,9313,9314,9315,9316,0,0,0,0,0,
9335,9336,9337,9338,9339,9340,9336,9337,9338,9339,9340,0,0,0,0,0,
9359,9360,9361,9362,9363,9364,9360,9361,9362,9363,9364,0,0,0,0,0,
9383,9384,9385,9386,9387,9388,9384,9385,9386,9387,9388,0,0,0,0,0,
9407,9408,9409,9410,9411,9412,9408,9409,9410,9411,9412,0,0,0,0,0,
0,0,0,0,0,0,0,0,0,0,0,0,0,0,0,0,
0,0,0,0,0,0,0,0,0,0,0,0,0,0,0,0,
0,0,0,0,0,0,0,0,0,0,0,0,0,0,0,0
</chunk>
   <chunk x="-32" y="32" width="16" height="16">
8336,8337,8338,0,0,0,0,0,0,0,0,0,0,0,0,0,
8366,8367,8368,0,0,0,0,0,0,0,0,0,0,0,0,0,
8396,8397,8398,0,0,0,0,0,0,0,0,0,0,0,0,0,
0,0,0,0,0,0,0,0,0,0,0,0,0,0,0,0,
0,0,0,0,0,0,0,0,0,0,0,0,0,0,0,0,
0,0,0,0,0,0,0,0,0,0,0,0,0,0,0,0,
0,0,0,0,0,0,0,0,0,0,0,0,0,0,0,0,
0,0,0,0,0,0,0,0,0,0,0,0,0,0,0,0,
0,0,0,0,0,0,0,0,0,0,0,0,0,0,0,0,
0,0,0,0,0,0,0,0,0,0,0,0,0,0,0,0,
0,0,0,0,0,0,0,0,0,0,0,0,0,0,0,0,
0,0,0,0,0,0,0,0,0,0,0,0,0,0,0,0,
0,0,0,0,0,0,0,0,0,0,0,0,0,0,0,0,
0,0,0,0,0,0,0,0,0,0,0,0,0,0,0,0,
0,0,0,0,0,0,0,0,0,0,0,0,0,0,0,0,
0,0,0,0,0,0,0,0,0,0,0,0,0,0,0,0
</chunk>
  </data>
 </layer>
 <layer id="7" name="buildings_2" width="112" height="80">
  <data encoding="csv">
   <chunk x="64" y="-48" width="16" height="16">
0,0,0,0,0,0,0,0,0,0,0,0,0,0,0,0,
0,0,0,0,0,0,0,0,0,0,0,0,0,0,0,0,
0,0,0,0,0,0,0,0,0,0,0,0,0,0,0,0,
0,0,0,0,0,0,0,0,0,0,0,0,0,0,0,0,
0,0,0,0,0,0,0,0,0,0,0,0,0,0,0,0,
0,0,0,0,0,0,0,0,0,0,0,0,0,0,0,0,
0,0,0,0,0,0,0,0,0,0,0,0,0,0,0,0,
0,0,0,0,0,0,0,0,0,0,0,0,0,0,0,0,
0,0,0,0,0,0,0,0,0,0,0,0,0,0,0,0,
0,0,0,0,0,0,0,0,0,0,0,0,0,0,0,0,
0,0,0,0,0,0,0,0,0,0,0,0,0,0,0,0,
0,0,0,0,0,0,0,0,0,0,0,0,0,0,0,0,
0,0,0,0,0,0,0,0,0,0,0,0,0,0,0,0,
0,0,0,0,0,0,0,0,0,0,0,0,0,0,0,0,
0,0,0,0,0,0,0,0,0,0,0,6045,6046,0,0,0,
0,0,0,0,0,0,0,0,0,0,0,6077,6078,0,0,0
</chunk>
   <chunk x="0" y="-32" width="16" height="16">
0,0,0,0,0,0,0,0,0,0,0,0,0,0,0,0,
0,0,0,0,0,0,0,0,0,0,0,0,0,0,0,0,
0,0,0,0,0,0,0,0,0,0,0,0,0,0,0,0,
0,0,0,0,0,0,0,0,0,0,0,0,0,0,0,0,
0,0,0,0,0,0,0,0,0,0,0,0,0,0,0,0,
0,0,0,0,0,0,0,0,0,0,0,0,0,0,0,0,
0,0,0,0,0,0,0,0,0,0,0,0,0,0,0,0,
0,0,0,0,0,0,0,0,0,0,0,0,0,0,0,0,
0,0,0,0,0,0,0,0,0,0,0,0,0,0,0,0,
0,0,0,0,0,0,0,0,0,0,0,0,0,0,0,0,
0,8276,8277,8278,0,0,0,0,0,0,0,0,8276,8277,8278,0,
0,8306,8307,8308,0,0,0,0,0,0,0,0,8306,8307,8308,0,
0,8336,8337,8338,0,0,0,0,0,0,0,0,8336,8337,8338,0,
0,8366,8367,8368,0,0,0,0,0,0,0,0,8366,8367,8368,0,
0,8396,8397,8398,0,0,0,0,0,0,0,0,8396,8397,8398,0,
0,8426,8427,8428,0,0,0,0,0,0,0,0,8426,8427,8428,0
</chunk>
   <chunk x="80" y="-32" width="16" height="16">
0,0,0,0,0,0,0,0,0,0,0,0,0,0,0,0,
0,0,0,0,0,0,0,0,0,0,0,0,0,0,0,0,
0,0,0,0,0,0,0,0,0,0,0,0,0,0,0,0,
0,0,0,0,0,0,0,0,0,0,0,0,0,0,0,0,
0,0,0,0,0,0,0,0,0,0,0,0,0,0,0,0,
0,0,0,0,0,0,0,0,0,0,0,0,0,0,0,0,
0,0,0,0,0,0,0,0,0,0,0,0,0,0,0,0,
0,0,0,0,0,0,0,0,0,0,0,0,0,0,0,0,
0,0,0,0,0,0,0,0,0,0,0,9727,9728,0,0,0,
0,0,0,0,0,0,0,0,0,0,0,9751,9752,0,0,0,
0,0,0,0,0,0,0,0,0,0,0,0,0,0,0,0,
0,0,0,0,0,0,0,0,0,0,0,0,0,0,0,0,
0,0,0,0,0,0,0,0,0,0,0,0,0,0,0,0,
0,0,0,0,0,0,0,0,0,0,0,0,0,0,0,0,
0,0,0,0,0,0,0,0,0,0,0,0,0,0,0,0,
0,0,0,0,0,0,0,0,0,0,0,0,0,0,0,0
</chunk>
   <chunk x="96" y="-32" width="16" height="16">
0,0,0,0,0,0,0,0,0,0,0,0,0,0,0,0,
0,0,0,0,0,0,0,0,0,0,0,0,0,0,0,0,
0,0,0,0,0,0,0,0,0,0,0,0,0,0,0,0,
0,0,0,0,0,0,0,0,0,0,0,0,0,0,0,0,
0,0,0,0,0,0,0,0,0,0,0,0,0,0,0,0,
0,0,0,0,0,0,0,0,0,0,0,0,0,0,0,0,
0,0,0,0,0,0,0,0,0,0,0,0,0,0,0,0,
0,0,0,0,0,0,0,0,0,0,0,0,0,0,0,0,
0,9679,9680,0,0,0,0,0,0,0,0,0,0,0,0,0,
0,9703,9704,0,0,0,0,0,0,0,0,0,0,0,0,0,
0,0,0,0,0,0,0,0,0,0,0,0,0,0,0,0,
0,0,0,0,0,0,0,0,0,0,0,0,0,0,0,0,
0,0,0,0,0,0,0,0,0,0,0,0,0,0,0,0,
0,0,0,0,0,0,0,0,0,0,0,0,0,0,0,0,
0,0,0,0,0,0,0,0,0,0,0,0,0,0,0,0,
0,0,0,0,0,0,0,0,0,0,0,0,0,0,0,0
</chunk>
   <chunk x="80" y="-16" width="16" height="16">
0,0,0,0,0,0,0,0,0,0,0,0,0,0,0,0,
0,0,0,0,0,0,0,0,0,0,0,0,0,0,0,0,
0,0,0,0,0,0,0,0,0,0,0,0,0,0,0,0,
0,0,0,0,0,0,0,0,0,0,0,0,0,0,0,0,
0,0,0,0,0,0,0,0,0,0,0,0,0,0,0,0,
0,0,0,0,0,0,0,0,0,0,0,0,0,0,0,0,
0,0,0,0,0,0,0,0,0,0,0,0,0,0,0,0,
0,0,0,0,0,0,0,0,0,0,0,0,0,0,0,0,
0,0,0,0,0,0,0,0,0,0,0,0,0,0,0,0,
0,0,0,0,0,0,0,0,0,0,0,0,0,0,0,0,
0,0,0,0,0,0,0,0,0,0,0,0,0,0,0,0,
0,0,0,0,0,0,0,0,0,0,0,0,0,0,0,0,
0,0,0,0,0,0,0,0,0,0,0,0,0,0,0,0,
0,0,0,0,0,0,0,0,0,0,0,0,0,0,0,0,
0,0,0,0,0,0,0,0,0,0,0,0,0,0,0,0,
0,0,0,0,0,0,0,0,8294,8295,8296,0,0,0,0,0
</chunk>
   <chunk x="96" y="-16" width="16" height="16">
0,0,0,0,0,0,0,0,0,0,0,0,0,0,0,0,
0,0,0,0,0,0,0,0,0,0,0,0,0,0,0,0,
0,0,0,0,0,0,0,0,0,0,0,0,0,0,0,0,
0,0,0,0,0,0,0,0,0,0,0,0,0,0,0,0,
0,0,0,0,0,0,0,0,0,0,0,0,0,0,0,0,
0,0,0,0,0,0,0,0,0,0,0,0,0,0,0,0,
0,0,0,0,0,0,0,0,0,0,0,0,0,0,0,0,
0,0,0,0,0,0,0,0,0,0,0,0,0,0,0,0,
0,0,0,0,0,0,0,0,0,0,0,0,0,0,0,0,
0,0,0,0,0,0,0,0,0,0,0,0,0,0,0,0,
0,0,0,0,0,0,0,0,0,0,0,0,0,0,0,0,
0,0,0,0,0,0,0,0,0,0,0,0,0,0,0,0,
0,0,0,0,0,0,0,0,0,0,0,0,0,0,0,0,
0,0,0,0,0,0,0,0,0,0,0,0,0,0,0,0,
0,0,0,0,0,0,0,0,0,0,0,0,0,0,0,0,
8654,8655,8656,0,0,0,0,0,0,0,0,0,0,0,0,0
</chunk>
   <chunk x="64" y="0" width="16" height="16">
0,0,0,0,0,0,0,0,0,0,0,0,0,0,0,0,
0,0,0,0,0,0,0,0,0,0,0,0,0,0,0,0,
0,0,0,0,0,0,0,0,0,0,6103,6104,6105,6106,0,0,
0,0,0,0,0,0,0,0,0,0,6135,6136,6137,6138,0,0,
0,0,0,0,0,0,0,0,0,0,6167,6168,6169,6170,0,0,
0,0,0,0,0,0,0,0,0,0,6199,6200,6201,6202,0,0,
0,0,0,0,0,0,0,0,0,0,0,0,0,0,0,0,
0,0,0,0,0,0,0,0,0,0,0,0,0,0,0,0,
0,0,0,0,0,0,0,0,0,0,0,0,0,0,0,0,
0,0,0,0,0,0,0,0,0,0,0,0,0,0,0,0,
0,0,0,0,0,0,0,0,0,0,0,0,0,0,0,0,
0,0,0,0,0,0,0,0,0,0,0,0,0,0,0,0,
0,0,0,0,0,0,0,0,0,0,0,0,0,0,0,0,
0,0,0,0,0,0,0,0,0,0,0,0,0,0,0,0,
0,0,0,0,0,0,0,0,0,0,0,0,0,0,0,0,
0,0,0,0,0,0,0,0,0,0,0,0,0,0,0,0
</chunk>
   <chunk x="80" y="0" width="16" height="16">
0,0,0,0,0,0,0,0,8324,8325,8326,0,0,0,0,0,
0,0,0,0,0,0,0,0,8354,8355,8356,0,0,0,0,0,
0,0,0,0,0,0,0,0,8384,8385,8386,0,0,0,0,0,
0,0,0,0,0,0,0,0,8414,8415,8416,0,0,0,0,0,
0,0,0,0,0,0,0,0,0,0,0,0,0,0,0,0,
0,0,0,0,0,0,0,0,0,0,0,0,0,0,0,0,
0,8810,8811,8812,0,8807,8808,8809,8807,8808,8809,0,0,0,0,8663,
0,8840,8841,8842,0,8837,8838,8839,8837,8838,8839,0,0,0,0,8693,
0,8870,8871,8872,0,8867,8868,8869,8867,8868,8869,0,0,0,0,8723,
0,8900,8901,8902,0,8897,8898,8899,8897,8898,8899,0,0,0,0,8753,
0,8930,8931,8932,0,8927,8928,8929,8927,8928,8929,0,0,0,0,0,
0,8960,8961,8962,0,0,0,0,0,0,0,0,0,0,0,0,
0,0,0,0,0,0,0,0,0,0,0,0,0,0,0,0,
0,0,0,0,0,0,0,0,0,0,0,0,0,0,0,0,
0,0,0,0,0,0,0,0,0,0,0,0,0,0,0,0,
0,0,0,0,0,0,0,0,0,0,0,0,0,0,0,0
</chunk>
   <chunk x="96" y="0" width="16" height="16">
8684,8685,8686,0,0,0,0,0,0,0,0,0,0,0,0,0,
8714,8715,8716,0,0,0,0,0,0,0,0,0,0,0,0,0,
8744,8745,8746,0,0,0,0,0,0,0,0,0,0,0,0,0,
8774,8775,8776,0,0,0,0,0,0,0,0,6121,6122,0,0,0,
0,0,0,0,0,0,0,0,0,0,0,6153,6154,0,0,0,
0,0,0,0,0,0,0,0,0,0,0,0,0,0,0,0,
8664,8665,0,8663,8664,8665,0,8813,8814,8815,0,0,0,0,0,0,
8694,8695,0,8693,8694,8695,0,8843,8844,8845,0,0,0,0,0,0,
8724,8725,0,8723,8724,8725,0,8873,8874,8875,0,0,0,0,0,0,
8754,8755,0,8753,8754,8755,0,8903,8904,8905,0,0,0,0,0,0,
0,0,0,0,0,0,0,8933,8934,8935,0,0,0,0,0,0,
0,0,0,0,0,0,0,8963,8964,8965,0,0,0,0,0,0,
0,0,0,0,0,0,0,0,0,0,0,0,0,0,0,0,
0,0,0,0,0,0,0,0,0,0,0,0,0,0,0,0,
0,0,0,0,0,0,0,0,0,0,0,0,0,0,0,0,
0,0,0,0,0,0,0,0,0,0,0,0,0,0,0,0
</chunk>
   <chunk x="48" y="16" width="16" height="16">
0,0,0,0,0,0,0,0,0,0,0,0,0,0,0,0,
0,0,0,0,0,0,0,0,0,0,0,0,0,0,0,0,
0,0,0,0,0,0,0,0,0,0,0,0,0,3712,0,0,
0,3704,3705,3706,0,0,0,0,0,0,0,3710,3711,3712,0,0,
0,3737,3738,3739,0,0,0,0,0,0,0,3743,3744,3745,0,0,
0,3770,3771,3772,0,0,0,0,0,0,0,3776,3777,3778,0,0,
0,3803,3804,3805,0,0,0,0,0,0,0,3809,3810,3811,0,0,
0,3836,3837,3838,0,0,0,0,0,0,0,3842,3843,3844,0,0,
0,0,0,0,0,0,0,0,0,0,0,0,0,0,0,0,
0,0,0,0,0,0,0,0,0,0,0,0,0,0,0,0,
0,0,0,0,0,0,0,0,0,0,0,0,0,0,0,0,
0,0,0,0,0,0,0,0,0,0,0,0,0,0,0,0,
0,0,0,0,0,0,0,0,0,0,0,0,0,0,0,0,
0,0,0,0,0,0,0,0,0,0,0,0,0,0,0,0,
0,0,0,0,0,0,0,0,0,0,0,0,0,0,0,0,
0,0,0,0,0,0,0,0,0,0,0,0,0,0,0,0
</chunk>
   <chunk x="80" y="16" width="16" height="16">
0,0,0,0,0,8654,8655,8656,0,0,0,0,0,0,0,0,
0,0,0,0,0,8684,8685,8686,0,0,0,0,0,0,0,0,
0,0,0,0,0,8714,8715,8716,0,0,0,0,0,0,0,0,
0,0,0,0,0,8744,8745,8746,0,0,0,0,0,0,0,0,
0,0,0,0,0,8774,8775,8776,0,0,0,0,0,0,0,0,
0,0,0,0,0,8804,8805,8806,0,0,0,0,8627,8628,8629,0,
0,0,0,0,0,0,0,0,0,0,0,0,8657,8658,8659,0,
8813,8814,8815,0,0,8627,8628,8629,0,0,0,0,8687,8688,8689,0,
8843,8844,8845,0,0,8657,8658,8659,0,0,0,0,8717,8718,8719,0,
8873,8874,8875,0,0,8687,8688,8689,0,0,0,0,8747,8748,8749,0,
8903,8904,8905,0,0,8717,8718,8719,0,0,8513,8514,8515,8516,8517,8518,
8933,8934,8935,0,0,8747,8748,8749,0,0,8543,8544,8545,8546,8547,8548,
8963,8964,8965,0,0,0,0,0,0,0,8573,8574,8575,8576,8577,8578,
0,0,0,0,0,0,0,0,0,0,0,0,0,0,0,0,
0,0,0,0,0,0,0,0,0,0,0,0,0,0,0,0,
0,0,0,0,0,0,0,0,0,0,0,0,0,0,0,0
</chunk>
   <chunk x="96" y="16" width="16" height="16">
0,0,0,0,0,0,0,0,0,0,0,0,0,0,0,0,
0,0,0,0,0,0,0,0,0,0,0,0,0,0,0,0,
0,0,0,0,0,8204,8205,8206,0,0,0,0,0,0,0,0,
0,0,0,0,0,8234,8235,8236,0,0,0,0,0,0,0,0,
0,0,0,0,0,8264,8265,8266,0,0,0,0,0,0,0,0,
0,0,0,0,0,0,0,0,0,0,0,0,0,0,0,0,
0,0,0,0,0,0,0,0,0,0,0,0,0,0,0,0,
0,0,8627,8628,8629,0,0,8627,8628,8629,0,0,0,0,0,0,
0,0,8657,8658,8659,0,0,8657,8658,8659,0,0,0,0,0,0,
0,0,8687,8688,8689,0,0,8687,8688,8689,0,0,0,0,0,0,
0,0,8717,8718,8719,0,0,8717,8718,8719,0,0,0,0,0,0,
0,0,8747,8748,8749,0,0,8747,8748,8749,0,0,0,0,0,0,
0,0,0,0,0,0,0,0,0,0,0,0,0,0,0,0,
0,0,0,0,0,0,0,0,0,0,0,0,0,0,0,0,
0,0,0,0,0,0,0,0,0,0,0,0,0,0,0,0,
0,0,0,0,0,0,0,0,0,0,0,0,0,0,0,0
</chunk>
  </data>
 </layer>
 <layer id="8" name="buildings_3" width="64" height="48">
  <data encoding="csv">
   <chunk x="80" y="0" width="16" height="16">
0,0,0,0,0,0,0,0,0,0,0,0,0,0,0,0,
0,0,0,0,0,0,0,0,0,0,0,0,6487,6488,0,0,
0,0,0,0,0,0,0,0,0,0,0,0,6519,6520,0,0,
0,0,0,0,0,0,0,0,0,0,0,0,6551,6552,0,0,
0,0,0,0,0,0,0,0,0,0,0,0,6583,6584,0,0,
0,0,0,0,0,0,0,0,0,0,0,0,0,0,0,0,
0,0,0,0,0,0,0,0,0,0,0,0,0,0,0,0,
0,0,0,0,0,0,0,0,0,0,0,0,0,0,0,0,
0,0,0,0,0,0,0,0,0,0,0,0,0,0,0,0,
0,0,0,0,0,0,0,0,0,0,0,0,0,0,0,0,
0,0,0,0,0,0,0,0,0,0,0,0,0,0,8180,8181,
0,0,0,0,0,0,0,0,0,0,0,0,0,0,8210,8211,
0,0,0,0,0,0,0,0,0,0,0,0,0,0,8240,8241,
0,0,0,0,0,0,0,0,0,0,0,0,0,0,0,0,
0,0,0,0,0,0,0,0,0,0,0,0,0,0,0,0,
0,0,0,0,0,0,0,0,0,0,0,0,0,0,0,0
</chunk>
   <chunk x="96" y="0" width="16" height="16">
0,0,0,0,0,0,0,0,0,0,0,0,0,0,0,0,
0,0,0,0,0,0,0,0,0,0,0,0,0,0,0,0,
0,0,0,0,0,0,0,0,0,0,0,0,0,0,0,0,
0,0,0,0,0,0,0,0,0,0,0,0,0,0,0,0,
0,0,0,0,0,0,0,0,0,0,0,0,0,0,0,0,
0,0,0,0,0,0,0,0,0,0,0,0,0,0,0,0,
0,0,0,0,0,0,0,0,0,0,0,0,0,0,0,0,
0,0,0,0,0,0,0,0,0,0,0,0,0,0,0,0,
0,0,0,0,0,0,0,0,0,0,0,0,0,0,0,0,
0,0,0,0,0,0,0,0,0,0,0,0,0,0,0,0,
8182,8183,8184,8185,8186,8187,0,0,0,0,0,0,0,0,0,0,
8212,8213,8214,8215,8216,8217,0,0,0,0,0,0,0,0,0,0,
8242,8243,8244,8245,8246,8247,0,0,0,0,0,0,0,0,0,0,
0,0,0,0,0,0,0,0,0,0,0,0,0,0,0,0,
0,0,0,0,0,0,0,0,0,0,0,0,0,0,0,0,
0,0,0,0,0,0,0,0,0,0,0,0,0,0,0,0
</chunk>
  </data>
 </layer>
 <layer id="15" name="terrain_down" width="160" height="16">
  <data encoding="csv">
   <chunk x="-48" y="32" width="16" height="16">
0,0,0,0,0,0,0,0,0,0,0,0,0,0,0,0,
0,0,0,0,0,0,0,0,0,0,0,0,0,0,0,0,
0,0,0,0,0,0,0,0,0,0,0,0,0,0,0,11726,
0,0,0,0,0,0,0,0,0,0,0,0,0,0,0,11758,
0,0,0,0,0,0,0,0,0,0,0,0,0,0,0,11790,
0,0,0,0,0,0,0,0,0,0,0,0,0,0,0,0,
0,0,0,0,0,0,0,0,0,0,0,0,0,0,0,0,
0,0,0,0,0,0,0,0,0,0,0,0,0,0,0,0,
0,0,0,0,0,0,0,0,0,0,0,0,0,0,0,0,
0,0,0,0,0,0,0,0,0,0,0,0,0,0,0,0,
0,0,0,0,0,0,0,0,0,0,0,0,0,0,0,0,
0,0,0,0,0,0,0,0,0,0,0,0,0,0,0,0,
0,0,0,0,0,0,0,0,0,0,0,0,0,0,0,0,
0,0,0,0,0,0,0,0,0,0,0,0,0,0,0,0,
0,0,0,0,0,0,0,0,0,0,0,0,0,0,0,0,
0,0,0,0,0,0,0,0,0,0,0,0,0,0,0,0
</chunk>
   <chunk x="-32" y="32" width="16" height="16">
0,0,0,0,0,0,0,0,0,0,0,0,0,0,0,0,
0,0,0,0,0,0,0,0,0,0,0,0,0,0,0,0,
11727,11728,11726,11726,11726,11726,11726,11726,11726,11726,11726,11726,11726,11726,11726,11726,
11759,11760,11758,11758,11758,11758,11758,11758,11758,11758,11758,11758,11758,11758,11758,11758,
11791,11792,11790,11790,11790,11790,11790,11790,11790,11790,11790,11790,11790,11790,11790,11790,
0,0,0,0,0,0,0,0,0,0,0,0,0,0,0,0,
0,0,0,0,0,0,0,0,0,0,0,0,0,0,0,0,
0,0,0,0,0,0,0,0,0,0,0,0,0,0,0,0,
0,0,0,0,0,0,0,0,0,0,0,0,0,0,0,0,
0,0,0,0,0,0,0,0,0,0,0,0,0,0,0,0,
0,0,0,0,0,0,0,0,0,0,0,0,0,0,0,0,
0,0,0,0,0,0,0,0,0,0,0,0,0,0,0,0,
0,0,0,0,0,0,0,0,0,0,0,0,0,0,0,0,
0,0,0,0,0,0,0,0,0,0,0,0,0,0,0,0,
0,0,0,0,0,0,0,0,0,0,0,0,0,0,0,0,
0,0,0,0,0,0,0,0,0,0,0,0,0,0,0,0
</chunk>
   <chunk x="-16" y="32" width="16" height="16">
0,0,0,0,0,0,0,0,0,0,0,0,0,0,0,0,
0,0,0,0,0,0,0,0,0,0,0,0,0,0,0,0,
11726,11726,11726,11726,11726,11726,11726,11726,11726,11726,11726,11726,11726,11726,11726,11726,
11758,11758,11758,11758,11758,11758,11758,11758,11758,11758,11758,11758,11758,11758,11758,11758,
11790,11790,11790,11790,11790,11790,11790,11790,11790,11790,11790,11790,11790,11790,11790,11790,
0,0,0,0,0,0,0,0,0,0,0,0,0,0,0,0,
0,0,0,0,0,0,0,0,0,0,0,0,0,0,0,0,
0,0,0,0,0,0,0,0,0,0,0,0,0,0,0,0,
0,0,0,0,0,0,0,0,0,0,0,0,0,0,0,0,
0,0,0,0,0,0,0,0,0,0,0,0,0,0,0,0,
0,0,0,0,0,0,0,0,0,0,0,0,0,0,0,0,
0,0,0,0,0,0,0,0,0,0,0,0,0,0,0,0,
0,0,0,0,0,0,0,0,0,0,0,0,0,0,0,0,
0,0,0,0,0,0,0,0,0,0,0,0,0,0,0,0,
0,0,0,0,0,0,0,0,0,0,0,0,0,0,0,0,
0,0,0,0,0,0,0,0,0,0,0,0,0,0,0,0
</chunk>
   <chunk x="0" y="32" width="16" height="16">
0,0,0,0,0,0,0,0,0,0,0,0,0,0,0,0,
0,0,0,0,0,0,0,0,0,0,0,0,0,0,0,0,
11726,11726,11726,11726,11726,11726,11726,11726,11726,11726,11726,11726,11726,11726,11726,11726,
11758,11758,11758,11758,11758,11758,11758,11758,11758,11758,11758,11758,11758,11758,11758,11758,
11790,11790,11790,11790,11790,11790,11790,11790,11790,11790,11790,11790,11790,11790,11790,11790,
0,0,0,0,0,0,0,0,0,0,0,0,0,0,0,0,
0,0,0,0,0,0,0,0,0,0,0,0,0,0,0,0,
0,0,0,0,0,0,0,0,0,0,0,0,0,0,0,0,
0,0,0,0,0,0,0,0,0,0,0,0,0,0,0,0,
0,0,0,0,0,0,0,0,0,0,0,0,0,0,0,0,
0,0,0,0,0,0,0,0,0,0,0,0,0,0,0,0,
0,0,0,0,0,0,0,0,0,0,0,0,0,0,0,0,
0,0,0,0,0,0,0,0,0,0,0,0,0,0,0,0,
0,0,0,0,0,0,0,0,0,0,0,0,0,0,0,0,
0,0,0,0,0,0,0,0,0,0,0,0,0,0,0,0,
0,0,0,0,0,0,0,0,0,0,0,0,0,0,0,0
</chunk>
   <chunk x="16" y="32" width="16" height="16">
0,0,0,0,0,0,0,0,0,0,0,0,0,0,0,0,
0,0,0,0,0,0,0,0,0,0,0,0,0,0,0,0,
11726,11727,11728,11726,11726,11726,11726,11726,11726,11726,11726,11727,11728,11726,11726,11726,
11758,11759,11760,11758,11758,11758,11758,11758,11758,11758,11758,11759,11760,11758,11758,11758,
11790,11791,11792,11790,11790,11790,11790,11790,11790,11790,11790,11791,11792,11790,11790,11790,
0,0,0,0,0,0,0,0,0,0,0,0,0,0,0,0,
0,0,0,0,0,0,0,0,0,0,0,0,0,0,0,0,
0,0,0,0,0,0,0,0,0,0,0,0,0,0,0,0,
0,0,0,0,0,0,0,0,0,0,0,0,0,0,0,0,
0,0,0,0,0,0,0,0,0,0,0,0,0,0,0,0,
0,0,0,0,0,0,0,0,0,0,0,0,0,0,0,0,
0,0,0,0,0,0,0,0,0,0,0,0,0,0,0,0,
0,0,0,0,0,0,0,0,0,0,0,0,0,0,0,0,
0,0,0,0,0,0,0,0,0,0,0,0,0,0,0,0,
0,0,0,0,0,0,0,0,0,0,0,0,0,0,0,0,
0,0,0,0,0,0,0,0,0,0,0,0,0,0,0,0
</chunk>
   <chunk x="32" y="32" width="16" height="16">
0,0,0,0,0,0,0,0,0,0,0,0,0,0,0,0,
0,0,0,0,0,0,0,0,0,0,0,0,0,0,0,0,
11726,11726,11726,11726,11726,11726,11726,11726,11726,11726,11726,11726,11726,11726,11726,11726,
11758,11758,11758,11758,11758,11758,11758,11758,11758,11758,11758,11758,11758,11758,11758,11758,
11790,11790,11790,11790,11790,11790,11790,11790,11790,11790,11790,11790,11790,11790,11790,11790,
0,0,0,0,0,0,0,0,0,0,0,0,0,0,0,0,
0,0,0,0,0,0,0,0,0,0,0,0,0,0,0,0,
0,0,0,0,0,0,0,0,0,0,0,0,0,0,0,0,
0,0,0,0,0,0,0,0,0,0,0,0,0,0,0,0,
0,0,0,0,0,0,0,0,0,0,0,0,0,0,0,0,
0,0,0,0,0,0,0,0,0,0,0,0,0,0,0,0,
0,0,0,0,0,0,0,0,0,0,0,0,0,0,0,0,
0,0,0,0,0,0,0,0,0,0,0,0,0,0,0,0,
0,0,0,0,0,0,0,0,0,0,0,0,0,0,0,0,
0,0,0,0,0,0,0,0,0,0,0,0,0,0,0,0,
0,0,0,0,0,0,0,0,0,0,0,0,0,0,0,0
</chunk>
   <chunk x="48" y="32" width="16" height="16">
0,0,0,0,0,0,0,0,0,0,0,0,0,0,0,0,
0,0,0,0,0,0,0,0,0,0,0,0,0,0,0,0,
11726,11726,11726,11726,11727,11726,11726,11726,11726,11726,11726,11726,11726,11726,11726,11726,
11758,11758,11758,11758,11759,11758,11758,11758,11758,11758,11758,11758,11758,11758,11758,11758,
11790,11790,11790,11790,11791,11790,11790,11790,11790,11790,11790,11790,11790,11790,11790,11790,
0,0,0,0,0,0,0,0,0,0,0,0,0,0,0,0,
0,0,0,0,0,0,0,0,0,0,0,0,0,0,0,0,
0,0,0,0,0,0,0,0,0,0,0,0,0,0,0,0,
0,0,0,0,0,0,0,0,0,0,0,0,0,0,0,0,
0,0,0,0,0,0,0,0,0,0,0,0,0,0,0,0,
0,0,0,0,0,0,0,0,0,0,0,0,0,0,0,0,
0,0,0,0,0,0,0,0,0,0,0,0,0,0,0,0,
0,0,0,0,0,0,0,0,0,0,0,0,0,0,0,0,
0,0,0,0,0,0,0,0,0,0,0,0,0,0,0,0,
0,0,0,0,0,0,0,0,0,0,0,0,0,0,0,0,
0,0,0,0,0,0,0,0,0,0,0,0,0,0,0,0
</chunk>
   <chunk x="64" y="32" width="16" height="16">
0,0,0,0,0,0,0,0,0,0,0,0,0,0,0,0,
0,0,0,0,0,0,0,0,0,0,0,0,0,0,0,0,
11726,11726,11726,11726,11726,11726,11726,11726,11726,11726,11726,11726,11726,11726,11726,11726,
11758,11758,11758,11758,11758,11758,11758,11758,11758,11758,11758,11758,11758,11758,11758,11758,
11790,11790,11790,11790,11790,11790,11790,11790,11790,11790,11790,11790,11790,11790,11790,11790,
0,0,0,0,0,0,0,0,0,0,0,0,0,0,0,0,
0,0,0,0,0,0,0,0,0,0,0,0,0,0,0,0,
0,0,0,0,0,0,0,0,0,0,0,0,0,0,0,0,
0,0,0,0,0,0,0,0,0,0,0,0,0,0,0,0,
0,0,0,0,0,0,0,0,0,0,0,0,0,0,0,0,
0,0,0,0,0,0,0,0,0,0,0,0,0,0,0,0,
0,0,0,0,0,0,0,0,0,0,0,0,0,0,0,0,
0,0,0,0,0,0,0,0,0,0,0,0,0,0,0,0,
0,0,0,0,0,0,0,0,0,0,0,0,0,0,0,0,
0,0,0,0,0,0,0,0,0,0,0,0,0,0,0,0,
0,0,0,0,0,0,0,0,0,0,0,0,0,0,0,0
</chunk>
   <chunk x="80" y="32" width="16" height="16">
0,0,0,0,0,0,0,0,0,0,0,0,0,0,0,0,
0,0,0,0,0,0,0,0,0,0,0,0,0,0,0,0,
11726,11726,11726,11726,11726,11726,11726,11726,11726,11726,11726,11726,11726,11726,11726,11726,
11758,11758,11758,11758,11758,11758,11758,11758,11758,11758,11758,11758,11758,11758,11758,11758,
11790,11790,11790,11790,11790,11790,11790,11790,11790,11790,11790,11790,11790,11790,11790,11790,
0,0,0,0,0,0,0,0,0,0,0,0,0,0,0,0,
0,0,0,0,0,0,0,0,0,0,0,0,0,0,0,0,
0,0,0,0,0,0,0,0,0,0,0,0,0,0,0,0,
0,0,0,0,0,0,0,0,0,0,0,0,0,0,0,0,
0,0,0,0,0,0,0,0,0,0,0,0,0,0,0,0,
0,0,0,0,0,0,0,0,0,0,0,0,0,0,0,0,
0,0,0,0,0,0,0,0,0,0,0,0,0,0,0,0,
0,0,0,0,0,0,0,0,0,0,0,0,0,0,0,0,
0,0,0,0,0,0,0,0,0,0,0,0,0,0,0,0,
0,0,0,0,0,0,0,0,0,0,0,0,0,0,0,0,
0,0,0,0,0,0,0,0,0,0,0,0,0,0,0,0
</chunk>
   <chunk x="96" y="32" width="16" height="16">
0,0,0,0,0,0,0,0,0,0,0,0,0,0,0,0,
0,0,0,0,0,0,0,0,0,0,0,0,0,0,0,0,
11726,11726,11726,11726,11726,11727,11728,11726,11726,11726,11726,11726,11727,11728,0,0,
11758,11758,11758,11758,11758,11759,11760,11758,11758,11758,11758,11758,11759,11760,0,0,
11790,11790,11790,11790,11790,11791,11792,11790,11790,11790,11790,11790,11791,11792,0,0,
0,0,0,0,0,0,0,0,0,0,0,0,0,0,0,0,
0,0,0,0,0,0,0,0,0,0,0,0,0,0,0,0,
0,0,0,0,0,0,0,0,0,0,0,0,0,0,0,0,
0,0,0,0,0,0,0,0,0,0,0,0,0,0,0,0,
0,0,0,0,0,0,0,0,0,0,0,0,0,0,0,0,
0,0,0,0,0,0,0,0,0,0,0,0,0,0,0,0,
0,0,0,0,0,0,0,0,0,0,0,0,0,0,0,0,
0,0,0,0,0,0,0,0,0,0,0,0,0,0,0,0,
0,0,0,0,0,0,0,0,0,0,0,0,0,0,0,0,
0,0,0,0,0,0,0,0,0,0,0,0,0,0,0,0,
0,0,0,0,0,0,0,0,0,0,0,0,0,0,0,0
</chunk>
  </data>
 </layer>
 <layer id="11" name="collision" width="160" height="96" visible="0">
  <data encoding="csv">
   <chunk x="-48" y="-48" width="16" height="16">
0,0,0,0,0,0,0,0,0,0,0,0,0,0,0,0,
0,0,0,0,0,0,0,0,0,0,0,0,0,0,0,0,
0,0,0,0,0,0,0,0,0,0,0,0,0,0,0,0,
0,0,0,0,0,0,0,0,0,0,0,0,0,0,0,0,
0,0,0,0,0,0,0,0,0,0,0,0,0,0,0,0,
0,0,0,0,0,0,0,0,0,0,0,0,0,0,0,0,
0,0,0,0,0,0,0,0,0,0,0,0,0,0,0,0,
0,0,0,0,0,0,0,0,0,0,0,0,0,0,0,0,
0,0,0,0,0,0,0,0,0,0,0,0,0,0,0,0,
0,0,0,0,0,0,0,0,0,0,0,0,0,0,0,0,
0,0,0,0,0,0,0,0,0,0,0,0,0,0,0,1185,
0,0,0,0,0,0,0,0,0,0,0,0,0,0,0,1185,
0,0,0,0,0,0,0,0,0,0,0,0,0,0,0,1185,
0,0,0,0,0,0,0,0,0,0,0,0,0,0,0,1185,
0,0,0,0,0,0,0,0,0,0,0,0,0,0,0,1185,
0,0,0,0,0,0,0,0,0,0,0,0,0,0,0,1185
</chunk>
   <chunk x="-32" y="-48" width="16" height="16">
0,0,0,0,0,0,0,0,0,0,0,0,0,0,0,0,
0,0,0,0,0,0,0,0,0,0,0,0,0,0,0,0,
0,0,0,0,0,0,0,0,0,0,0,0,0,0,0,0,
0,0,0,0,0,0,0,0,0,0,0,0,0,0,0,0,
0,0,0,0,0,0,0,0,0,0,0,0,0,0,0,0,
0,0,0,0,0,0,0,0,0,0,0,0,0,0,0,0,
0,0,0,0,0,0,0,0,0,0,0,0,0,0,0,0,
0,0,0,0,0,0,0,0,0,0,0,0,0,0,0,0,
0,0,0,0,0,0,0,0,0,0,0,0,0,0,0,0,
0,0,0,0,0,0,0,0,0,0,0,0,0,0,0,0,
1185,1185,1185,1185,1185,1185,1185,1185,1185,1185,1185,1185,1185,1185,1185,1185,
1185,1185,1185,1185,1185,1185,1185,1185,1185,1185,1185,1185,1185,1185,1185,1185,
1185,1185,1185,1185,1185,1185,1185,1185,1185,1185,1185,1185,1185,1185,1185,1185,
0,0,0,0,0,0,0,0,0,0,0,0,0,0,0,0,
0,0,0,0,0,0,0,0,0,0,0,0,0,0,0,0,
1185,1185,1185,0,0,0,0,0,1185,1185,1185,1185,1185,1185,0,0
</chunk>
   <chunk x="-16" y="-48" width="16" height="16">
0,0,0,0,0,0,0,0,0,0,0,0,0,0,0,0,
0,0,0,0,0,0,0,0,0,0,0,0,0,0,0,0,
0,0,0,0,0,0,0,0,0,0,0,0,0,0,0,0,
0,0,0,0,0,0,0,0,0,0,0,0,0,0,0,0,
0,0,0,0,0,0,0,0,0,0,0,0,0,0,0,0,
0,0,0,0,0,0,0,0,0,0,0,0,0,0,0,0,
0,0,0,0,0,0,0,0,0,0,0,0,0,0,0,0,
0,0,0,0,0,0,0,0,0,0,0,0,0,0,0,0,
0,0,0,0,0,0,0,0,0,0,0,0,0,0,0,0,
0,0,0,0,0,0,0,0,0,0,0,0,0,0,0,0,
1185,1185,1185,1185,1185,1185,1185,1185,1185,1185,1185,1185,1185,1185,1185,1185,
1185,1185,1185,1185,1185,1185,1185,1185,1185,1185,1185,1185,1185,1185,1185,1185,
1185,1185,1185,1185,1185,1185,1185,1185,1185,1185,1185,1185,1185,1185,1185,1185,
0,0,0,0,0,0,0,0,0,0,0,0,0,0,0,0,
0,0,0,0,0,0,0,0,0,0,0,0,0,0,0,0,
0,0,1185,1185,1185,1185,1185,1185,0,0,0,0,1185,1185,1185,1185
</chunk>
   <chunk x="0" y="-48" width="16" height="16">
0,0,0,0,0,0,0,0,0,0,0,0,0,0,0,0,
0,0,0,0,0,0,0,0,0,0,0,0,0,0,0,0,
0,0,0,0,0,0,0,0,0,0,0,0,0,0,0,0,
0,0,0,0,0,0,0,0,0,0,0,0,0,0,0,0,
0,0,0,0,0,0,0,0,0,0,0,0,0,0,0,0,
0,0,0,0,0,0,0,0,0,0,0,0,0,0,0,0,
0,0,0,0,0,0,0,0,0,0,0,0,0,0,0,0,
0,0,0,0,0,0,0,0,0,0,0,0,0,0,0,0,
0,0,0,0,0,0,0,0,0,0,0,0,0,0,0,0,
0,0,0,0,0,0,0,0,0,0,0,0,0,0,0,0,
1185,1185,1185,1185,1185,1185,1185,1185,1185,1185,1185,1185,1185,1185,1185,1185,
1185,1185,1185,1185,1185,1185,1185,1185,1185,1185,1185,1185,1185,1185,1185,1185,
1185,1185,1185,1185,1185,1185,1185,1185,1185,1185,1185,1185,1185,1185,1185,1185,
0,0,0,0,0,0,0,0,0,0,0,0,0,0,0,0,
0,0,0,0,0,0,0,0,0,0,0,0,0,0,0,0,
1185,1185,1185,0,0,0,0,1185,1185,1185,1185,1185,1185,1185,1185,0
</chunk>
   <chunk x="16" y="-48" width="16" height="16">
0,0,0,0,0,0,0,0,0,0,0,0,0,0,0,0,
0,0,0,0,0,0,0,0,0,0,0,0,0,0,0,0,
0,0,0,0,0,0,0,0,0,0,0,0,0,0,0,0,
0,0,0,0,0,0,0,0,0,0,0,0,0,0,0,0,
0,0,0,0,0,0,0,0,0,0,0,0,0,0,0,0,
0,0,0,0,0,0,0,0,0,0,0,0,0,0,0,0,
0,0,0,0,0,0,0,0,0,0,0,0,0,0,0,0,
0,0,0,0,0,0,0,0,0,0,0,0,0,0,0,0,
0,0,0,0,0,0,0,0,0,0,0,0,0,0,0,0,
0,0,0,0,0,0,0,0,0,0,0,0,0,0,0,0,
1185,1185,1185,1185,1185,1185,1185,1185,1185,1185,1185,1185,1185,1185,1185,1185,
1185,1185,1185,1185,1185,1185,1185,1185,1185,1185,1185,1185,1185,1185,1185,1185,
1185,1185,1185,1185,1185,1185,1185,1185,1185,1185,1185,1185,1185,1185,1185,1185,
0,0,0,0,0,0,0,0,0,0,0,0,0,0,0,0,
0,0,0,0,0,0,0,0,0,0,0,0,0,0,0,0,
0,0,0,1185,1185,1185,1185,1185,1185,0,0,0,0,1185,1185,1185
</chunk>
   <chunk x="32" y="-48" width="16" height="16">
0,0,0,0,0,0,0,0,0,0,0,0,0,0,0,0,
0,0,0,0,0,0,0,0,0,0,0,0,0,0,0,0,
0,0,0,0,0,0,0,0,0,0,0,0,0,0,0,0,
0,0,0,0,0,0,0,0,0,0,0,0,0,0,0,0,
0,0,0,0,0,0,0,0,0,0,0,0,0,0,0,0,
0,0,0,0,0,0,0,0,0,0,0,0,0,0,0,0,
0,0,0,0,0,0,0,0,0,0,0,0,0,0,0,0,
0,0,0,0,0,0,0,0,0,0,0,0,0,0,0,0,
0,0,0,0,0,0,0,0,0,0,0,0,0,0,0,0,
0,0,0,0,0,0,0,0,0,0,0,0,0,0,0,0,
1185,1185,1185,1185,1185,1185,1185,1185,1185,1185,1185,1185,1185,1185,1185,1185,
1185,1185,1185,1185,1185,1185,1185,1185,1185,1185,1185,1185,1185,1185,1185,1185,
1185,1185,1185,1185,1185,1185,1185,1185,1185,1185,1185,1185,1185,1185,1185,1185,
0,1185,1185,1185,1185,0,0,0,0,0,1185,1185,1185,0,0,0,
0,1185,1185,1185,1185,0,0,0,0,0,1185,1185,1185,0,0,0,
1185,1185,1185,0,1185,0,0,0,0,0,0,0,0,0,0,0
</chunk>
   <chunk x="48" y="-48" width="16" height="16">
0,0,0,0,0,0,0,0,0,0,0,0,0,0,0,0,
0,0,0,0,0,0,0,0,0,0,0,0,0,0,0,0,
0,0,0,0,0,0,0,0,0,0,0,0,0,0,0,0,
0,0,0,0,0,0,0,0,0,0,0,0,0,0,0,0,
0,0,0,0,0,0,0,0,0,0,0,0,0,0,0,0,
0,0,0,0,0,0,0,0,0,0,0,0,0,0,0,0,
0,0,0,0,0,0,0,0,0,0,0,0,0,0,0,0,
0,0,0,0,0,0,0,0,0,0,0,0,0,0,0,0,
0,0,0,0,0,0,0,0,0,0,0,0,0,0,0,0,
0,0,1380,1380,1380,1380,1380,1380,1380,1380,1380,1380,1380,1380,1380,0,
1185,1185,1185,0,0,0,0,0,0,0,0,0,0,0,1185,1185,
1185,1185,1185,0,0,0,0,0,0,0,0,0,0,0,1185,1185,
1185,1185,1185,0,0,0,0,0,0,0,0,0,0,0,1185,1185,
0,0,0,0,0,0,0,0,0,0,0,0,0,0,0,0,
0,0,0,0,0,0,0,0,0,0,0,0,0,0,0,0,
0,0,0,0,0,0,0,0,0,0,0,0,0,0,0,0
</chunk>
   <chunk x="64" y="-48" width="16" height="16">
0,0,0,0,0,0,0,0,0,0,0,0,0,0,0,0,
0,0,0,0,0,0,0,0,0,0,0,0,0,0,0,0,
0,0,0,0,0,0,0,0,0,0,0,0,0,0,0,0,
0,0,0,0,0,0,0,0,0,0,0,0,0,0,0,0,
0,0,0,0,0,0,0,0,0,0,0,0,0,0,0,0,
0,0,0,0,0,0,0,0,0,0,0,0,0,0,0,0,
0,0,0,0,0,0,0,0,0,0,0,0,0,0,0,0,
0,0,0,0,0,0,0,0,0,0,0,0,0,0,0,0,
0,0,0,0,0,0,0,0,0,0,0,0,0,0,0,0,
0,0,0,0,0,0,0,0,0,0,0,0,0,0,0,0,
1185,1185,1185,1185,1185,1185,1185,1185,1185,1185,1185,1185,1185,1185,1185,1185,
1185,1185,1185,1185,1185,1185,1185,1185,1185,1185,1185,1185,1185,1185,1185,1185,
1185,1185,1185,1185,1185,1185,1185,1185,1185,1185,1185,1185,1185,1185,1185,1185,
0,0,1185,1185,1185,1185,1185,1185,1185,1185,1185,1185,1185,0,1185,1185,
0,0,1185,1185,1185,1185,1185,1185,1185,1185,1185,1185,1185,0,1185,1185,
0,0,0,0,0,0,0,1185,0,0,1185,1185,1185,0,0,0
</chunk>
   <chunk x="80" y="-48" width="16" height="16">
0,0,0,0,0,0,0,0,0,0,0,0,0,0,0,0,
0,0,0,0,0,0,0,0,0,0,0,0,0,0,0,0,
0,0,0,0,0,0,0,0,0,0,0,0,0,0,0,0,
0,0,0,0,0,0,0,0,0,0,0,0,0,0,0,0,
0,0,0,0,0,0,0,0,0,0,0,0,0,0,0,0,
0,0,0,0,0,0,0,0,0,0,0,0,0,0,0,0,
0,0,0,0,0,0,0,0,0,0,0,0,0,0,0,0,
0,0,0,0,0,0,0,0,0,0,0,0,0,0,0,0,
0,0,0,0,0,0,0,0,0,0,0,0,0,0,0,0,
0,0,0,0,0,0,0,0,0,0,0,0,0,0,0,0,
1185,1185,1185,1185,1185,1185,1185,1185,1185,1185,1185,1185,1185,1185,1185,1185,
1185,1185,1185,1185,1185,1185,1185,1185,1185,1185,1185,1185,1185,1185,1185,1185,
1185,1185,1185,1185,1185,1185,1185,1185,1185,1185,1185,1185,1185,1185,1185,1185,
1185,1185,0,0,0,0,0,0,0,0,0,0,0,0,0,0,
1185,1185,0,0,0,0,0,0,0,0,0,0,0,0,0,0,
0,1185,0,0,0,0,0,0,0,0,0,0,0,0,0,0
</chunk>
   <chunk x="96" y="-48" width="16" height="16">
0,0,0,0,0,0,0,0,0,0,0,0,0,0,0,0,
0,0,0,0,0,0,0,0,0,0,0,0,0,0,0,0,
0,0,0,0,0,0,0,0,0,0,0,0,0,0,0,0,
0,0,0,0,0,0,0,0,0,0,0,0,0,0,0,0,
0,0,0,0,0,0,0,0,0,0,0,0,0,0,0,0,
0,0,0,0,0,0,0,0,0,0,0,0,0,0,0,0,
0,0,0,0,0,0,0,0,0,0,0,0,0,0,0,0,
0,0,0,0,0,0,0,0,0,0,0,0,0,0,0,0,
0,0,0,0,0,0,0,0,0,0,0,0,0,0,0,0,
0,0,0,0,0,0,0,0,0,0,0,0,0,0,0,0,
1185,1185,1185,1185,1185,1185,1185,1185,1185,1185,1185,1185,1185,1185,0,0,
1185,1185,1185,1185,1185,1185,1185,1185,1185,1185,1185,1185,1185,1185,0,0,
1185,1185,1185,1185,1185,1185,1185,1185,1185,1185,1185,1185,1185,1185,0,0,
0,0,0,0,0,0,0,0,0,0,0,0,0,1185,0,0,
0,0,0,0,0,0,0,0,0,0,0,0,0,1185,0,0,
0,0,0,0,0,0,0,0,0,0,0,0,0,1185,0,0
</chunk>
   <chunk x="-48" y="-32" width="16" height="16">
0,0,0,0,0,0,0,0,0,0,0,0,0,0,0,1185,
0,0,0,0,0,0,0,0,0,0,0,0,0,0,0,1185,
0,0,0,0,0,0,0,0,0,0,0,0,0,0,0,1185,
0,0,0,0,0,0,0,0,0,0,0,0,0,0,0,1185,
0,0,0,0,0,0,0,0,0,0,0,0,0,0,0,1185,
0,0,0,0,0,0,0,0,0,0,0,0,0,0,0,1185,
0,0,0,0,0,0,0,0,0,0,0,0,0,0,0,1185,
0,0,0,0,0,0,0,0,0,0,0,0,0,0,0,1185,
0,0,0,0,0,0,0,0,0,0,0,0,0,0,0,1185,
0,0,0,0,0,0,0,0,0,0,0,0,0,0,0,1185,
0,0,0,0,0,0,0,0,0,0,0,0,0,0,0,1185,
0,0,0,0,0,0,0,0,0,0,0,0,0,0,0,1185,
0,0,0,0,0,0,0,0,0,0,0,0,0,0,1380,1185,
0,0,0,0,0,0,0,0,0,0,0,0,0,0,1380,1185,
0,0,0,0,0,0,0,0,0,0,0,0,0,0,1380,0,
0,0,0,0,0,0,0,0,0,0,0,0,0,0,1380,0
</chunk>
   <chunk x="-32" y="-32" width="16" height="16">
0,0,0,0,0,0,0,0,1185,1185,1185,1185,1185,1185,0,0,
0,0,0,0,0,0,0,0,1185,1185,1185,1185,1185,1185,0,0,
0,0,0,0,0,0,0,0,1185,1185,1185,1185,1185,1185,0,0,
0,0,0,0,0,0,0,0,1185,1185,1185,1185,1185,1185,0,0,
1185,1185,1185,0,0,0,0,0,1185,1185,1185,1185,1185,1185,0,0,
0,0,0,0,0,0,0,0,1185,1185,0,0,0,0,0,0,
0,0,0,0,0,0,0,0,1185,1185,0,0,0,0,0,0,
0,0,0,0,0,0,0,0,0,0,0,0,0,0,0,0,
0,0,0,0,0,0,0,0,0,0,0,0,0,0,0,0,
1185,1185,1185,0,0,0,0,0,0,0,0,0,0,0,0,0,
1185,1185,1185,1185,1185,1185,1185,1185,1185,1185,1185,1185,1185,1185,1185,1185,
1185,1185,1185,1185,1185,1185,1185,1185,1185,1185,1185,1185,1185,1185,1185,1185,
1185,1185,1185,1185,1185,1185,1185,1185,1185,1185,1185,1185,1185,1185,1185,1185,
1185,1185,1185,1185,1185,1185,1185,1185,1185,1185,1185,1185,1185,1185,1185,1185,
0,0,0,0,0,0,0,0,0,0,0,0,0,0,0,0,
0,0,0,0,0,0,0,0,0,0,0,0,0,0,0,0
</chunk>
   <chunk x="-16" y="-32" width="16" height="16">
0,0,1185,1185,1185,1185,1185,1185,0,0,0,0,1185,1185,1185,1185,
0,0,1185,1185,1185,1185,1185,1185,0,0,0,0,1185,1185,1185,1185,
0,0,1185,1185,1185,1185,1185,1185,0,0,0,0,1185,1185,1185,1185,
0,0,1185,1185,1185,1185,1185,1185,0,0,0,0,1185,1185,1185,1185,
0,1185,1185,1185,1185,1185,1185,1185,0,0,0,0,1185,1185,1185,1185,
0,0,0,0,0,0,0,0,0,0,0,0,0,0,0,0,
0,0,0,0,0,0,0,0,0,0,0,0,0,0,0,0,
0,0,0,0,0,0,0,0,0,0,0,0,0,0,0,0,
0,0,0,0,0,0,0,0,0,0,0,0,0,0,0,0,
0,0,0,0,0,0,0,0,0,0,0,0,0,0,0,0,
1185,1185,1185,1185,1185,1185,1185,1185,1185,1185,1185,1185,1185,1185,1185,1185,
1185,1185,1185,1185,1185,1185,1185,1185,1185,1185,1185,1185,1185,1185,1185,1185,
1185,1185,1185,1185,1185,1185,1185,1185,1185,1185,1185,1185,1185,1185,1185,1185,
1185,1185,1185,1185,1185,1185,1185,1185,1185,1185,1185,1185,1185,1185,1185,1185,
0,0,0,0,0,0,0,0,0,0,0,0,0,0,0,0,
0,0,0,0,0,0,0,0,0,0,0,0,0,0,0,0
</chunk>
   <chunk x="0" y="-32" width="16" height="16">
1185,1185,1185,0,0,0,0,1185,1185,1185,1185,1185,1185,1185,1185,0,
1185,1185,1185,0,0,0,0,1185,1185,1185,1185,1185,1185,1185,1185,0,
1185,1185,1185,0,0,0,0,1185,1185,1185,1185,1185,1185,1185,1185,0,
1185,1185,1185,0,0,0,0,1185,1185,1185,1185,1185,1185,1185,1185,0,
1185,1185,1185,0,0,0,0,1185,1185,1185,1185,1185,1185,1185,1185,0,
0,0,0,0,0,0,0,0,0,0,0,0,0,0,0,0,
0,0,0,0,0,0,0,0,0,0,0,0,0,0,0,0,
0,0,0,0,0,0,0,0,0,0,0,0,0,0,0,0,
0,0,0,0,0,0,0,0,0,0,0,0,0,0,0,0,
0,0,0,0,0,0,0,0,0,0,0,0,0,0,0,0,
1185,1185,1185,1185,0,0,0,0,0,0,0,0,1185,1185,1185,1185,
1185,1185,1185,1185,0,0,0,0,0,0,0,0,1185,1185,1185,1185,
1185,1185,1185,1185,0,0,0,0,0,0,0,0,1185,1185,1185,1185,
1185,1185,1185,1185,0,0,0,0,0,0,0,0,1185,1185,1185,1185,
0,1185,1185,1185,0,0,0,0,0,0,0,0,1185,1185,1185,0,
0,0,0,0,0,0,0,0,0,0,0,0,0,0,0,0
</chunk>
   <chunk x="16" y="-32" width="16" height="16">
0,0,0,1185,1185,1185,1185,1185,1185,0,0,0,0,1185,1185,1185,
0,0,0,1185,1185,1185,1185,1185,1185,0,0,0,0,1185,1185,1185,
0,0,0,1185,1185,1185,1185,1185,1185,0,0,0,0,1185,1185,1185,
0,0,0,1185,1185,1185,1185,1185,1185,0,0,0,0,1185,1185,1185,
0,0,0,1185,1185,1185,1185,1185,1185,0,0,0,0,1185,1185,1185,
0,0,0,0,0,0,0,0,0,0,0,0,0,0,0,1185,
0,0,0,0,0,0,0,0,0,0,0,0,0,0,0,0,
0,0,0,0,0,0,0,0,0,0,0,0,0,0,0,0,
0,0,0,0,0,0,0,0,0,0,0,0,0,0,0,0,
0,0,0,0,0,0,0,0,0,0,0,0,0,0,0,0,
1185,1185,1185,1185,1185,1185,1185,1185,1185,1185,1185,1185,1185,1185,1185,1185,
1185,1185,1185,1185,1185,1185,1185,1185,1185,1185,1185,1185,1185,1185,1185,1185,
1185,1185,1185,1185,1185,1185,1185,1185,1185,1185,1185,1185,1185,1185,1185,1185,
1185,1185,1185,1185,1185,1185,1185,1185,1185,1185,1185,1185,1185,1185,1185,1185,
0,0,0,0,0,0,0,0,0,0,0,0,0,0,0,0,
0,0,0,0,0,0,0,0,0,0,0,0,0,0,0,0
</chunk>
   <chunk x="32" y="-32" width="16" height="16">
1185,1185,1185,0,1185,0,0,0,0,0,0,0,0,0,0,0,
1185,1185,1185,0,1185,0,0,0,0,0,0,0,0,0,0,0,
1185,1185,1185,0,1185,0,0,0,0,0,0,0,0,0,0,0,
1185,1185,1185,0,1185,0,0,0,0,0,0,0,0,0,0,0,
1185,1185,1185,0,1185,0,0,0,0,0,0,0,0,0,0,0,
1185,1185,1185,0,1185,0,0,0,0,0,0,0,0,0,0,0,
1185,1185,1185,0,1185,0,0,0,0,0,0,0,0,0,0,0,
0,0,0,0,1185,0,0,0,0,0,0,0,0,0,0,0,
0,0,0,0,1185,0,0,0,0,0,0,0,0,0,0,0,
0,1185,1185,1185,1185,0,0,0,0,0,0,0,0,0,0,0,
1185,1185,1185,1185,1185,0,0,0,0,0,0,0,0,0,0,0,
1185,1185,1185,1185,1185,0,0,0,0,0,0,0,0,0,0,0,
1185,1185,1185,1185,1185,0,0,0,0,0,0,0,0,0,0,0,
1185,1185,1185,1185,1185,0,0,0,0,0,0,0,0,0,0,0,
0,0,0,0,0,0,0,0,0,0,0,0,0,0,0,0,
0,0,0,0,0,0,0,0,0,0,0,0,0,0,0,0
</chunk>
   <chunk x="48" y="-32" width="16" height="16">
0,0,0,0,0,0,0,0,0,0,0,0,0,0,0,0,
0,0,0,0,0,0,0,0,0,0,0,0,0,0,0,0,
0,0,0,0,0,0,0,0,0,0,0,0,0,0,0,0,
0,0,0,0,0,0,0,0,0,0,0,0,0,0,0,0,
0,0,0,0,0,0,0,1185,1185,1185,0,0,0,0,0,0,
0,0,0,0,0,0,1185,1185,1185,1185,1185,0,0,0,0,0,
0,0,0,0,1185,1185,1185,1185,1185,1185,1185,1185,0,0,0,0,
0,0,0,1185,1185,1185,0,0,0,0,1185,1185,1185,0,0,0,
0,1185,1185,1185,1185,0,0,0,0,0,0,1185,1185,1185,1185,1185,
0,1185,1185,0,0,0,0,0,0,0,0,0,1185,1185,1185,1185,
0,1185,0,0,0,0,0,0,0,0,0,0,0,0,1185,1185,
0,1185,0,0,0,0,0,0,0,0,0,0,0,0,1185,1185,
0,1185,0,0,0,0,0,0,0,0,0,0,0,0,1185,1185,
0,1185,0,0,0,0,0,0,0,0,0,0,0,0,1185,1185,
0,1185,0,0,0,0,0,0,0,0,0,0,0,0,1185,1185,
0,1185,0,0,0,0,0,0,0,0,0,0,0,0,1185,1185
</chunk>
   <chunk x="80" y="-32" width="16" height="16">
0,1185,0,0,0,0,0,0,0,0,0,0,0,0,0,0,
0,1185,0,0,0,0,0,0,0,0,0,0,0,0,0,0,
0,1185,0,0,0,0,0,0,0,0,0,0,0,0,0,0,
0,1185,0,0,0,0,0,0,0,0,0,0,0,0,0,0,
0,1185,0,0,0,0,0,0,0,0,0,0,0,0,0,0,
0,1185,0,0,0,0,0,0,0,0,0,0,0,0,0,0,
0,1185,0,0,0,0,0,0,0,0,0,0,0,0,0,0,
0,1185,0,0,0,0,0,0,0,0,0,1185,1185,1185,1185,1185,
0,1185,1185,1185,1185,1185,1185,1185,1185,1185,1185,1185,1185,0,0,0,
0,0,0,0,0,0,0,0,0,0,0,1185,1185,0,0,0,
0,0,0,0,0,0,0,0,0,0,0,0,0,0,0,0,
0,0,0,0,0,0,0,0,0,0,0,0,0,0,0,0,
0,0,0,0,0,0,0,0,0,0,0,0,0,0,0,0,
0,0,0,0,0,0,0,0,0,0,0,0,0,0,0,0,
0,0,0,0,0,0,0,0,0,0,0,0,0,0,0,0,
0,0,0,0,0,0,0,0,0,0,0,0,0,0,0,0
</chunk>
   <chunk x="96" y="-32" width="16" height="16">
0,0,0,0,0,0,0,0,0,0,0,0,0,1185,0,0,
0,0,0,0,0,0,0,0,0,0,0,0,0,1185,0,0,
0,0,0,0,0,0,0,0,0,0,0,0,0,1185,0,0,
0,0,0,0,0,0,0,0,0,0,0,0,0,1185,0,0,
0,0,0,0,0,0,0,0,0,0,0,0,0,1185,0,0,
0,0,0,0,0,0,0,0,0,0,0,0,0,1185,0,0,
0,0,0,0,0,0,0,0,0,0,0,0,0,1185,0,0,
1185,1185,1185,0,0,0,0,0,0,0,0,0,0,1185,0,0,
0,1185,1185,1185,1185,1185,1185,1185,1185,1185,1185,1185,1185,1185,0,0,
0,1185,1185,0,0,0,0,0,0,0,0,0,0,1185,0,0,
0,0,0,0,0,0,0,0,0,0,0,0,0,1185,0,0,
0,0,0,0,0,0,0,0,0,0,0,0,0,1185,1380,0,
0,0,0,0,0,0,0,0,0,0,0,0,0,1185,1380,0,
0,0,0,0,0,0,0,0,0,0,0,0,0,0,1380,0,
0,0,0,0,0,0,0,0,0,0,0,0,0,0,1380,0,
0,0,0,0,0,0,0,0,0,0,0,0,0,0,1380,0
</chunk>
   <chunk x="-48" y="-16" width="16" height="16">
0,0,0,0,0,0,0,0,0,0,0,0,0,0,1380,0,
0,0,0,0,0,0,0,0,0,0,0,0,0,0,1380,0,
0,0,0,0,0,0,0,0,0,0,0,0,0,0,1380,0,
0,0,0,0,0,0,0,0,0,0,0,0,0,0,1380,0,
0,0,0,0,0,0,0,0,0,0,0,0,0,0,1380,0,
0,0,0,0,0,0,0,0,0,0,0,0,0,0,1380,0,
0,0,0,0,0,0,0,0,0,0,0,0,0,0,1380,0,
0,0,0,0,0,0,0,0,0,0,0,0,0,0,1380,0,
0,0,0,0,0,0,0,0,0,0,0,0,0,0,1380,1185,
0,0,0,0,0,0,0,0,0,0,0,0,0,0,1380,1185,
0,0,0,0,0,0,0,0,0,0,0,0,0,0,0,1185,
0,0,0,0,0,0,0,0,0,0,0,0,0,0,0,1185,
0,0,0,0,0,0,0,0,0,0,0,0,0,0,0,1185,
0,0,0,0,0,0,0,0,0,0,0,0,0,0,0,1185,
0,0,0,0,0,0,0,0,0,0,0,0,0,0,0,1185,
0,0,0,0,0,0,0,0,0,0,0,0,0,0,0,1185
</chunk>
   <chunk x="-32" y="-16" width="16" height="16">
0,0,0,0,0,0,0,0,0,0,0,0,0,0,0,0,
0,0,0,0,0,0,0,0,0,0,0,0,0,0,0,0,
0,0,0,0,0,0,0,0,0,0,0,0,0,0,0,0,
0,0,0,0,0,0,0,0,0,0,0,0,0,0,0,0,
0,0,0,0,0,0,0,0,0,0,0,0,0,0,0,0,
0,0,0,0,0,0,0,0,0,0,0,0,0,0,0,0,
0,0,0,0,0,0,0,0,1185,1185,1185,1185,1185,1185,1185,1185,
0,0,0,0,0,0,0,0,1185,0,0,0,0,0,0,0,
0,0,0,0,0,0,0,0,1185,0,0,0,0,0,0,0,
0,0,0,0,0,0,0,0,1185,0,0,0,0,0,0,0,
0,0,0,0,0,0,0,0,1185,0,0,0,0,0,0,0,
0,0,0,0,0,0,0,0,1185,0,0,0,0,0,0,0,
0,0,0,0,0,0,0,0,1185,0,0,0,0,0,0,0,
0,0,0,0,0,0,0,0,1185,0,0,0,0,0,0,0,
0,0,0,0,0,0,0,0,1185,0,0,0,0,0,0,0,
0,0,0,0,0,0,0,0,1185,0,0,0,0,0,0,0
</chunk>
   <chunk x="-16" y="-16" width="16" height="16">
0,0,0,0,0,0,0,0,0,0,0,0,0,0,0,0,
0,0,0,0,0,0,0,0,0,0,0,0,0,0,0,0,
0,0,0,0,0,0,0,0,0,0,0,0,0,0,0,0,
0,0,0,0,0,0,0,0,0,0,0,0,0,0,0,0,
0,0,0,0,0,0,0,0,0,0,0,0,0,0,0,0,
0,0,0,0,0,0,0,0,0,0,0,0,0,0,0,0,
1185,1185,1185,1185,1185,1185,1185,1185,1185,1185,1185,1185,1185,1185,1185,1185,
0,0,0,0,0,0,1185,1185,1185,1185,1185,1185,1185,1185,0,0,
0,0,0,0,0,0,0,0,0,0,0,0,0,0,0,0,
0,0,0,0,0,0,0,0,0,0,0,0,0,0,0,0,
0,0,0,0,0,0,0,0,0,0,0,0,0,0,0,0,
0,0,0,0,0,0,0,0,0,0,0,0,0,0,0,0,
0,0,0,0,0,0,0,0,0,0,0,0,0,0,0,0,
0,0,0,0,0,0,0,0,0,0,0,0,0,0,0,0,
0,0,0,0,0,0,0,0,0,0,0,0,0,0,0,0,
0,0,0,0,0,0,0,0,0,0,0,0,0,0,0,0
</chunk>
   <chunk x="0" y="-16" width="16" height="16">
0,0,0,0,0,0,0,0,0,0,0,0,0,0,0,0,
0,0,0,0,0,0,0,0,0,0,0,0,0,0,0,0,
0,0,0,0,0,0,0,0,0,0,0,0,0,0,0,0,
0,0,0,0,0,0,0,0,0,0,0,0,0,0,0,0,
0,0,0,0,0,0,0,0,0,0,0,0,0,0,0,0,
0,0,0,0,0,0,0,0,0,0,0,0,0,0,0,0,
1185,1185,1185,1185,0,0,0,0,0,0,0,0,0,0,0,0,
0,0,0,1185,0,0,0,0,0,0,0,0,0,0,0,0,
0,0,0,1185,0,0,0,0,0,0,0,0,0,0,0,0,
0,0,0,1185,0,0,0,0,0,0,0,0,0,0,0,0,
0,0,0,1185,0,0,0,0,0,0,0,0,0,0,0,0,
0,0,0,1185,0,0,0,0,0,0,0,0,0,0,0,0,
0,0,0,1185,0,0,0,0,0,0,0,0,0,0,0,0,
0,0,0,1185,0,0,0,0,0,0,0,0,0,0,0,0,
0,0,0,1185,0,0,0,0,0,0,0,0,0,0,0,0,
0,0,0,1185,0,0,0,0,0,0,0,0,0,0,0,0
</chunk>
   <chunk x="16" y="-16" width="16" height="16">
0,0,0,0,0,0,0,0,0,0,0,0,0,0,0,0,
0,0,0,0,0,0,0,0,0,0,0,0,0,0,0,0,
0,0,0,0,0,0,0,1185,1185,1185,1185,1185,1185,0,0,0,
0,0,0,0,0,0,0,1185,0,0,0,0,1185,0,0,0,
0,0,0,0,0,0,0,1185,0,0,0,0,1185,0,0,0,
0,0,0,0,0,0,0,1185,1185,1185,1185,1185,1185,0,0,0,
0,0,0,0,0,0,0,0,0,0,0,0,0,0,0,0,
0,0,0,0,0,0,0,0,0,0,0,0,0,0,0,0,
0,0,0,0,0,0,0,0,0,0,0,0,0,0,0,0,
0,0,0,0,0,0,0,0,0,0,0,0,0,0,0,0,
0,0,0,0,0,0,0,0,0,0,0,0,0,0,0,0,
0,0,0,0,0,0,0,0,0,0,0,0,0,0,0,0,
0,0,0,0,0,0,0,0,0,0,0,0,0,0,0,0,
0,0,0,0,0,0,0,0,0,0,0,0,0,0,0,0,
0,0,0,0,0,0,0,0,0,0,0,0,0,0,0,0,
0,0,0,0,0,0,0,0,0,0,0,0,0,0,0,0
</chunk>
   <chunk x="32" y="-16" width="16" height="16">
0,0,0,0,0,0,0,0,0,0,0,0,0,0,0,0,
0,0,0,0,0,0,0,0,0,0,0,0,0,0,0,0,
0,0,0,0,0,0,0,0,0,0,0,0,0,0,0,0,
0,0,0,0,0,0,0,0,0,0,0,0,0,0,0,0,
0,0,0,0,0,0,0,0,0,0,0,0,0,0,0,0,
0,0,0,0,0,0,0,0,0,0,0,0,0,1185,1185,0,
0,0,0,0,0,0,0,0,0,0,0,0,0,0,0,0,
0,0,0,0,0,0,0,0,0,0,0,0,0,0,0,0,
0,0,0,0,0,0,0,0,0,0,0,0,0,0,0,0,
0,0,0,0,0,0,0,0,0,0,0,0,0,0,0,0,
0,0,0,0,0,0,0,0,0,0,0,0,0,0,0,0,
0,0,0,0,0,0,0,0,0,0,0,0,0,0,0,0,
0,0,0,0,0,0,0,0,0,0,0,0,0,0,0,0,
0,0,0,0,0,0,0,0,0,0,0,0,0,0,0,0,
0,0,0,0,0,0,0,0,0,0,0,0,0,0,0,0,
0,0,0,0,0,0,0,0,0,0,0,0,0,0,0,0
</chunk>
   <chunk x="48" y="-16" width="16" height="16">
0,1185,1185,1185,1185,1185,1185,1185,1185,1185,1185,1185,1185,1185,1185,1185,
0,0,1185,1185,1185,1185,1185,0,0,1185,1185,1185,1185,1185,1185,1185,
0,0,0,0,0,1185,1185,0,0,1185,1185,0,0,0,0,0,
0,0,0,0,0,0,0,0,0,0,0,0,0,0,0,0,
0,0,0,0,0,0,0,0,0,0,0,0,0,0,0,0,
0,0,0,0,0,0,0,0,0,0,0,0,0,0,0,0,
0,0,0,0,0,0,0,0,0,0,0,0,0,0,0,0,
0,0,0,0,0,0,0,0,0,0,0,0,0,0,0,0,
0,0,0,0,0,0,0,0,0,0,0,0,0,0,0,0,
0,0,0,0,0,0,0,0,0,0,0,0,0,0,0,0,
0,0,0,0,0,0,0,0,0,0,0,0,0,0,0,0,
0,0,0,0,0,0,0,0,0,0,0,0,0,0,0,0,
0,0,0,0,0,0,0,0,0,0,0,0,0,0,0,0,
0,0,0,0,0,0,0,0,0,0,0,0,0,0,0,0,
0,0,0,0,1185,1185,1185,1185,1185,1185,1185,0,0,0,0,0,
0,0,1185,1185,0,1185,1185,1185,1185,0,0,1185,1185,0,0,0
</chunk>
   <chunk x="64" y="-16" width="16" height="16">
0,0,0,0,0,0,0,0,0,0,0,0,0,0,0,0,
0,0,0,0,0,0,0,0,0,0,0,0,0,0,0,0,
0,0,0,0,0,0,0,0,0,0,0,0,0,0,0,0,
0,0,0,0,0,0,0,0,0,0,0,0,0,0,0,0,
0,0,0,0,0,0,0,0,0,0,0,0,0,0,0,0,
0,0,1185,1185,0,0,0,0,0,0,0,0,0,0,0,0,
0,0,0,0,0,0,0,0,0,0,0,0,0,0,0,0,
0,0,0,0,0,0,0,0,0,0,0,0,0,0,0,0,
0,0,0,0,0,0,0,0,0,0,0,0,0,0,0,0,
0,0,0,0,0,0,0,0,0,0,0,0,0,0,0,0,
0,0,0,0,0,0,0,0,0,0,0,0,0,0,0,0,
0,0,0,0,0,0,0,0,0,0,0,0,0,0,0,0,
0,0,0,0,0,0,0,0,0,0,0,0,0,0,0,0,
0,0,0,0,0,0,0,0,0,0,0,0,0,0,0,0,
0,0,0,0,0,0,0,0,0,0,0,0,0,0,0,0,
0,0,0,0,0,0,0,0,0,1185,1185,1185,1185,1185,1185,1185
</chunk>
   <chunk x="80" y="-16" width="16" height="16">
0,0,0,0,0,0,0,0,0,0,0,0,0,0,0,0,
0,0,0,0,0,0,0,0,0,0,0,0,0,0,0,0,
0,0,0,1185,1185,1185,1185,1185,1185,0,0,0,0,0,0,0,
0,0,0,1185,0,0,0,0,1185,0,0,0,0,0,0,0,
0,0,0,1185,0,0,0,0,1185,0,0,0,0,0,0,0,
0,0,0,1185,1185,1185,1185,1185,1185,0,0,0,0,0,0,0,
0,0,0,0,0,0,0,0,0,0,0,0,0,0,0,0,
0,0,0,0,0,0,0,0,0,0,0,0,0,0,0,0,
0,0,0,0,0,0,0,0,0,0,0,0,0,0,0,0,
0,0,0,0,0,0,0,0,0,0,0,0,0,0,0,0,
0,0,0,0,0,0,0,0,0,0,0,0,0,0,0,0,
0,0,0,0,0,0,0,0,0,0,0,0,0,0,0,0,
0,0,0,0,0,0,0,0,0,0,0,0,0,0,0,0,
0,0,0,0,0,0,0,0,0,0,0,0,0,0,0,0,
0,0,0,0,0,0,0,0,0,0,0,0,0,0,0,0,
1185,1185,1185,1185,1185,1185,1185,1185,1185,1185,1185,1185,1185,1185,1185,1185
</chunk>
   <chunk x="96" y="-16" width="16" height="16">
0,0,0,0,0,0,0,0,0,0,0,0,0,0,1380,0,
0,0,0,0,0,0,0,0,0,0,0,0,0,0,1380,0,
0,0,0,0,0,0,0,0,0,0,0,0,0,0,1380,0,
0,0,0,0,0,0,0,0,0,0,0,0,0,0,1380,0,
0,0,0,0,0,0,0,0,0,0,0,0,0,0,1380,0,
0,0,0,0,0,0,0,0,0,0,0,0,0,0,1380,0,
0,0,0,0,0,0,0,0,0,0,0,0,0,0,1380,0,
0,0,0,0,0,0,0,0,0,0,0,0,0,0,1380,1380,
0,0,0,0,0,0,0,0,0,0,0,0,0,0,1380,1380,
0,0,0,0,0,0,0,0,0,0,0,0,0,0,1380,1380,
0,0,0,0,0,0,0,0,0,0,0,0,0,0,1380,1380,
0,0,0,0,0,0,0,0,0,0,0,0,0,1185,1380,1380,
0,0,0,0,0,0,0,0,0,0,0,0,0,1185,1380,0,
0,0,0,0,0,0,0,0,0,0,0,0,0,1185,0,0,
0,0,0,0,0,0,0,0,0,0,0,0,0,1185,0,0,
1185,1185,1185,1185,1185,1185,1185,1185,1185,1185,1185,1185,1185,1185,0,0
</chunk>
   <chunk x="-48" y="0" width="16" height="16">
0,0,0,0,0,0,0,0,0,0,0,0,0,0,0,1185,
0,0,0,0,0,0,0,0,0,0,0,0,0,0,0,1185,
0,0,0,0,0,0,0,0,0,0,0,0,0,0,0,1185,
0,0,0,0,0,0,0,0,0,0,0,0,0,0,0,1185,
0,0,0,0,0,0,0,0,0,0,0,0,0,0,0,1185,
0,0,0,0,0,0,0,0,0,0,0,0,0,0,0,1185,
0,0,0,0,0,0,0,0,0,0,0,0,0,0,0,1185,
0,0,0,0,0,0,0,0,0,0,0,0,0,0,0,1185,
0,0,0,0,0,0,0,0,0,0,0,0,0,0,0,1185,
0,0,0,0,0,0,0,0,0,0,0,0,0,0,0,1185,
0,0,0,0,0,0,0,0,0,0,0,0,0,0,0,1185,
0,0,0,0,0,0,0,0,0,0,0,0,0,0,0,1185,
0,0,0,0,0,0,0,0,0,0,0,0,0,0,0,1185,
0,0,0,0,0,0,0,0,0,0,0,0,0,0,0,1185,
0,0,0,0,0,0,0,0,0,0,0,0,0,0,0,1185,
0,0,0,0,0,0,0,0,0,0,0,0,0,0,0,1185
</chunk>
   <chunk x="-32" y="0" width="16" height="16">
0,0,0,0,0,0,0,1185,1185,0,0,0,0,0,0,0,
0,0,0,0,0,0,1185,1185,1185,0,0,0,0,0,0,0,
0,0,0,0,0,1185,1185,1185,1185,1185,1185,1185,1185,1185,1185,1185,
0,0,0,0,0,1185,0,0,0,0,0,0,0,0,0,0,
0,0,0,0,0,1185,0,0,0,0,0,0,0,0,0,0,
0,0,0,0,0,1185,0,0,0,0,0,0,0,0,0,0,
0,0,0,0,0,1185,0,0,0,0,0,0,0,0,0,0,
0,0,0,0,0,1185,0,0,0,0,0,0,0,0,0,0,
0,0,0,0,0,1185,0,0,0,0,0,0,0,0,0,0,
0,0,0,0,0,1185,0,0,0,0,0,0,0,0,0,0,
0,0,0,0,0,1185,0,0,0,0,0,0,0,0,0,0,
0,0,0,0,0,1185,0,0,0,0,0,0,0,0,0,0,
0,0,0,0,0,1185,0,0,0,0,0,0,0,0,0,0,
0,0,0,0,0,1185,0,0,0,0,0,0,0,0,0,0,
0,0,0,0,0,1185,0,0,0,0,0,0,0,0,0,0,
0,0,0,0,0,1185,0,0,0,0,0,0,0,0,0,0
</chunk>
   <chunk x="-16" y="0" width="16" height="16">
0,0,0,0,0,0,0,0,0,0,0,0,0,0,0,0,
0,0,0,0,0,0,0,0,0,0,0,0,0,0,0,0,
1185,1185,1185,1185,1185,1185,1185,1185,1185,1185,1185,1185,1185,1185,1185,1185,
0,0,0,0,0,0,0,0,0,0,0,0,0,0,0,0,
0,0,0,0,0,0,0,0,0,0,0,0,0,0,0,0,
0,0,0,0,0,0,0,0,0,0,0,0,0,0,0,0,
0,0,0,0,0,0,0,0,0,0,0,0,0,0,0,0,
0,0,0,0,0,0,0,0,0,0,0,0,0,0,0,0,
0,0,0,0,0,0,0,0,0,0,0,0,0,0,0,0,
0,0,0,0,0,0,0,0,0,0,0,0,0,0,0,0,
0,0,0,0,0,0,0,0,0,0,0,0,0,0,0,0,
0,0,0,0,0,0,0,0,0,0,0,0,0,0,0,0,
0,0,0,0,0,0,0,0,0,0,0,0,0,0,0,0,
0,0,0,0,0,0,0,0,0,0,0,0,0,0,0,0,
0,0,0,1185,1185,1185,1185,1185,0,0,0,0,0,0,0,0,
0,0,0,1185,0,0,0,1185,0,0,0,0,0,0,0,0
</chunk>
   <chunk x="0" y="0" width="16" height="16">
0,0,0,1185,0,0,0,0,0,0,0,0,0,0,0,0,
0,0,0,1185,1185,0,0,0,0,0,0,0,0,0,0,0,
1185,1185,1185,1185,1185,1185,0,0,0,0,0,0,0,0,0,0,
0,0,0,0,0,1185,0,0,0,0,0,0,0,0,0,0,
0,0,0,0,0,1185,0,0,0,0,0,0,0,0,0,0,
0,0,0,0,0,1185,0,0,0,0,0,0,0,0,0,0,
0,0,0,0,0,1185,0,0,0,0,0,0,0,0,0,0,
0,0,0,0,0,1185,0,0,0,0,0,0,0,0,0,0,
0,0,0,0,0,1185,0,0,0,0,0,0,0,0,0,0,
0,0,0,0,0,1185,0,0,0,0,0,0,0,0,0,0,
0,0,0,0,0,1185,0,0,0,0,0,0,0,0,0,0,
0,0,0,0,0,1185,0,0,0,0,0,0,0,0,0,0,
0,0,0,0,0,1185,0,0,0,0,0,0,0,0,0,0,
0,0,0,0,0,1185,0,0,0,0,0,0,0,0,0,0,
0,0,0,0,1185,1185,0,0,0,0,0,0,0,0,0,0,
0,0,0,0,1185,1185,0,0,0,0,0,0,0,0,0,0
</chunk>
   <chunk x="16" y="0" width="16" height="16">
1185,1185,0,0,0,0,0,0,0,0,0,0,0,0,0,0,
1185,1185,0,0,0,0,0,0,0,0,0,0,0,0,0,0,
1185,1185,1185,1185,1185,1185,1185,1185,1185,1185,1185,1185,1185,1185,1185,1185,
1185,1185,0,0,0,0,0,0,0,0,0,0,0,0,0,0,
1185,1185,0,0,0,0,0,0,0,0,0,0,0,0,0,0,
1185,1185,0,0,0,0,0,0,0,0,0,0,0,0,0,0,
1185,1185,0,0,0,0,0,0,0,0,0,0,0,0,0,0,
1185,1185,0,0,0,0,0,0,0,0,0,0,0,0,0,0,
1185,0,0,0,0,0,0,0,0,0,0,0,0,0,0,0,
1185,0,0,0,0,0,0,0,0,0,0,0,0,0,0,0,
1185,0,0,0,0,0,0,0,0,0,0,0,0,0,0,0,
1185,0,0,0,0,0,0,0,0,0,0,0,0,0,0,0,
1185,0,0,0,0,0,0,0,0,0,0,0,0,0,0,0,
1185,0,0,0,0,0,0,0,0,0,0,0,0,0,0,0,
1185,0,0,0,0,0,0,0,0,0,0,0,0,0,0,0,
1185,0,0,0,0,0,0,0,0,0,0,0,0,0,0,0
</chunk>
   <chunk x="32" y="0" width="16" height="16">
0,0,1185,1185,0,0,0,0,0,0,0,0,1185,0,0,0,
0,0,1185,1185,0,0,0,0,0,0,0,0,1185,0,1185,1185,
1185,1185,1185,1185,0,0,0,0,0,0,0,0,1185,1185,1185,0,
0,0,1185,1185,0,0,0,0,0,0,0,0,1185,0,0,0,
0,0,1185,1185,0,0,0,0,0,0,0,0,1185,0,0,0,
0,0,1185,1185,0,0,0,0,0,0,0,0,1185,0,0,0,
0,0,1185,1185,0,0,0,0,0,0,0,0,1185,0,0,0,
0,0,1185,1185,0,0,0,0,0,0,0,0,1185,0,0,0,
0,0,0,1185,0,0,0,0,0,0,0,0,1185,0,0,0,
0,0,0,1185,0,0,0,0,0,0,0,0,1185,0,0,0,
0,0,0,1185,0,0,0,0,0,0,0,0,1185,0,0,0,
0,0,0,1185,0,0,0,0,0,0,0,0,1185,0,0,0,
0,0,0,1185,0,0,0,0,0,0,0,0,1185,0,0,0,
0,0,0,1185,0,0,0,0,0,0,0,0,1185,0,0,0,
0,0,0,1185,0,0,0,0,0,0,0,0,1185,0,0,0,
0,0,0,1185,0,0,0,0,0,0,0,0,1185,0,0,0
</chunk>
   <chunk x="48" y="0" width="16" height="16">
1185,1185,1185,0,0,0,0,0,0,0,0,0,1185,1185,1185,0,
1185,0,0,0,0,0,0,0,0,0,0,0,0,0,1185,1185,
0,0,0,0,0,0,0,0,0,0,0,0,0,0,0,0,
0,0,0,0,0,0,0,0,0,0,0,0,0,0,0,0,
0,0,0,0,0,0,0,0,0,0,0,0,0,0,0,0,
0,0,0,1185,0,0,0,0,0,0,0,0,0,0,0,0,
0,0,0,1185,0,0,0,0,0,0,0,0,0,0,0,0,
0,0,0,1185,0,0,0,0,0,0,0,0,1185,0,0,0,
0,0,0,1185,1185,0,0,0,0,0,0,0,1185,0,0,0,
0,0,0,0,1185,0,0,0,0,0,0,0,1185,0,0,0,
0,0,0,0,1185,0,0,0,0,0,0,0,1185,0,0,0,
0,0,0,0,1185,0,0,0,0,0,0,0,1185,0,0,0,
0,0,0,0,1185,0,0,0,0,0,0,0,1185,0,0,0,
0,0,0,0,1185,0,0,0,0,0,0,0,1185,0,0,0,
0,0,0,0,1185,0,0,0,0,0,0,0,1185,0,0,0,
0,0,0,0,1185,0,0,0,0,0,0,1185,1185,0,0,0
</chunk>
   <chunk x="64" y="0" width="16" height="16">
0,0,1185,0,0,0,0,0,0,1185,1185,1185,1185,1185,1185,1185,
1185,0,1185,0,0,0,0,0,0,1185,1185,1185,1185,1185,1185,1185,
1185,1185,1185,0,0,0,0,0,0,1185,1185,1185,1185,1185,1185,1185,
0,0,1185,0,0,0,0,0,0,1185,1185,1185,1185,1185,1185,1185,
0,0,1185,0,0,0,0,0,0,1185,1185,1185,1185,1185,1185,1185,
0,0,1185,0,0,0,0,0,0,1185,0,0,0,0,1185,1185,
0,0,1185,0,0,0,0,0,0,1185,0,0,0,0,1185,1185,
0,0,1185,0,0,0,0,0,0,1185,0,0,0,0,1185,1185,
0,0,1185,0,0,0,0,0,0,1185,0,0,0,0,1185,1185,
0,0,1185,0,0,0,0,0,0,1185,0,0,0,0,1185,1185,
0,0,1185,0,0,0,0,0,0,0,0,0,0,0,1185,1185,
0,0,1185,0,0,0,0,0,0,0,0,0,0,0,1185,1185,
0,0,1185,0,0,0,0,0,0,0,0,0,0,0,0,0,
0,0,1185,0,0,0,0,0,0,0,0,0,0,0,0,0,
0,0,1185,0,0,0,0,0,0,0,0,0,0,0,0,0,
0,0,1185,0,0,0,0,0,0,0,0,0,0,0,0,0
</chunk>
   <chunk x="80" y="0" width="16" height="16">
1185,1185,1185,1185,1185,1185,1185,1185,1185,1185,1185,1185,1185,1185,1185,1185,
1185,1185,1185,1185,1185,1185,1185,1185,1185,1185,1185,1185,1185,1185,1185,1185,
1185,1185,1185,1185,1185,1185,1185,1185,1185,1185,1185,1185,1185,1185,1185,1185,
1185,1185,1185,1185,1185,1185,1185,1185,1185,1185,1185,1185,1185,1185,1185,1185,
1185,1185,1185,1185,1185,1185,1185,1185,1185,1185,1185,1185,0,0,1185,1185,
1185,1185,1185,1185,1185,1185,1185,1185,1185,1185,1185,1185,0,0,1185,1185,
1185,1185,1185,1185,1185,1185,1185,1185,1185,1185,1185,1185,0,0,1185,1185,
1185,1185,1185,1185,1185,1185,0,0,1185,1185,1185,1185,0,0,1185,1185,
1185,1185,1185,1185,1185,1185,1185,1185,1185,1185,1185,1185,0,0,1185,1185,
1185,1185,1185,1185,1185,1185,1185,1185,1185,1185,0,1185,0,0,1185,1185,
1185,1185,1185,1185,1185,1185,1185,1185,1185,1185,1185,1185,0,0,1185,1185,
1185,0,0,0,1185,1185,1185,1185,1185,1185,1185,1185,0,0,1185,1185,
0,0,0,0,0,0,0,0,0,0,0,0,0,0,0,1185,
0,0,0,0,0,0,0,0,0,0,0,0,0,0,0,0,
0,0,0,0,0,0,0,0,0,0,0,0,0,0,0,0,
0,0,0,0,0,0,0,0,0,0,0,0,0,0,0,0
</chunk>
   <chunk x="96" y="0" width="16" height="16">
1185,1185,1185,1185,1185,1185,1185,1185,1185,1185,1185,1185,1185,1185,0,0,
1185,1185,1185,1185,1185,1185,1185,1185,1185,1185,1185,1185,1185,1185,0,0,
1185,1185,1185,1185,1185,1185,1185,1185,1185,1185,1185,1185,1185,1185,0,0,
1185,1185,1185,1185,1185,1185,1185,1185,1185,1185,1185,0,0,1185,0,0,
1185,1185,1185,1185,1185,1185,1185,1185,1185,1185,1185,0,0,1185,0,0,
1185,1185,1185,1185,1185,1185,1185,1185,1185,1185,1185,0,0,1185,0,0,
1185,1185,1185,1185,1185,1185,1185,1185,1185,1185,1185,0,0,1185,0,0,
1185,1185,1185,1185,1185,1185,1185,1185,1185,1185,1185,0,0,1185,0,0,
1185,1185,1185,1185,1185,1185,1185,1185,1185,1185,1185,0,0,1185,0,0,
1185,1185,1185,1185,1185,1185,1185,1185,1185,1185,1185,0,0,1185,0,0,
1185,1185,1185,1185,1185,1185,1185,1185,1185,1185,1185,0,0,1185,0,0,
1185,1185,1185,1185,1185,1185,1185,1185,1185,1185,1185,0,0,1185,0,0,
1185,1185,1185,1185,1185,1185,0,0,0,0,0,0,0,1185,0,0,
0,0,0,0,0,0,0,0,0,0,0,0,0,1185,0,0,
0,0,0,0,0,0,0,0,0,0,0,0,0,1185,0,0,
0,0,0,0,0,0,0,0,0,0,0,0,0,1185,0,0
</chunk>
   <chunk x="-48" y="16" width="16" height="16">
0,0,0,0,0,0,0,0,0,0,0,0,0,0,0,1185,
0,0,0,0,0,0,0,0,0,0,0,0,0,0,0,1185,
0,0,0,0,0,0,0,0,0,0,0,0,0,0,0,1185,
0,0,0,0,0,0,0,0,0,0,0,0,0,0,0,1185,
0,0,0,0,0,0,0,0,0,0,0,0,0,0,0,1185,
0,0,0,0,0,0,0,0,0,0,0,0,0,0,0,1185,
0,0,0,0,0,0,0,0,0,0,0,0,0,0,0,1185,
0,0,0,0,0,0,0,0,0,0,0,0,0,0,0,1185,
0,0,0,0,0,0,0,0,0,0,0,0,0,0,0,1185,
0,0,0,0,0,0,0,0,0,0,0,0,0,0,0,1185,
0,0,0,0,0,0,0,0,0,0,0,0,0,0,0,1185,
0,0,0,0,0,0,0,0,0,0,0,0,0,0,0,1185,
0,0,0,0,0,0,0,0,0,0,0,0,0,0,0,1185,
0,0,0,0,0,0,0,0,0,0,0,0,0,0,0,1185,
0,0,0,0,0,0,0,0,0,0,0,0,0,0,0,1185,
0,0,0,0,0,0,0,0,0,0,0,0,0,0,0,1185
</chunk>
   <chunk x="-32" y="16" width="16" height="16">
0,0,0,0,0,1185,0,0,0,0,0,0,0,0,0,0,
0,0,0,0,0,1185,0,0,0,0,0,0,0,0,0,0,
0,0,0,0,0,1185,0,0,0,0,0,0,0,0,0,0,
0,0,0,0,0,1185,0,0,0,0,0,0,0,0,0,0,
0,0,0,0,0,1185,0,0,0,0,0,0,0,0,0,0,
0,0,0,0,0,1185,0,0,0,0,0,0,0,0,0,0,
0,0,0,0,0,1185,0,0,0,0,0,0,0,0,0,0,
0,0,0,0,0,1185,1185,1185,1185,1185,1185,1185,1185,1185,1185,1185,
0,0,0,0,0,1185,0,0,0,0,0,1185,1185,0,0,0,
0,0,0,0,0,1185,0,0,0,0,0,1185,1185,0,0,0,
0,0,0,0,0,1185,0,0,0,0,0,0,0,0,0,0,
0,0,0,0,0,1185,0,0,0,0,0,0,0,0,0,0,
0,0,0,0,0,1185,0,0,0,0,0,0,0,0,0,0,
0,0,0,0,0,1185,1185,1185,1185,1185,1185,1185,1185,1185,1185,1185,
0,0,0,0,0,0,0,0,0,0,0,0,0,0,0,0,
0,0,0,0,0,0,0,0,0,0,0,0,0,0,0,0
</chunk>
   <chunk x="-16" y="16" width="16" height="16">
0,0,0,1185,0,0,0,1185,0,0,0,0,0,0,0,0,
0,0,0,1185,0,0,0,1185,0,0,0,0,0,0,0,0,
0,0,0,1185,0,0,0,1185,0,0,0,0,0,0,0,0,
0,0,0,1185,0,0,0,1185,0,0,0,0,0,0,0,0,
0,0,0,1185,0,0,0,1185,1185,1185,1185,0,0,0,0,0,
0,0,0,1185,0,0,0,0,0,0,1185,0,0,0,0,0,
0,1185,1185,1185,0,0,0,0,0,0,1185,0,0,0,0,0,
1185,0,0,0,0,0,0,0,0,0,1185,1185,1185,1185,1185,1185,
0,0,0,0,0,0,0,0,0,0,0,0,0,0,1185,1185,
0,0,0,0,0,0,0,0,0,0,0,0,0,0,1185,1185,
0,0,0,0,0,0,0,0,0,0,0,0,0,0,1185,1185,
0,0,0,0,0,0,0,0,0,0,0,0,0,0,1185,1185,
0,0,0,0,0,0,0,0,0,0,0,0,0,0,1185,1185,
1185,0,0,0,0,0,0,0,0,0,1185,1185,1185,1185,1185,1185,
0,0,0,0,0,0,0,0,0,0,0,0,0,0,0,0,
0,0,0,0,0,0,0,0,0,0,0,0,0,0,0,0
</chunk>
   <chunk x="0" y="16" width="16" height="16">
0,0,0,0,1185,1185,0,0,0,0,0,0,0,0,0,0,
0,0,0,0,0,1185,0,0,0,0,0,0,0,0,0,0,
0,0,0,0,0,1185,0,0,0,0,0,0,0,0,0,0,
0,0,0,0,0,1185,0,0,0,0,0,0,0,0,0,0,
0,0,0,0,0,1185,0,0,0,0,0,0,0,0,0,0,
0,0,0,0,0,1185,0,0,0,0,0,0,0,0,0,0,
0,0,0,0,0,1185,0,0,0,0,0,0,0,0,0,0,
1185,1185,1185,1185,1185,1185,0,0,0,0,0,0,0,0,0,0,
1185,1185,0,0,0,1185,0,0,0,0,0,0,0,0,0,0,
1185,1185,0,0,0,1185,0,0,0,0,0,0,0,0,0,0,
1185,1185,0,0,0,1185,0,0,0,0,0,0,0,0,0,0,
1185,1185,0,0,0,1185,0,0,0,0,0,0,0,0,0,0,
1185,1185,0,0,0,1185,0,0,0,0,0,0,0,0,0,0,
1185,1185,1185,1185,1185,1185,0,0,0,0,0,0,0,0,0,0,
0,0,0,0,0,0,0,0,0,0,0,0,0,0,0,0,
0,0,0,0,0,0,0,0,0,0,0,0,0,0,0,0
</chunk>
   <chunk x="16" y="16" width="16" height="16">
1185,0,0,0,0,0,0,0,0,0,0,0,0,0,0,0,
1185,0,0,0,0,0,0,0,0,0,0,0,0,0,0,0,
1185,0,0,0,0,0,0,1185,1185,1185,1185,1185,1185,0,0,0,
1185,0,0,0,0,0,0,1185,0,0,0,0,1185,0,0,0,
1185,1185,1185,1185,1185,1185,1185,1185,0,0,0,0,1185,1185,1185,1185,
0,0,0,1185,0,0,1185,1185,0,0,0,0,1185,1185,0,0,
0,0,0,0,0,0,0,0,0,0,0,0,0,0,0,0,
0,0,0,0,0,0,0,0,0,0,0,0,0,0,0,0,
0,0,0,0,0,0,0,0,0,0,0,0,0,0,0,0,
0,0,0,0,0,0,0,0,0,0,0,0,0,0,0,0,
0,0,0,0,0,0,0,0,0,0,0,0,0,0,0,0,
0,0,0,0,0,0,0,0,0,0,0,0,0,0,0,0,
0,0,0,0,0,0,0,0,0,0,0,0,0,0,0,0,
0,0,0,0,0,0,0,0,0,0,0,0,0,0,0,0,
0,0,0,0,0,0,0,0,0,0,0,0,0,0,0,0,
0,0,0,0,0,0,0,0,0,0,0,0,0,0,0,0
</chunk>
   <chunk x="32" y="16" width="16" height="16">
0,0,0,1185,0,0,0,0,0,0,0,0,1185,0,0,0,
0,0,0,1185,0,0,0,0,0,0,0,0,1185,0,0,0,
0,0,0,1185,0,0,0,0,0,0,0,0,1185,0,0,0,
0,0,0,1185,0,0,0,0,0,0,0,0,1185,0,0,0,
1185,1185,1185,1185,0,0,0,0,0,0,0,0,1185,0,0,0,
1185,0,1185,0,0,0,0,0,0,0,0,0,1185,1185,1185,1185,
0,0,0,0,0,0,0,0,0,0,0,0,0,0,0,0,
0,0,0,0,0,0,0,0,0,0,0,0,0,0,0,0,
0,0,0,0,0,0,0,0,0,0,0,0,0,0,0,0,
0,0,0,0,0,0,0,0,0,0,0,0,0,0,0,0,
0,0,0,0,0,0,0,0,0,0,0,0,0,0,0,0,
0,0,0,0,0,0,0,0,0,0,0,0,0,0,0,0,
0,0,0,0,0,0,0,0,0,0,0,0,0,0,0,0,
0,0,0,0,0,0,0,0,0,0,0,0,0,0,0,0,
0,0,0,0,0,0,0,0,0,0,0,0,0,0,0,0,
0,0,0,0,0,0,0,0,0,0,0,0,0,0,0,0
</chunk>
   <chunk x="48" y="16" width="16" height="16">
0,0,0,1185,1185,0,0,0,0,0,0,1185,0,0,0,0,
0,0,0,1185,0,0,0,0,0,0,0,1185,0,0,0,0,
0,0,0,1185,0,0,0,0,0,0,0,1185,0,0,0,0,
0,0,0,1185,1185,1185,1185,1185,1185,1185,1185,1185,0,0,0,0,
0,0,0,1185,0,0,0,0,0,0,0,1185,0,1185,1185,1185,
1185,1185,0,1185,0,0,0,0,0,0,0,1185,0,1185,1185,1185,
0,1185,0,1185,0,0,0,0,0,0,0,1185,0,1185,0,0,
0,1185,1185,1185,0,0,0,0,0,0,0,1185,1185,1185,0,0,
0,0,0,0,0,0,0,0,0,0,0,0,0,0,0,0,
0,0,0,0,0,0,0,0,0,0,0,0,0,0,0,0,
0,0,0,0,0,0,0,0,0,0,0,0,0,0,0,0,
0,0,0,0,0,0,0,0,0,0,0,0,0,0,0,0,
0,0,0,0,0,0,0,0,0,0,0,0,0,0,0,0,
0,0,0,0,0,0,0,0,0,0,0,0,0,0,0,0,
0,0,0,0,1185,1185,1185,1185,1185,1185,0,0,0,0,0,0,
0,0,0,0,1185,0,1185,1185,1185,1185,0,0,0,0,0,0
</chunk>
   <chunk x="64" y="16" width="16" height="16">
0,0,1185,0,0,0,0,0,0,0,0,0,0,0,0,0,
0,0,1185,0,0,0,0,0,0,0,0,0,0,0,1185,1185,
0,0,1185,0,0,0,0,0,0,0,0,0,0,0,1185,1185,
0,0,1185,0,0,0,0,0,0,0,0,0,0,0,1185,1185,
1185,1185,1185,0,0,0,0,0,0,1185,0,0,0,0,1185,1185,
1185,1185,1185,0,0,0,0,0,0,1185,0,0,0,0,1185,1185,
0,0,0,0,0,0,0,0,0,1185,0,0,0,0,1185,1185,
0,0,0,0,0,0,0,0,0,1185,0,0,0,0,1185,1185,
0,0,0,0,0,0,0,0,0,1185,0,0,0,0,1185,1185,
0,0,0,0,0,0,0,0,0,1185,0,0,0,0,1185,1185,
0,0,0,0,0,0,0,0,0,1185,0,0,0,0,1185,1185,
0,0,0,0,0,0,0,0,0,1185,0,0,0,0,1185,1185,
0,0,0,0,0,0,0,0,0,1185,0,0,0,0,1185,1185,
0,0,0,0,0,0,0,0,0,1185,0,0,0,0,0,0,
0,0,0,0,0,0,0,0,0,1185,0,0,0,0,0,0,
0,0,0,0,0,0,0,0,0,1185,0,0,0,0,0,0
</chunk>
   <chunk x="80" y="16" width="16" height="16">
0,0,0,0,0,0,0,0,0,0,0,0,0,0,0,0,
1185,1185,1185,1185,1185,1185,1185,1185,1185,1185,1185,1185,1185,1185,1185,1185,
1185,1185,1185,1185,1185,1185,1185,1185,1185,1185,1185,1185,1185,1185,1185,1185,
1185,1185,1185,1185,1185,1185,1185,1185,1185,1185,1185,1185,1185,1185,1185,1185,
1185,1185,1185,1185,1185,1185,1185,1185,1185,1185,1185,1185,1185,1185,1185,1185,
1185,1185,1185,1185,1185,1185,1185,1185,1185,1185,1185,1185,1185,1185,1185,1185,
1185,1185,1185,1185,1185,1185,1185,1185,1185,1185,1185,1185,1185,1185,1185,1185,
1185,1185,1185,1185,1185,1185,1185,1185,1185,1185,1185,1185,1185,1185,1185,1185,
1185,1185,1185,1185,1185,1185,1185,1185,1185,1185,1185,1185,1185,1185,1185,1185,
1185,1185,1185,1185,1185,1185,1185,1185,1185,1185,1185,1185,1185,1185,1185,1185,
1185,1185,1185,1185,1185,1185,1185,1185,1185,1185,1185,1185,1185,1185,1185,1185,
1185,1185,1185,1185,1185,1185,1185,1185,1185,1185,1185,1185,1185,1185,1185,1185,
1185,1185,1185,1185,1185,1185,1185,1185,1185,1185,1185,1185,1185,1185,1185,1185,
0,0,0,0,0,0,0,0,0,0,0,0,0,0,0,0,
0,0,0,0,0,0,0,0,0,0,0,0,0,0,0,0,
0,0,0,0,0,0,0,0,0,0,0,0,0,0,0,0
</chunk>
   <chunk x="96" y="16" width="16" height="16">
0,0,0,0,0,0,0,0,0,0,0,0,0,1185,0,0,
1185,1185,1185,1185,1185,1185,1185,1185,1185,1185,1185,0,0,1185,0,0,
1185,1185,1185,1185,1185,1185,1185,1185,1185,1185,1185,0,0,1185,0,0,
1185,1185,1185,1185,1185,1185,1185,1185,1185,1185,1185,0,0,1185,0,0,
1185,1185,1185,1185,1185,1185,1185,1185,1185,1185,1185,0,0,1185,0,0,
1185,1185,1185,1185,1185,1185,1185,1185,1185,1185,1185,0,0,1185,0,0,
1185,1185,1185,1185,1185,1185,1185,1185,1185,1185,1185,0,0,1185,0,0,
1185,1185,1185,1185,1185,1185,1185,1185,1185,1185,1185,0,0,1185,0,0,
1185,1185,1185,1185,1185,1185,1185,1185,1185,1185,1185,0,0,1185,0,0,
1185,1185,1185,1185,1185,1185,1185,1185,1185,1185,1185,0,0,1185,0,0,
1185,1185,1185,1185,1185,1185,1185,1185,1185,1185,1185,0,0,1185,0,0,
1185,1185,1185,1185,1185,1185,1185,1185,1185,1185,1185,0,0,1185,0,0,
1185,1185,1185,1185,1185,1185,1185,1185,1185,1185,1185,0,0,1185,0,0,
0,0,0,0,0,0,0,0,0,0,0,0,0,1185,0,0,
0,0,0,0,0,0,0,0,0,0,0,0,0,1185,0,0,
0,0,0,0,0,0,0,0,0,0,0,0,0,1185,0,0
</chunk>
   <chunk x="-48" y="32" width="16" height="16">
0,0,0,0,0,0,0,0,0,0,0,0,0,0,0,1185,
0,0,0,0,0,0,0,0,0,0,0,0,0,0,0,1185,
0,0,0,0,0,0,0,0,0,0,0,0,0,0,0,1185,
0,0,0,0,0,0,0,0,0,0,0,0,0,0,0,1185,
0,0,0,0,0,0,0,0,0,0,0,0,0,0,0,0,
0,0,0,0,0,0,0,0,0,0,0,0,0,0,0,0,
0,0,0,0,0,0,0,0,0,0,0,0,0,0,0,0,
0,0,0,0,0,0,0,0,0,0,0,0,0,0,0,0,
0,0,0,0,0,0,0,0,0,0,0,0,0,0,0,0,
0,0,0,0,0,0,0,0,0,0,0,0,0,0,0,0,
0,0,0,0,0,0,0,0,0,0,0,0,0,0,0,0,
0,0,0,0,0,0,0,0,0,0,0,0,0,0,0,0,
0,0,0,0,0,0,0,0,0,0,0,0,0,0,0,0,
0,0,0,0,0,0,0,0,0,0,0,0,0,0,0,0,
0,0,0,0,0,0,0,0,0,0,0,0,0,0,0,0,
0,0,0,0,0,0,0,0,0,0,0,0,0,0,0,0
</chunk>
   <chunk x="-32" y="32" width="16" height="16">
0,0,0,0,0,0,0,0,0,0,0,0,0,0,0,0,
0,0,0,0,0,0,0,0,0,0,0,0,0,0,0,0,
1185,1185,1185,0,0,0,0,0,0,0,0,0,0,0,0,0,
1185,1185,1185,1185,1185,1185,1185,1185,1185,1185,1185,1185,1185,1185,1185,1185,
0,0,0,0,0,0,0,0,0,0,0,0,0,0,0,0,
0,0,0,0,0,0,0,0,0,0,0,0,0,0,0,0,
0,0,0,0,0,0,0,0,0,0,0,0,0,0,0,0,
0,0,0,0,0,0,0,0,0,0,0,0,0,0,0,0,
0,0,0,0,0,0,0,0,0,0,0,0,0,0,0,0,
0,0,0,0,0,0,0,0,0,0,0,0,0,0,0,0,
0,0,0,0,0,0,0,0,0,0,0,0,0,0,0,0,
0,0,0,0,0,0,0,0,0,0,0,0,0,0,0,0,
0,0,0,0,0,0,0,0,0,0,0,0,0,0,0,0,
0,0,0,0,0,0,0,0,0,0,0,0,0,0,0,0,
0,0,0,0,0,0,0,0,0,0,0,0,0,0,0,0,
0,0,0,0,0,0,0,0,0,0,0,0,0,0,0,0
</chunk>
   <chunk x="-16" y="32" width="16" height="16">
0,0,0,0,0,0,0,0,0,0,0,0,0,0,0,0,
0,0,0,0,0,0,0,0,0,0,0,0,0,0,0,0,
0,0,0,0,0,0,0,0,0,0,0,0,0,0,0,0,
1185,1185,1185,1185,1185,1185,1185,1185,1185,1185,1185,1185,1185,1185,1185,1185,
0,0,0,0,0,0,0,0,0,0,0,0,0,0,0,0,
0,0,0,0,0,0,0,0,0,0,0,0,0,0,0,0,
0,0,0,0,0,0,0,0,0,0,0,0,0,0,0,0,
0,0,0,0,0,0,0,0,0,0,0,0,0,0,0,0,
0,0,0,0,0,0,0,0,0,0,0,0,0,0,0,0,
0,0,0,0,0,0,0,0,0,0,0,0,0,0,0,0,
0,0,0,0,0,0,0,0,0,0,0,0,0,0,0,0,
0,0,0,0,0,0,0,0,0,0,0,0,0,0,0,0,
0,0,0,0,0,0,0,0,0,0,0,0,0,0,0,0,
0,0,0,0,0,0,0,0,0,0,0,0,0,0,0,0,
0,0,0,0,0,0,0,0,0,0,0,0,0,0,0,0,
0,0,0,0,0,0,0,0,0,0,0,0,0,0,0,0
</chunk>
   <chunk x="0" y="32" width="16" height="16">
0,0,0,0,0,0,0,0,0,0,0,0,0,0,0,0,
0,0,0,0,0,0,0,0,0,0,0,0,0,0,0,0,
0,0,0,0,0,0,0,0,0,0,0,0,0,0,0,0,
1185,1185,1185,1185,1185,1185,1185,1185,1185,1185,1185,1185,1185,1185,1185,1185,
0,0,0,0,0,0,0,0,0,0,0,0,0,0,0,0,
0,0,0,0,0,0,0,0,0,0,0,0,0,0,0,0,
0,0,0,0,0,0,0,0,0,0,0,0,0,0,0,0,
0,0,0,0,0,0,0,0,0,0,0,0,0,0,0,0,
0,0,0,0,0,0,0,0,0,0,0,0,0,0,0,0,
0,0,0,0,0,0,0,0,0,0,0,0,0,0,0,0,
0,0,0,0,0,0,0,0,0,0,0,0,0,0,0,0,
0,0,0,0,0,0,0,0,0,0,0,0,0,0,0,0,
0,0,0,0,0,0,0,0,0,0,0,0,0,0,0,0,
0,0,0,0,0,0,0,0,0,0,0,0,0,0,0,0,
0,0,0,0,0,0,0,0,0,0,0,0,0,0,0,0,
0,0,0,0,0,0,0,0,0,0,0,0,0,0,0,0
</chunk>
   <chunk x="16" y="32" width="16" height="16">
0,0,0,0,0,0,0,0,0,0,0,0,0,0,0,0,
0,0,0,0,0,0,0,0,0,0,0,0,0,0,0,0,
0,0,0,0,0,0,0,0,0,0,0,0,0,0,0,0,
1185,1185,1185,1185,1185,1185,1185,1185,1185,1185,1185,1185,1185,1185,1185,1185,
0,0,0,0,0,0,0,0,0,0,0,0,0,0,0,0,
0,0,0,0,0,0,0,0,0,0,0,0,0,0,0,0,
0,0,0,0,0,0,0,0,0,0,0,0,0,0,0,0,
0,0,0,0,0,0,0,0,0,0,0,0,0,0,0,0,
0,0,0,0,0,0,0,0,0,0,0,0,0,0,0,0,
0,0,0,0,0,0,0,0,0,0,0,0,0,0,0,0,
0,0,0,0,0,0,0,0,0,0,0,0,0,0,0,0,
0,0,0,0,0,0,0,0,0,0,0,0,0,0,0,0,
0,0,0,0,0,0,0,0,0,0,0,0,0,0,0,0,
0,0,0,0,0,0,0,0,0,0,0,0,0,0,0,0,
0,0,0,0,0,0,0,0,0,0,0,0,0,0,0,0,
0,0,0,0,0,0,0,0,0,0,0,0,0,0,0,0
</chunk>
   <chunk x="32" y="32" width="16" height="16">
0,0,0,0,0,0,0,0,0,0,0,0,0,0,0,0,
0,0,0,0,0,0,0,0,0,0,0,0,0,0,0,0,
0,0,0,0,0,0,0,0,0,0,0,0,0,0,0,0,
1185,1185,1185,1185,1185,1185,1185,1185,1185,1185,1185,1185,1185,1185,1185,1185,
0,0,0,0,0,0,0,0,0,0,0,0,0,0,0,0,
0,0,0,0,0,0,0,0,0,0,0,0,0,0,0,0,
0,0,0,0,0,0,0,0,0,0,0,0,0,0,0,0,
0,0,0,0,0,0,0,0,0,0,0,0,0,0,0,0,
0,0,0,0,0,0,0,0,0,0,0,0,0,0,0,0,
0,0,0,0,0,0,0,0,0,0,0,0,0,0,0,0,
0,0,0,0,0,0,0,0,0,0,0,0,0,0,0,0,
0,0,0,0,0,0,0,0,0,0,0,0,0,0,0,0,
0,0,0,0,0,0,0,0,0,0,0,0,0,0,0,0,
0,0,0,0,0,0,0,0,0,0,0,0,0,0,0,0,
0,0,0,0,0,0,0,0,0,0,0,0,0,0,0,0,
0,0,0,0,0,0,0,0,0,0,0,0,0,0,0,0
</chunk>
   <chunk x="48" y="32" width="16" height="16">
0,0,0,0,1185,0,0,0,0,1185,0,0,0,0,0,0,
0,0,0,0,1185,1185,1185,1185,1185,1185,0,0,0,0,0,0,
0,0,0,0,0,0,0,0,0,0,0,0,0,0,0,0,
1185,1185,1185,1185,1185,1185,1185,1185,1185,1185,1185,1185,1185,1185,1185,1185,
0,0,0,0,0,0,0,0,0,0,0,0,0,0,0,0,
0,0,0,0,0,0,0,0,0,0,0,0,0,0,0,0,
0,0,0,0,0,0,0,0,0,0,0,0,0,0,0,0,
0,0,0,0,0,0,0,0,0,0,0,0,0,0,0,0,
0,0,0,0,0,0,0,0,0,0,0,0,0,0,0,0,
0,0,0,0,0,0,0,0,0,0,0,0,0,0,0,0,
0,0,0,0,0,0,0,0,0,0,0,0,0,0,0,0,
0,0,0,0,0,0,0,0,0,0,0,0,0,0,0,0,
0,0,0,0,0,0,0,0,0,0,0,0,0,0,0,0,
0,0,0,0,0,0,0,0,0,0,0,0,0,0,0,0,
0,0,0,0,0,0,0,0,0,0,0,0,0,0,0,0,
0,0,0,0,0,0,0,0,0,0,0,0,0,0,0,0
</chunk>
   <chunk x="64" y="32" width="16" height="16">
0,0,0,0,0,0,0,0,0,1185,0,0,0,0,0,0,
0,0,0,0,0,0,0,0,0,1185,1185,1185,0,0,0,0,
0,0,0,0,0,0,1185,1185,1185,1185,1185,1185,0,0,0,0,
1185,1185,1185,1185,1185,1185,1185,1185,1185,1185,1185,1185,1185,1185,1185,1185,
0,0,0,0,0,0,0,0,0,0,0,0,0,0,0,0,
0,0,0,0,0,0,0,0,0,0,0,0,0,0,0,0,
0,0,0,0,0,0,0,0,0,0,0,0,0,0,0,0,
0,0,0,0,0,0,0,0,0,0,0,0,0,0,0,0,
0,0,0,0,0,0,0,0,0,0,0,0,0,0,0,0,
0,0,0,0,0,0,0,0,0,0,0,0,0,0,0,0,
0,0,0,0,0,0,0,0,0,0,0,0,0,0,0,0,
0,0,0,0,0,0,0,0,0,0,0,0,0,0,0,0,
0,0,0,0,0,0,0,0,0,0,0,0,0,0,0,0,
0,0,0,0,0,0,0,0,0,0,0,0,0,0,0,0,
0,0,0,0,0,0,0,0,0,0,0,0,0,0,0,0,
0,0,0,0,0,0,0,0,0,0,0,0,0,0,0,0
</chunk>
   <chunk x="80" y="32" width="16" height="16">
0,0,0,0,0,0,0,0,0,0,0,0,0,0,0,0,
0,0,0,0,0,0,0,0,0,0,0,0,0,0,0,0,
0,0,0,0,0,0,0,0,0,0,0,0,0,0,0,0,
1185,1185,1185,1185,1185,1185,1185,1185,1185,1185,1185,1185,1185,1185,1185,1185,
0,0,0,0,0,0,0,0,0,0,0,0,0,0,0,0,
0,0,0,0,0,0,0,0,0,0,0,0,0,0,0,0,
0,0,0,0,0,0,0,0,0,0,0,0,0,0,0,0,
0,0,0,0,0,0,0,0,0,0,0,0,0,0,0,0,
0,0,0,0,0,0,0,0,0,0,0,0,0,0,0,0,
0,0,0,0,0,0,0,0,0,0,0,0,0,0,0,0,
0,0,0,0,0,0,0,0,0,0,0,0,0,0,0,0,
0,0,0,0,0,0,0,0,0,0,0,0,0,0,0,0,
0,0,0,0,0,0,0,0,0,0,0,0,0,0,0,0,
0,0,0,0,0,0,0,0,0,0,0,0,0,0,0,0,
0,0,0,0,0,0,0,0,0,0,0,0,0,0,0,0,
0,0,0,0,0,0,0,0,0,0,0,0,0,0,0,0
</chunk>
   <chunk x="96" y="32" width="16" height="16">
0,0,0,0,0,0,0,0,0,1185,1185,1185,1185,1185,0,0,
0,0,0,0,0,0,0,0,0,1185,1185,1185,1185,1185,0,0,
0,0,0,0,0,0,0,0,0,1185,1185,1185,1185,1185,0,0,
1185,1185,1185,1185,1185,1185,1185,1185,1185,1185,1185,1185,1185,1185,0,0,
0,0,0,0,0,0,0,0,0,0,0,0,0,0,0,0,
0,0,0,0,0,0,0,0,0,0,0,0,0,0,0,0,
0,0,0,0,0,0,0,0,0,0,0,0,0,0,0,0,
0,0,0,0,0,0,0,0,0,0,0,0,0,0,0,0,
0,0,0,0,0,0,0,0,0,0,0,0,0,0,0,0,
0,0,0,0,0,0,0,0,0,0,0,0,0,0,0,0,
0,0,0,0,0,0,0,0,0,0,0,0,0,0,0,0,
0,0,0,0,0,0,0,0,0,0,0,0,0,0,0,0,
0,0,0,0,0,0,0,0,0,0,0,0,0,0,0,0,
0,0,0,0,0,0,0,0,0,0,0,0,0,0,0,0,
0,0,0,0,0,0,0,0,0,0,0,0,0,0,0,0,
0,0,0,0,0,0,0,0,0,0,0,0,0,0,0,0
</chunk>
  </data>
 </layer>
 <layer id="16" name="role" width="15" height="15" visible="0">
  <data encoding="csv">
   <chunk x="48" y="-16" width="16" height="16">
0,0,0,0,0,0,0,0,0,0,0,0,0,0,0,0,
0,0,0,0,0,0,0,0,0,0,0,0,0,0,0,0,
0,0,0,0,0,0,0,0,0,0,0,0,0,0,0,0,
0,0,0,0,0,0,0,0,0,0,0,0,0,0,0,0,
0,0,0,0,0,0,0,0,0,0,0,0,0,0,0,0,
0,0,0,0,0,0,0,0,0,0,0,0,0,0,0,0,
0,0,0,0,0,0,0,0,1182,0,0,0,0,0,0,0,
0,0,0,0,0,0,0,0,0,0,0,0,0,0,0,0,
0,0,0,0,0,0,0,0,0,0,0,0,0,0,0,0,
0,0,0,0,0,0,0,0,0,0,0,0,0,0,0,0,
0,0,0,0,0,0,0,0,0,0,0,0,0,0,0,0,
0,0,0,0,0,0,0,0,0,0,0,0,0,0,0,0,
0,0,0,0,0,0,0,0,0,0,0,0,0,0,0,0,
0,0,0,0,0,0,0,0,0,0,0,0,0,0,0,0,
0,0,0,0,0,0,0,0,0,0,0,0,0,0,0,0,
0,0,0,0,0,0,0,0,0,0,0,0,0,0,0,0
</chunk>
  </data>
 </layer>
 <layer id="19" name="leave_event_1" width="15" height="15" visible="0">
  <data encoding="csv">
   <chunk x="48" y="-48" width="16" height="16">
0,0,0,0,0,0,0,0,0,0,0,0,0,0,0,0,
0,0,0,0,0,0,0,0,0,0,0,0,0,0,0,0,
0,0,0,0,0,0,0,0,0,0,0,0,0,0,0,0,
0,0,0,0,0,0,0,0,0,0,0,0,0,0,0,0,
0,0,0,0,0,0,0,0,0,0,0,0,0,0,0,0,
0,0,0,0,0,0,0,0,0,0,0,0,0,0,0,0,
0,0,0,0,0,0,0,0,0,0,0,0,0,0,0,0,
0,0,0,0,0,0,0,0,0,0,0,0,0,0,0,0,
0,0,0,0,0,0,0,0,0,0,0,0,0,0,0,0,
0,0,0,0,0,0,0,0,0,0,0,0,0,0,0,0,
0,0,1236,1236,1236,1236,1236,1236,1236,1236,1236,1236,1236,1236,1236,0,
0,0,1236,1236,1236,1236,1236,1236,1236,1236,1236,1236,1236,1236,1236,0,
0,0,0,0,0,0,0,0,0,0,0,0,0,0,0,0,
0,0,0,0,0,0,0,0,0,0,0,0,0,0,0,0,
0,0,0,0,0,0,0,0,0,0,0,0,0,0,0,0,
0,0,0,0,0,0,0,0,0,0,0,0,0,0,0,0
</chunk>
  </data>
 </layer>
 <layer id="36" name="leave_event_left" width="15" height="15" visible="0">
  <data encoding="csv">
   <chunk x="-48" y="-32" width="16" height="16">
0,0,0,0,0,0,0,0,0,0,0,0,0,0,0,0,
0,0,0,0,0,0,0,0,0,0,0,0,0,0,0,0,
0,0,0,0,0,0,0,0,0,0,0,0,0,0,0,0,
0,0,0,0,0,0,0,0,0,0,0,0,0,0,0,0,
0,0,0,0,0,0,0,0,0,0,0,0,0,0,0,0,
0,0,0,0,0,0,0,0,0,0,0,0,0,0,0,0,
0,0,0,0,0,0,0,0,0,0,0,0,0,0,0,0,
0,0,0,0,0,0,0,0,0,0,0,0,0,0,0,0,
0,0,0,0,0,0,0,0,0,0,0,0,0,0,0,0,
0,0,0,0,0,0,0,0,0,0,0,0,0,0,0,0,
0,0,0,0,0,0,0,0,0,0,0,0,0,0,0,0,
0,0,0,0,0,0,0,0,0,0,0,0,0,0,0,0,
0,0,0,0,0,0,0,0,0,0,0,0,0,0,0,0,
0,0,0,0,0,0,0,0,0,0,0,0,0,0,0,0,
0,0,0,0,0,0,0,0,0,0,0,0,0,0,1236,1236,
0,0,0,0,0,0,0,0,0,0,0,0,0,0,1236,1236
</chunk>
   <chunk x="-48" y="-16" width="16" height="16">
0,0,0,0,0,0,0,0,0,0,0,0,0,0,1236,1236,
0,0,0,0,0,0,0,0,0,0,0,0,0,0,1236,1236,
0,0,0,0,0,0,0,0,0,0,0,0,0,0,1236,1236,
0,0,0,0,0,0,0,0,0,0,0,0,0,0,1236,1236,
0,0,0,0,0,0,0,0,0,0,0,0,0,0,1236,1236,
0,0,0,0,0,0,0,0,0,0,0,0,0,0,1236,1236,
0,0,0,0,0,0,0,0,0,0,0,0,0,0,1236,1236,
0,0,0,0,0,0,0,0,0,0,0,0,0,0,1236,1236,
0,0,0,0,0,0,0,0,0,0,0,0,0,0,0,0,
0,0,0,0,0,0,0,0,0,0,0,0,0,0,0,0,
0,0,0,0,0,0,0,0,0,0,0,0,0,0,0,0,
0,0,0,0,0,0,0,0,0,0,0,0,0,0,0,0,
0,0,0,0,0,0,0,0,0,0,0,0,0,0,0,0,
0,0,0,0,0,0,0,0,0,0,0,0,0,0,0,0,
0,0,0,0,0,0,0,0,0,0,0,0,0,0,0,0,
0,0,0,0,0,0,0,0,0,0,0,0,0,0,0,0
</chunk>
  </data>
 </layer>
 <layer id="37" name="leave_event_right" width="15" height="15" visible="0">
  <data encoding="csv">
   <chunk x="96" y="-32" width="16" height="16">
0,0,0,0,0,0,0,0,0,0,0,0,0,0,0,0,
0,0,0,0,0,0,0,0,0,0,0,0,0,0,0,0,
0,0,0,0,0,0,0,0,0,0,0,0,0,0,0,0,
0,0,0,0,0,0,0,0,0,0,0,0,0,0,0,0,
0,0,0,0,0,0,0,0,0,0,0,0,0,0,0,0,
0,0,0,0,0,0,0,0,0,0,0,0,0,0,0,0,
0,0,0,0,0,0,0,0,0,0,0,0,0,0,0,0,
0,0,0,0,0,0,0,0,0,0,0,0,0,0,0,0,
0,0,0,0,0,0,0,0,0,0,0,0,0,0,0,0,
0,0,0,0,0,0,0,0,0,0,0,0,0,0,0,0,
0,0,0,0,0,0,0,0,0,0,0,0,0,0,0,0,
0,0,0,0,0,0,0,0,0,0,0,0,0,0,0,0,
0,0,0,0,0,0,0,0,0,0,0,0,0,0,0,0,
0,0,0,0,0,0,0,0,0,0,0,0,0,1236,1236,0,
0,0,0,0,0,0,0,0,0,0,0,0,0,1236,1236,1236,
0,0,0,0,0,0,0,0,0,0,0,0,0,1236,1236,1236
</chunk>
   <chunk x="96" y="-16" width="16" height="16">
0,0,0,0,0,0,0,0,0,0,0,0,0,1236,1236,1236,
0,0,0,0,0,0,0,0,0,0,0,0,0,1236,1236,1236,
0,0,0,0,0,0,0,0,0,0,0,0,0,1236,1236,1236,
0,0,0,0,0,0,0,0,0,0,0,0,0,1236,1236,1236,
0,0,0,0,0,0,0,0,0,0,0,0,0,1236,1236,1236,
0,0,0,0,0,0,0,0,0,0,0,0,0,1236,1236,1236,
0,0,0,0,0,0,0,0,0,0,0,0,0,1236,1236,1236,
0,0,0,0,0,0,0,0,0,0,0,0,0,1236,1236,0,
0,0,0,0,0,0,0,0,0,0,0,0,0,1236,1236,0,
0,0,0,0,0,0,0,0,0,0,0,0,0,1236,1236,0,
0,0,0,0,0,0,0,0,0,0,0,0,0,1236,1236,0,
0,0,0,0,0,0,0,0,0,0,0,0,0,0,0,0,
0,0,0,0,0,0,0,0,0,0,0,0,0,0,0,0,
0,0,0,0,0,0,0,0,0,0,0,0,0,0,0,0,
0,0,0,0,0,0,0,0,0,0,0,0,0,0,0,0,
0,0,0,0,0,0,0,0,0,0,0,0,0,0,0,0
</chunk>
  </data>
 </layer>
 <layer id="20" name="shopping_event_1" width="15" height="15" visible="0">
  <data encoding="csv">
   <chunk x="-32" y="-32" width="16" height="16">
0,0,0,0,0,0,0,0,0,0,0,0,0,0,0,0,
0,0,0,0,0,0,0,0,0,0,0,0,0,0,0,0,
0,0,0,0,0,0,0,0,0,0,0,0,0,0,0,0,
0,0,0,0,0,0,0,0,0,0,0,0,0,0,0,0,
0,0,0,0,0,0,0,0,0,0,0,0,0,0,0,0,
0,0,0,0,0,0,0,0,0,0,0,0,0,0,0,0,
0,0,0,0,0,0,0,0,0,0,1236,1236,1236,1236,0,0,
0,0,0,0,0,0,0,0,0,0,0,0,0,0,0,0,
0,0,0,0,0,0,0,0,0,0,0,0,0,0,0,0,
0,0,0,0,0,0,0,0,0,0,0,0,0,0,0,0,
0,0,0,0,0,0,0,0,0,0,0,0,0,0,0,0,
0,0,0,0,0,0,0,0,0,0,0,0,0,0,0,0,
0,0,0,0,0,0,0,0,0,0,0,0,0,0,0,0,
0,0,0,0,0,0,0,0,0,0,0,0,0,0,0,0,
0,0,0,0,0,0,0,0,0,0,0,0,0,0,0,0,
0,0,0,0,0,0,0,0,0,0,0,0,0,0,0,0
</chunk>
  </data>
 </layer>
 <layer id="21" name="shopping_event_2" width="15" height="15" visible="0">
  <data encoding="csv">
   <chunk x="-16" y="-32" width="16" height="16">
0,0,0,0,0,0,0,0,0,0,0,0,0,0,0,0,
0,0,0,0,0,0,0,0,0,0,0,0,0,0,0,0,
0,0,0,0,0,0,0,0,0,0,0,0,0,0,0,0,
0,0,0,0,0,0,0,0,0,0,0,0,0,0,0,0,
0,0,0,0,0,0,0,0,0,0,0,0,0,0,0,0,
0,0,0,0,0,0,0,0,0,0,0,0,0,0,0,0,
0,0,1236,1236,1236,1236,1236,1236,0,0,0,0,0,0,0,0,
0,0,0,0,0,0,0,0,0,0,0,0,0,0,0,0,
0,0,0,0,0,0,0,0,0,0,0,0,0,0,0,0,
0,0,0,0,0,0,0,0,0,0,0,0,0,0,0,0,
0,0,0,0,0,0,0,0,0,0,0,0,0,0,0,0,
0,0,0,0,0,0,0,0,0,0,0,0,0,0,0,0,
0,0,0,0,0,0,0,0,0,0,0,0,0,0,0,0,
0,0,0,0,0,0,0,0,0,0,0,0,0,0,0,0,
0,0,0,0,0,0,0,0,0,0,0,0,0,0,0,0,
0,0,0,0,0,0,0,0,0,0,0,0,0,0,0,0
</chunk>
  </data>
 </layer>
 <layer id="22" name="shopping_event_3" width="15" height="15" visible="0">
  <data encoding="csv">
   <chunk x="-16" y="-32" width="16" height="16">
0,0,0,0,0,0,0,0,0,0,0,0,0,0,0,0,
0,0,0,0,0,0,0,0,0,0,0,0,0,0,0,0,
0,0,0,0,0,0,0,0,0,0,0,0,0,0,0,0,
0,0,0,0,0,0,0,0,0,0,0,0,0,0,0,0,
0,0,0,0,0,0,0,0,0,0,0,0,0,0,0,0,
0,0,0,0,0,0,0,0,0,0,0,0,1236,1236,1236,1236,
0,0,0,0,0,0,0,0,0,0,0,0,1236,1236,1236,1236,
0,0,0,0,0,0,0,0,0,0,0,0,0,0,0,0,
0,0,0,0,0,0,0,0,0,0,0,0,0,0,0,0,
0,0,0,0,0,0,0,0,0,0,0,0,0,0,0,0,
0,0,0,0,0,0,0,0,0,0,0,0,0,0,0,0,
0,0,0,0,0,0,0,0,0,0,0,0,0,0,0,0,
0,0,0,0,0,0,0,0,0,0,0,0,0,0,0,0,
0,0,0,0,0,0,0,0,0,0,0,0,0,0,0,0,
0,0,0,0,0,0,0,0,0,0,0,0,0,0,0,0,
0,0,0,0,0,0,0,0,0,0,0,0,0,0,0,0
</chunk>
   <chunk x="0" y="-32" width="16" height="16">
0,0,0,0,0,0,0,0,0,0,0,0,0,0,0,0,
0,0,0,0,0,0,0,0,0,0,0,0,0,0,0,0,
0,0,0,0,0,0,0,0,0,0,0,0,0,0,0,0,
0,0,0,0,0,0,0,0,0,0,0,0,0,0,0,0,
0,0,0,0,0,0,0,0,0,0,0,0,0,0,0,0,
1236,1236,1236,0,0,0,0,0,0,0,0,0,0,0,0,0,
1236,1236,1236,0,0,0,0,0,0,0,0,0,0,0,0,0,
0,0,0,0,0,0,0,0,0,0,0,0,0,0,0,0,
0,0,0,0,0,0,0,0,0,0,0,0,0,0,0,0,
0,0,0,0,0,0,0,0,0,0,0,0,0,0,0,0,
0,0,0,0,0,0,0,0,0,0,0,0,0,0,0,0,
0,0,0,0,0,0,0,0,0,0,0,0,0,0,0,0,
0,0,0,0,0,0,0,0,0,0,0,0,0,0,0,0,
0,0,0,0,0,0,0,0,0,0,0,0,0,0,0,0,
0,0,0,0,0,0,0,0,0,0,0,0,0,0,0,0,
0,0,0,0,0,0,0,0,0,0,0,0,0,0,0,0
</chunk>
  </data>
 </layer>
 <layer id="23" name="shoping_event_4" width="15" height="15" visible="0">
  <data encoding="csv">
   <chunk x="0" y="-32" width="16" height="16">
0,0,0,0,0,0,0,0,0,0,0,0,0,0,0,0,
0,0,0,0,0,0,0,0,0,0,0,0,0,0,0,0,
0,0,0,0,0,0,0,0,0,0,0,0,0,0,0,0,
0,0,0,0,0,0,0,0,0,0,0,0,0,0,0,0,
0,0,0,0,0,0,0,0,0,0,0,0,0,0,0,0,
0,0,0,0,0,0,0,1236,1236,1236,1236,1236,1236,1236,1236,0,
0,0,0,0,0,0,0,1236,1236,1236,1236,1236,1236,1236,1236,0,
0,0,0,0,0,0,0,0,0,0,0,0,0,0,0,0,
0,0,0,0,0,0,0,0,0,0,0,0,0,0,0,0,
0,0,0,0,0,0,0,0,0,0,0,0,0,0,0,0,
0,0,0,0,0,0,0,0,0,0,0,0,0,0,0,0,
0,0,0,0,0,0,0,0,0,0,0,0,0,0,0,0,
0,0,0,0,0,0,0,0,0,0,0,0,0,0,0,0,
0,0,0,0,0,0,0,0,0,0,0,0,0,0,0,0,
0,0,0,0,0,0,0,0,0,0,0,0,0,0,0,0,
0,0,0,0,0,0,0,0,0,0,0,0,0,0,0,0
</chunk>
  </data>
 </layer>
 <layer id="24" name="shoping_event_5" width="15" height="15" visible="0">
  <data encoding="csv">
   <chunk x="16" y="-32" width="16" height="16">
0,0,0,0,0,0,0,0,0,0,0,0,0,0,0,0,
0,0,0,0,0,0,0,0,0,0,0,0,0,0,0,0,
0,0,0,0,0,0,0,0,0,0,0,0,0,0,0,0,
0,0,0,0,0,0,0,0,0,0,0,0,0,0,0,0,
0,0,0,1236,1236,1236,1236,1236,1236,0,0,0,0,0,0,0,
0,0,0,1236,1236,1236,1236,1236,1236,0,0,0,0,0,0,0,
0,0,0,1236,1236,1236,1236,1236,1236,0,0,0,0,0,0,0,
0,0,0,0,0,0,0,0,0,0,0,0,0,0,0,0,
0,0,0,0,0,0,0,0,0,0,0,0,0,0,0,0,
0,0,0,0,0,0,0,0,0,0,0,0,0,0,0,0,
0,0,0,0,0,0,0,0,0,0,0,0,0,0,0,0,
0,0,0,0,0,0,0,0,0,0,0,0,0,0,0,0,
0,0,0,0,0,0,0,0,0,0,0,0,0,0,0,0,
0,0,0,0,0,0,0,0,0,0,0,0,0,0,0,0,
0,0,0,0,0,0,0,0,0,0,0,0,0,0,0,0,
0,0,0,0,0,0,0,0,0,0,0,0,0,0,0,0
</chunk>
  </data>
 </layer>
 <layer id="25" name="shoping_event_6" width="15" height="15" visible="0">
  <data encoding="csv">
   <chunk x="16" y="-32" width="16" height="16">
0,0,0,0,0,0,0,0,0,0,0,0,0,0,0,0,
0,0,0,0,0,0,0,0,0,0,0,0,0,0,0,0,
0,0,0,0,0,0,0,0,0,0,0,0,0,0,0,0,
0,0,0,0,0,0,0,0,0,0,0,0,0,0,0,0,
0,0,0,0,0,0,0,0,0,0,0,0,0,1236,1236,1236,
0,0,0,0,0,0,0,0,0,0,0,0,0,1236,1236,1236,
0,0,0,0,0,0,0,0,0,0,0,0,0,1236,1236,1236,
0,0,0,0,0,0,0,0,0,0,0,0,0,0,0,0,
0,0,0,0,0,0,0,0,0,0,0,0,0,0,0,0,
0,0,0,0,0,0,0,0,0,0,0,0,0,0,0,0,
0,0,0,0,0,0,0,0,0,0,0,0,0,0,0,0,
0,0,0,0,0,0,0,0,0,0,0,0,0,0,0,0,
0,0,0,0,0,0,0,0,0,0,0,0,0,0,0,0,
0,0,0,0,0,0,0,0,0,0,0,0,0,0,0,0,
0,0,0,0,0,0,0,0,0,0,0,0,0,0,0,0,
0,0,0,0,0,0,0,0,0,0,0,0,0,0,0,0
</chunk>
   <chunk x="32" y="-32" width="16" height="16">
0,0,0,0,0,0,0,0,0,0,0,0,0,0,0,0,
0,0,0,0,0,0,0,0,0,0,0,0,0,0,0,0,
0,0,0,0,0,0,0,0,0,0,0,0,0,0,0,0,
0,0,0,0,0,0,0,0,0,0,0,0,0,0,0,0,
1236,1236,1236,0,0,0,0,0,0,0,0,0,0,0,0,0,
1236,1236,1236,0,0,0,0,0,0,0,0,0,0,0,0,0,
1236,1236,1236,0,0,0,0,0,0,0,0,0,0,0,0,0,
0,0,0,0,0,0,0,0,0,0,0,0,0,0,0,0,
0,0,0,0,0,0,0,0,0,0,0,0,0,0,0,0,
0,0,0,0,0,0,0,0,0,0,0,0,0,0,0,0,
0,0,0,0,0,0,0,0,0,0,0,0,0,0,0,0,
0,0,0,0,0,0,0,0,0,0,0,0,0,0,0,0,
0,0,0,0,0,0,0,0,0,0,0,0,0,0,0,0,
0,0,0,0,0,0,0,0,0,0,0,0,0,0,0,0,
0,0,0,0,0,0,0,0,0,0,0,0,0,0,0,0,
0,0,0,0,0,0,0,0,0,0,0,0,0,0,0,0
</chunk>
  </data>
 </layer>
 <layer id="26" name="school_event" width="15" height="15" visible="0">
  <data encoding="csv">
   <chunk x="-16" y="0" width="16" height="16">
0,0,0,0,0,0,0,0,0,0,0,0,0,0,0,0,
0,0,0,0,0,0,0,0,0,0,0,0,0,0,0,0,
0,0,0,0,0,0,0,0,0,0,0,0,0,0,0,0,
0,0,0,0,0,0,0,0,0,0,0,0,0,0,0,0,
0,0,0,0,0,0,0,0,0,0,0,0,0,0,0,0,
0,0,0,0,0,0,0,0,0,0,0,0,0,0,0,0,
0,0,0,0,0,0,0,0,0,0,0,0,0,0,0,0,
0,0,0,0,0,0,0,0,0,0,0,0,0,0,0,0,
0,0,0,0,0,0,0,0,0,0,0,0,0,0,0,0,
0,0,0,0,0,0,0,0,0,0,0,0,0,0,0,0,
0,0,0,0,0,0,0,0,0,0,0,0,0,0,0,0,
0,0,0,0,0,0,0,0,0,0,0,0,0,0,0,0,
0,0,0,0,0,0,0,0,0,0,0,0,0,0,0,0,
0,0,0,0,0,0,0,0,0,0,0,0,0,0,0,0,
0,0,0,0,0,0,0,0,0,0,0,0,0,0,0,0,
0,0,0,0,1236,1236,1236,0,0,0,0,0,0,0,0,0
</chunk>
   <chunk x="-16" y="16" width="16" height="16">
0,0,0,0,1236,1236,1236,0,0,0,0,0,0,0,0,0,
0,0,0,0,1236,1236,1236,0,0,0,0,0,0,0,0,0,
0,0,0,0,1236,1236,1236,0,0,0,0,0,0,0,0,0,
0,0,0,0,1236,1236,1236,0,0,0,0,0,0,0,0,0,
0,0,0,0,0,0,0,0,0,0,0,0,0,0,0,0,
0,0,0,0,0,0,0,0,0,0,0,0,0,0,0,0,
0,0,0,0,0,0,0,0,0,0,0,0,0,0,0,0,
0,0,0,0,0,0,0,0,0,0,0,0,0,0,0,0,
0,0,0,0,0,0,0,0,0,0,0,0,0,0,0,0,
0,0,0,0,0,0,0,0,0,0,0,0,0,0,0,0,
0,0,0,0,0,0,0,0,0,0,0,0,0,0,0,0,
0,0,0,0,0,0,0,0,0,0,0,0,0,0,0,0,
0,0,0,0,0,0,0,0,0,0,0,0,0,0,0,0,
0,0,0,0,0,0,0,0,0,0,0,0,0,0,0,0,
0,0,0,0,0,0,0,0,0,0,0,0,0,0,0,0,
0,0,0,0,0,0,0,0,0,0,0,0,0,0,0,0
</chunk>
  </data>
 </layer>
 <layer id="27" name="curch_event" width="15" height="15" visible="0">
  <data encoding="csv">
   <chunk x="48" y="-16" width="16" height="16">
0,0,0,0,0,0,0,0,0,0,0,0,0,0,0,0,
0,0,0,0,0,0,0,1236,1236,1236,0,0,0,0,0,0,
0,0,0,0,0,0,0,1236,1236,1236,0,0,0,0,0,0,
0,0,0,0,0,0,0,0,0,0,0,0,0,0,0,0,
0,0,0,0,0,0,0,0,0,0,0,0,0,0,0,0,
0,0,0,0,0,0,0,0,0,0,0,0,0,0,0,0,
0,0,0,0,0,0,0,0,0,0,0,0,0,0,0,0,
0,0,0,0,0,0,0,0,0,0,0,0,0,0,0,0,
0,0,0,0,0,0,0,0,0,0,0,0,0,0,0,0,
0,0,0,0,0,0,0,0,0,0,0,0,0,0,0,0,
0,0,0,0,0,0,0,0,0,0,0,0,0,0,0,0,
0,0,0,0,0,0,0,0,0,0,0,0,0,0,0,0,
0,0,0,0,0,0,0,0,0,0,0,0,0,0,0,0,
0,0,0,0,0,0,0,0,0,0,0,0,0,0,0,0,
0,0,0,0,0,0,0,0,0,0,0,0,0,0,0,0,
0,0,0,0,0,0,0,0,0,0,0,0,0,0,0,0
</chunk>
  </data>
 </layer>
 <layer id="28" name="hospital_event" width="15" height="15" visible="0">
  <data encoding="csv">
   <chunk x="16" y="16" width="16" height="16">
0,0,0,0,0,0,0,0,0,0,0,0,0,0,0,0,
0,0,0,0,0,0,0,0,0,0,0,0,0,0,0,0,
0,0,0,0,0,0,0,0,0,0,0,0,0,0,0,0,
0,0,0,0,0,0,0,0,1236,1236,1236,1236,0,0,0,0,
0,0,0,0,0,0,0,0,1236,1236,1236,1236,0,0,0,0,
0,0,0,0,0,0,0,0,1236,1236,1236,1236,0,0,0,0,
0,0,0,0,0,0,0,0,0,0,0,0,0,0,0,0,
0,0,0,0,0,0,0,0,0,0,0,0,0,0,0,0,
0,0,0,0,0,0,0,0,0,0,0,0,0,0,0,0,
0,0,0,0,0,0,0,0,0,0,0,0,0,0,0,0,
0,0,0,0,0,0,0,0,0,0,0,0,0,0,0,0,
0,0,0,0,0,0,0,0,0,0,0,0,0,0,0,0,
0,0,0,0,0,0,0,0,0,0,0,0,0,0,0,0,
0,0,0,0,0,0,0,0,0,0,0,0,0,0,0,0,
0,0,0,0,0,0,0,0,0,0,0,0,0,0,0,0,
0,0,0,0,0,0,0,0,0,0,0,0,0,0,0,0
</chunk>
  </data>
 </layer>
 <layer id="29" name="recreation_event" width="15" height="15" visible="0">
  <data encoding="csv">
   <chunk x="64" y="-48" width="16" height="16">
0,0,0,0,0,0,0,0,0,0,0,0,0,0,0,0,
0,0,0,0,0,0,0,0,0,0,0,0,0,0,0,0,
0,0,0,0,0,0,0,0,0,0,0,0,0,0,0,0,
0,0,0,0,0,0,0,0,0,0,0,0,0,0,0,0,
0,0,0,0,0,0,0,0,0,0,0,0,0,0,0,0,
0,0,0,0,0,0,0,0,0,0,0,0,0,0,0,0,
0,0,0,0,0,0,0,0,0,0,0,0,0,0,0,0,
0,0,0,0,0,0,0,0,0,0,0,0,0,0,0,0,
0,0,0,0,0,0,0,0,0,0,0,0,0,0,0,0,
0,0,0,0,0,0,0,0,0,0,0,0,0,0,0,0,
0,0,0,0,0,0,0,0,0,0,0,0,0,0,0,0,
0,0,0,0,0,0,0,0,0,0,0,0,0,0,0,0,
0,0,0,0,0,0,0,0,0,0,0,0,0,0,0,0,
0,0,0,0,0,0,0,0,0,0,0,0,0,0,0,0,
0,0,0,0,0,0,0,0,0,0,0,0,0,0,0,0,
0,0,0,0,0,0,0,0,1236,1236,0,0,0,0,0,0
</chunk>
   <chunk x="64" y="-32" width="16" height="16">
0,0,0,0,0,0,0,1236,1236,1236,1236,0,0,0,0,0,
0,0,0,0,0,0,0,0,0,0,0,0,0,0,0,0,
0,0,0,0,0,0,0,0,0,0,0,0,0,0,0,0,
0,0,0,0,0,0,0,0,0,0,0,0,0,0,0,0,
0,0,0,0,0,0,0,0,0,0,0,0,0,0,0,0,
0,0,0,0,0,0,0,0,0,0,0,0,0,0,0,0,
0,0,0,0,0,0,0,0,0,0,0,0,0,0,0,0,
0,0,0,0,0,0,0,0,0,0,0,0,0,0,0,0,
0,0,0,0,0,0,0,0,0,0,0,0,0,0,0,0,
0,0,0,0,0,0,0,0,0,0,0,0,0,0,0,0,
0,0,0,0,0,0,0,0,0,0,0,0,0,0,0,0,
0,0,0,0,0,0,0,0,0,0,0,0,0,0,0,0,
0,0,0,0,0,0,0,0,0,0,0,0,0,0,0,0,
0,0,0,0,0,0,0,0,0,0,0,0,0,0,0,0,
0,0,0,0,0,0,0,0,0,0,0,0,0,0,0,0,
0,0,0,0,0,0,0,0,0,0,0,0,0,0,0,0
</chunk>
  </data>
 </layer>
 <layer id="30" name="nobility_event" width="15" height="15" visible="0">
  <data encoding="csv">
   <chunk x="80" y="-32" width="16" height="16">
0,0,0,0,0,0,0,0,0,0,0,0,0,0,0,0,
0,0,0,0,0,0,0,0,0,0,0,0,0,0,0,0,
0,0,0,0,0,0,0,0,0,0,0,0,0,0,0,0,
0,0,0,0,0,0,0,0,0,0,0,0,0,0,0,0,
0,0,0,0,0,0,0,0,0,0,0,0,0,0,0,0,
0,0,0,0,0,0,0,0,0,0,0,0,0,0,0,0,
0,0,0,0,0,0,0,0,0,0,0,0,0,0,0,0,
0,0,0,0,0,0,0,0,0,0,0,0,0,0,0,0,
0,0,0,0,0,0,0,0,0,0,0,0,0,1236,1236,1236,
0,0,0,0,0,0,0,0,0,0,0,0,0,1236,1236,1236,
0,0,0,0,0,0,0,0,0,0,0,0,0,0,0,0,
0,0,0,0,0,0,0,0,0,0,0,0,0,0,0,0,
0,0,0,0,0,0,0,0,0,0,0,0,0,0,0,0,
0,0,0,0,0,0,0,0,0,0,0,0,0,0,0,0,
0,0,0,0,0,0,0,0,0,0,0,0,0,0,0,0,
0,0,0,0,0,0,0,0,0,0,0,0,0,0,0,0
</chunk>
   <chunk x="96" y="-32" width="16" height="16">
0,0,0,0,0,0,0,0,0,0,0,0,0,0,0,0,
0,0,0,0,0,0,0,0,0,0,0,0,0,0,0,0,
0,0,0,0,0,0,0,0,0,0,0,0,0,0,0,0,
0,0,0,0,0,0,0,0,0,0,0,0,0,0,0,0,
0,0,0,0,0,0,0,0,0,0,0,0,0,0,0,0,
0,0,0,0,0,0,0,0,0,0,0,0,0,0,0,0,
0,0,0,0,0,0,0,0,0,0,0,0,0,0,0,0,
0,0,0,0,0,0,0,0,0,0,0,0,0,0,0,0,
1236,0,0,0,0,0,0,0,0,0,0,0,0,0,0,0,
1236,0,0,0,0,0,0,0,0,0,0,0,0,0,0,0,
0,0,0,0,0,0,0,0,0,0,0,0,0,0,0,0,
0,0,0,0,0,0,0,0,0,0,0,0,0,0,0,0,
0,0,0,0,0,0,0,0,0,0,0,0,0,0,0,0,
0,0,0,0,0,0,0,0,0,0,0,0,0,0,0,0,
0,0,0,0,0,0,0,0,0,0,0,0,0,0,0,0,
0,0,0,0,0,0,0,0,0,0,0,0,0,0,0,0
</chunk>
  </data>
 </layer>
 <layer id="31" name="town_hall_event" width="15" height="15" visible="0">
  <data encoding="csv">
   <chunk x="48" y="16" width="16" height="16">
0,0,0,0,0,0,0,0,0,0,0,0,0,0,0,0,
0,0,0,0,0,0,0,0,0,0,0,0,0,0,0,0,
0,0,0,0,0,0,0,0,0,0,0,0,0,0,0,0,
0,0,0,0,0,1236,1236,1236,1236,1236,0,0,0,0,0,0,
0,0,0,0,0,1236,1236,1236,1236,1236,0,0,0,0,0,0,
0,0,0,0,0,1236,1236,1236,1236,1236,0,0,0,0,0,0,
0,0,0,0,0,0,0,0,0,0,0,0,0,0,0,0,
0,0,0,0,0,0,0,0,0,0,0,0,0,0,0,0,
0,0,0,0,0,0,0,0,0,0,0,0,0,0,0,0,
0,0,0,0,0,0,0,0,0,0,0,0,0,0,0,0,
0,0,0,0,0,0,0,0,0,0,0,0,0,0,0,0,
0,0,0,0,0,0,0,0,0,0,0,0,0,0,0,0,
0,0,0,0,0,0,0,0,0,0,0,0,0,0,0,0,
0,0,0,0,0,0,0,0,0,0,0,0,0,0,0,0,
0,0,0,0,0,0,0,0,0,0,0,0,0,0,0,0,
0,0,0,0,0,0,0,0,0,0,0,0,0,0,0,0
</chunk>
  </data>
 </layer>
 <layer id="32" name="person_event_1" width="15" height="15" visible="0">
  <data encoding="csv">
   <chunk x="80" y="0" width="16" height="16">
0,0,0,0,0,0,0,0,0,0,0,0,0,0,0,0,
0,0,0,0,0,0,0,0,0,0,0,0,0,0,0,0,
0,0,0,0,0,0,0,0,0,0,0,0,0,0,0,0,
0,0,0,0,0,0,0,0,0,0,0,0,0,0,0,0,
0,0,0,0,0,0,0,0,0,0,0,0,0,0,0,0,
0,0,0,0,0,0,0,0,0,0,0,0,0,0,0,0,
0,0,0,0,0,0,0,0,0,0,0,0,0,0,0,0,
0,0,0,0,0,0,0,0,0,0,0,0,0,0,0,0,
0,0,0,0,0,0,0,0,0,0,0,0,0,0,0,0,
0,0,0,0,0,0,0,0,0,0,0,0,0,0,0,0,
0,0,0,0,0,0,0,0,0,0,0,0,0,0,0,0,
0,1236,1236,1236,0,0,0,0,0,0,0,0,0,0,0,0,
0,1236,1236,1236,0,0,0,0,0,0,0,0,0,0,0,0,
0,0,0,0,0,0,0,0,0,0,0,0,0,0,0,0,
0,0,0,0,0,0,0,0,0,0,0,0,0,0,0,0,
0,0,0,0,0,0,0,0,0,0,0,0,0,0,0,0
</chunk>
  </data>
 </layer>
 <layer id="33" name="person_event_2" width="15" height="15" visible="0">
  <data encoding="csv">
   <chunk x="96" y="0" width="16" height="16">
0,0,0,0,0,0,0,0,0,0,0,0,0,0,0,0,
0,0,0,0,0,0,0,0,0,0,0,0,0,0,0,0,
0,0,0,0,0,0,0,0,0,0,0,0,0,0,0,0,
0,0,0,0,0,0,0,0,0,0,0,0,0,0,0,0,
0,0,0,0,0,0,0,0,0,0,0,0,0,0,0,0,
0,0,0,0,0,0,0,0,0,0,0,0,0,0,0,0,
0,0,0,0,0,0,0,0,0,0,0,0,0,0,0,0,
0,0,0,0,0,0,0,0,0,0,0,0,0,0,0,0,
0,0,0,0,0,0,0,0,0,0,0,0,0,0,0,0,
0,0,0,0,0,0,0,0,0,0,0,0,0,0,0,0,
0,0,0,0,0,0,0,0,0,0,0,0,0,0,0,0,
0,0,0,0,0,0,0,1236,1236,1236,0,0,0,0,0,0,
0,0,0,0,0,0,0,1236,1236,1236,0,0,0,0,0,0,
0,0,0,0,0,0,0,0,0,0,0,0,0,0,0,0,
0,0,0,0,0,0,0,0,0,0,0,0,0,0,0,0,
0,0,0,0,0,0,0,0,0,0,0,0,0,0,0,0
</chunk>
  </data>
 </layer>
 <layer id="34" name="person_event_3" width="15" height="15" visible="0">
  <data encoding="csv">
   <chunk x="80" y="16" width="16" height="16">
0,0,0,0,0,0,0,0,0,0,0,0,0,0,0,0,
0,0,0,0,0,0,0,0,0,0,0,0,0,0,0,0,
0,0,0,0,0,0,0,0,0,0,0,0,0,0,0,0,
0,0,0,0,0,0,0,0,0,0,0,0,0,0,0,0,
0,0,0,0,0,0,0,0,0,0,0,0,0,0,0,0,
0,0,0,0,0,0,0,0,0,0,0,0,0,0,0,0,
0,0,0,0,0,0,0,0,0,0,0,0,0,0,0,0,
0,0,0,0,0,0,0,0,0,0,0,0,0,0,0,0,
0,0,0,0,0,0,0,0,0,0,0,0,0,0,0,0,
0,0,0,0,0,0,0,0,0,0,0,0,0,0,0,0,
0,0,0,0,0,0,0,0,0,0,0,0,0,0,0,0,
0,0,0,0,0,0,0,0,0,0,0,0,0,0,0,0,
1236,1236,1236,0,0,0,0,0,0,0,0,0,0,0,0,0,
1236,1236,1236,0,0,0,0,0,0,0,0,0,0,0,0,0,
0,0,0,0,0,0,0,0,0,0,0,0,0,0,0,0,
0,0,0,0,0,0,0,0,0,0,0,0,0,0,0,0
</chunk>
  </data>
 </layer>
 <layer id="35" name="person_event_secret" width="15" height="15" visible="0">
  <data encoding="csv">
   <chunk x="96" y="0" width="16" height="16">
0,0,0,0,0,0,0,0,0,0,0,0,0,0,0,0,
0,0,0,0,0,0,0,0,0,0,0,0,0,0,0,0,
0,0,0,0,0,0,0,0,0,0,0,0,0,0,0,0,
0,0,0,0,0,0,0,0,0,0,0,1236,1236,0,0,0,
0,0,0,0,0,0,0,0,0,0,0,1236,1236,0,0,0,
0,0,0,0,0,0,0,0,0,0,0,0,0,0,0,0,
0,0,0,0,0,0,0,0,0,0,0,0,0,0,0,0,
0,0,0,0,0,0,0,0,0,0,0,0,0,0,0,0,
0,0,0,0,0,0,0,0,0,0,0,0,0,0,0,0,
0,0,0,0,0,0,0,0,0,0,0,0,0,0,0,0,
0,0,0,0,0,0,0,0,0,0,0,0,0,0,0,0,
0,0,0,0,0,0,0,0,0,0,0,0,0,0,0,0,
0,0,0,0,0,0,0,0,0,0,0,0,0,0,0,0,
0,0,0,0,0,0,0,0,0,0,0,0,0,0,0,0,
0,0,0,0,0,0,0,0,0,0,0,0,0,0,0,0,
0,0,0,0,0,0,0,0,0,0,0,0,0,0,0,0
</chunk>
  </data>
 </layer>
</map>
