<?xml version="1.0" encoding="UTF-8"?>
<map version="1.10" tiledversion="1.12.1" orientation="orthogonal" renderorder="right-down" width="15" height="15" tilewidth="16" tileheight="16" infinite="1" nextlayerid="11" nextobjectid="1">
 <tileset firstgid="1" name="house_indoor_wall" tilewidth="16" tileheight="16" tilecount="1008" columns="28">
  <image source="../sucai/house_indoor_wall.png" width="448" height="576"/>
 </tileset>
 <tileset firstgid="1009" name="house_indoor_4" tilewidth="16" tileheight="16" tilecount="576" columns="16">
  <image source="../sucai/house_indoor_4.png" width="256" height="576"/>
 </tileset>
 <tileset firstgid="1585" name="house_indoor_3" tilewidth="16" tileheight="16" tilecount="1024" columns="32">
  <image source="../sucai/house_indoor_3.png" width="512" height="512"/>
 </tileset>
 <tileset firstgid="2609" name="house_indoor" tilewidth="16" tileheight="16" tilecount="7728" columns="69">
  <image source="../sucai/house_indoor.png" width="1116" height="1792"/>
 </tileset>
 <tileset firstgid="10337" name="Prison_3" tilewidth="16" tileheight="16" tilecount="1024" columns="32">
  <image source="../sucai/Prison_3.png" width="512" height="512"/>
 </tileset>
 <tileset firstgid="11361" name="Prison_2" tilewidth="16" tileheight="16" tilecount="1024" columns="32">
  <image source="../sucai/Prison_2.png" width="512" height="512"/>
 </tileset>
 <tileset firstgid="12385" name="house_indoor_6" tilewidth="16" tileheight="16" tilecount="1024" columns="32">
  <image source="../sucai/house_indoor_6.png" width="512" height="512"/>
 </tileset>
 <tileset firstgid="13409" name="house_indoor_2" tilewidth="16" tileheight="16" tilecount="768" columns="16">
  <image source="../sucai/house_indoor_2.PNG" width="256" height="768"/>
 </tileset>
 <tileset firstgid="14177" name="house_indoor_carpet" tilewidth="16" tileheight="16" tilecount="32" columns="8">
  <image source="../sucai/house_indoor_carpet.png" width="128" height="64"/>
 </tileset>
 <layer id="8" name="collision" width="15" height="15">
  <data encoding="csv">
   <chunk x="-16" y="-16" width="16" height="16">
0,0,0,0,0,0,0,0,0,0,0,0,0,0,0,0,
0,0,0,0,0,0,0,0,0,0,0,0,0,0,0,0,
0,0,0,0,0,0,0,0,0,0,0,0,0,0,0,0,
0,0,0,0,0,0,0,0,0,0,0,0,0,0,0,0,
0,0,0,0,0,0,0,0,0,0,0,0,0,0,0,0,
0,0,0,0,0,0,0,0,0,0,0,0,0,0,0,0,
0,0,0,0,0,0,0,0,0,0,0,0,0,0,0,0,
0,0,0,0,0,0,0,0,0,0,0,0,0,0,0,0,
0,0,0,0,0,0,0,0,0,0,0,0,0,0,0,0,
0,0,0,0,0,0,0,0,0,0,0,0,0,0,0,0,
0,0,0,0,0,0,0,0,0,0,0,0,0,0,0,0,
0,0,0,0,0,0,0,0,0,0,0,0,0,0,0,0,
0,0,0,0,0,0,0,0,0,0,0,0,0,0,0,0,
0,0,0,12430,12430,12430,12430,12430,12430,12430,12430,12430,12430,12430,12430,12430,
0,0,0,12430,12430,12430,12430,12430,12430,12430,12430,12430,12430,12430,12430,12430,
0,0,0,12430,12430,12430,12430,12430,12430,12430,12430,12430,12430,12430,12430,12430
</chunk>
   <chunk x="0" y="-16" width="16" height="16">
0,0,0,0,0,0,0,0,0,0,0,0,0,0,0,0,
0,0,0,0,0,0,0,0,0,0,0,0,0,0,0,0,
0,0,0,0,0,0,0,0,0,0,0,0,0,0,0,0,
0,0,0,0,0,0,0,0,0,0,0,0,0,0,0,0,
0,0,0,0,0,0,0,0,0,0,0,0,0,0,0,0,
0,0,0,0,0,0,0,0,0,0,0,0,0,0,0,0,
0,0,0,0,0,0,0,0,0,0,0,0,0,0,0,0,
0,0,0,0,0,0,0,0,0,0,0,0,0,0,0,0,
0,0,0,0,0,0,0,0,0,0,0,0,0,0,0,0,
0,0,0,0,0,0,0,0,0,0,0,0,0,0,0,0,
0,0,0,0,0,0,0,0,0,0,0,0,0,0,0,0,
0,0,0,0,0,0,0,0,0,0,0,0,0,0,0,0,
0,0,0,0,0,0,0,0,0,0,0,0,0,0,0,0,
12430,12430,12430,12430,12430,12430,12430,12430,12430,12430,12430,12430,12430,12430,12430,12430,
12430,12430,12430,12430,12430,12430,12430,12430,12430,12430,12430,12430,12430,12430,12430,12430,
12430,12430,12430,12430,12430,12430,12430,12430,12430,12430,12430,12430,12430,12430,12430,12430
</chunk>
   <chunk x="16" y="-16" width="16" height="16">
0,0,0,0,0,0,0,0,0,0,0,0,0,0,0,0,
0,0,0,0,0,0,0,0,0,0,0,0,0,0,0,0,
0,0,0,0,0,0,0,0,0,0,0,0,0,0,0,0,
0,0,0,0,0,0,0,0,0,0,0,0,0,0,0,0,
0,0,0,0,0,0,0,0,0,0,0,0,0,0,0,0,
0,0,0,0,0,0,0,0,0,0,0,0,0,0,0,0,
0,0,0,0,0,0,0,0,0,0,0,0,0,0,0,0,
0,0,0,0,0,0,0,0,0,0,0,0,0,0,0,0,
0,0,0,0,0,0,0,0,0,0,0,0,0,0,0,0,
0,0,0,0,0,0,0,0,0,0,0,0,0,0,0,0,
0,0,0,0,0,0,0,0,0,0,0,0,0,0,0,0,
0,0,0,0,0,0,0,0,0,0,0,0,0,0,0,0,
0,0,0,0,0,0,0,0,0,0,0,0,0,0,0,0,
12430,12430,12430,12430,12430,0,0,0,0,0,0,0,0,0,0,0,
12430,12430,12430,12430,12430,0,0,0,0,0,0,0,0,0,0,0,
12430,12430,12430,12430,12430,0,0,0,0,0,0,0,0,0,0,0
</chunk>
   <chunk x="-16" y="0" width="16" height="16">
0,0,0,12430,12430,12430,12430,12430,12430,12430,12430,12430,12430,12430,12430,12430,
0,0,0,12430,12430,12430,12430,12430,12430,12430,12430,12430,12430,12430,12430,12430,
0,0,0,12430,12430,12430,12430,12430,12430,12430,12430,12430,0,0,0,0,
0,0,0,12430,0,0,0,0,0,0,0,0,0,0,0,0,
0,0,0,12430,0,0,0,0,0,0,0,0,0,0,0,0,
0,0,0,12430,0,0,0,0,0,0,0,0,0,12430,12430,0,
0,0,0,12430,0,0,0,0,0,0,0,0,0,12430,12430,0,
0,0,0,12430,0,0,0,0,0,0,0,0,0,12430,12430,0,
0,0,0,12430,0,0,0,0,0,0,0,0,0,12430,12430,0,
0,0,0,12430,12430,12430,12430,12430,12430,12430,12430,12430,12430,12430,12430,0,
0,0,0,12430,12430,12430,12430,12430,12430,12430,12430,12430,12430,12430,12430,0,
0,0,0,12430,0,0,0,0,0,0,0,0,0,0,0,0,
0,0,0,12430,0,0,0,0,0,0,0,0,0,0,0,0,
0,0,0,12430,0,0,0,0,0,0,0,0,0,0,0,0,
0,0,0,12430,0,0,0,0,0,0,0,0,0,0,0,0,
0,0,0,12430,0,0,0,0,0,0,0,0,0,0,0,0
</chunk>
   <chunk x="0" y="0" width="16" height="16">
12430,12430,12430,12430,12430,12430,12430,12430,12430,12430,12430,12430,12430,12430,12430,12430,
12430,12430,12430,12430,12430,12430,12430,12430,12430,12430,12430,12430,12430,12430,12430,12430,
0,0,0,0,0,0,0,0,0,0,0,0,0,0,12430,12430,
0,0,0,0,0,0,0,0,0,0,0,0,0,0,0,0,
0,0,0,0,0,0,0,0,0,0,0,0,0,0,0,0,
0,0,0,0,0,0,0,0,0,0,0,0,0,0,0,0,
0,0,0,0,0,0,0,0,0,0,0,0,0,0,0,0,
0,0,0,0,0,0,0,0,0,0,0,0,0,0,0,0,
0,0,0,0,0,0,0,0,0,0,0,0,0,0,0,0,
0,0,0,0,0,0,0,0,0,0,0,0,0,0,0,0,
0,0,0,0,0,0,0,0,0,0,0,0,0,0,0,0,
0,0,0,0,0,0,0,0,0,0,0,0,0,0,0,0,
0,0,0,0,0,0,0,0,0,0,0,0,0,0,0,0,
0,0,0,0,0,0,0,0,0,0,0,0,0,0,0,0,
0,0,0,0,0,0,0,0,0,0,0,0,0,0,0,0,
0,0,0,0,0,0,0,0,0,0,0,0,0,0,0,0
</chunk>
   <chunk x="16" y="0" width="16" height="16">
12430,12430,12430,12430,12430,0,0,0,0,0,0,0,0,0,0,0,
12430,12430,12430,12430,12430,0,0,0,0,0,0,0,0,0,0,0,
12430,12430,12430,12430,12430,0,0,0,0,0,0,0,0,0,0,0,
0,0,0,0,12430,0,0,0,0,0,0,0,0,0,0,0,
0,0,0,12430,12430,0,0,0,0,0,0,0,0,0,0,0,
0,0,0,12430,12430,0,0,0,0,0,0,0,0,0,0,0,
0,0,0,12430,12430,0,0,0,0,0,0,0,0,0,0,0,
0,0,0,12430,12430,0,0,0,0,0,0,0,0,0,0,0,
0,0,12430,12430,12430,0,0,0,0,0,0,0,0,0,0,0,
0,0,12430,12430,12430,0,0,0,0,0,0,0,0,0,0,0,
0,0,12430,12430,12430,0,0,0,0,0,0,0,0,0,0,0,
0,0,12430,12430,12430,0,0,0,0,0,0,0,0,0,0,0,
0,0,0,0,12430,0,0,0,0,0,0,0,0,0,0,0,
0,0,0,12430,12430,0,0,0,0,0,0,0,0,0,0,0,
0,0,0,12430,12430,0,0,0,0,0,0,0,0,0,0,0,
0,0,0,12430,12430,0,0,0,0,0,0,0,0,0,0,0
</chunk>
   <chunk x="-16" y="16" width="16" height="16">
0,0,0,12430,0,0,0,0,0,0,0,0,0,0,0,0,
0,0,0,12430,0,0,0,0,0,0,0,0,0,0,0,0,
0,0,0,12430,12430,12430,12430,12430,0,0,12430,12430,12430,12430,12430,12430,
0,0,0,12430,12430,12430,12430,12430,12430,12430,12430,12430,12430,12430,12430,12430,
0,0,0,12430,12430,12430,12430,12430,12430,12430,12430,12430,12430,12430,12430,12430,
0,0,0,12430,12430,12430,12430,12430,12430,12430,12430,12430,12430,12430,12430,12430,
0,0,0,0,0,0,0,0,0,0,0,0,0,0,0,0,
0,0,0,0,0,0,0,0,0,0,0,0,0,0,0,0,
0,0,0,0,0,0,0,0,0,0,0,0,0,0,0,0,
0,0,0,0,0,0,0,0,0,0,0,0,0,0,0,0,
0,0,0,0,0,0,0,0,0,0,0,0,0,0,0,0,
0,0,0,0,0,0,0,0,0,0,0,0,0,0,0,0,
0,0,0,0,0,0,0,0,0,0,0,0,0,0,0,0,
0,0,0,0,0,0,0,0,0,0,0,0,0,0,0,0,
0,0,0,0,0,0,0,0,0,0,0,0,0,0,0,0,
0,0,0,0,0,0,0,0,0,0,0,0,0,0,0,0
</chunk>
   <chunk x="0" y="16" width="16" height="16">
0,0,0,0,0,0,0,0,0,0,0,0,0,0,0,0,
0,0,0,0,0,0,0,0,0,0,0,0,0,0,0,0,
12430,12430,12430,12430,12430,12430,12430,12430,12430,12430,12430,12430,12430,12430,12430,12430,
12430,12430,12430,12430,12430,12430,12430,12430,12430,12430,12430,12430,12430,12430,12430,12430,
12430,12430,12430,12430,12430,12430,12430,12430,12430,12430,12430,12430,12430,12430,12430,12430,
12430,12430,12430,12430,12430,12430,12430,12430,12430,12430,12430,12430,12430,12430,12430,12430,
0,0,0,0,0,0,0,0,0,0,0,0,0,0,0,0,
0,0,0,0,0,0,0,0,0,0,0,0,0,0,0,0,
0,0,0,0,0,0,0,0,0,0,0,0,0,0,0,0,
0,0,0,0,0,0,0,0,0,0,0,0,0,0,0,0,
0,0,0,0,0,0,0,0,0,0,0,0,0,0,0,0,
0,0,0,0,0,0,0,0,0,0,0,0,0,0,0,0,
0,0,0,0,0,0,0,0,0,0,0,0,0,0,0,0,
0,0,0,0,0,0,0,0,0,0,0,0,0,0,0,0,
0,0,0,0,0,0,0,0,0,0,0,0,0,0,0,0,
0,0,0,0,0,0,0,0,0,0,0,0,0,0,0,0
</chunk>
   <chunk x="16" y="16" width="16" height="16">
0,0,0,12430,12430,0,0,0,0,0,0,0,0,0,0,0,
0,0,0,12430,12430,0,0,0,0,0,0,0,0,0,0,0,
12430,12430,12430,12430,12430,0,0,0,0,0,0,0,0,0,0,0,
12430,12430,12430,12430,12430,0,0,0,0,0,0,0,0,0,0,0,
12430,12430,12430,12430,12430,0,0,0,0,0,0,0,0,0,0,0,
12430,12430,12430,12430,12430,0,0,0,0,0,0,0,0,0,0,0,
0,0,0,0,0,0,0,0,0,0,0,0,0,0,0,0,
0,0,0,0,0,0,0,0,0,0,0,0,0,0,0,0,
0,0,0,0,0,0,0,0,0,0,0,0,0,0,0,0,
0,0,0,0,0,0,0,0,0,0,0,0,0,0,0,0,
0,0,0,0,0,0,0,0,0,0,0,0,0,0,0,0,
0,0,0,0,0,0,0,0,0,0,0,0,0,0,0,0,
0,0,0,0,0,0,0,0,0,0,0,0,0,0,0,0,
0,0,0,0,0,0,0,0,0,0,0,0,0,0,0,0,
0,0,0,0,0,0,0,0,0,0,0,0,0,0,0,0,
0,0,0,0,0,0,0,0,0,0,0,0,0,0,0,0
</chunk>
  </data>
 </layer>
 <layer id="9" name="role" width="15" height="15">
  <data encoding="csv">
   <chunk x="-16" y="16" width="16" height="16">
0,0,0,0,0,0,0,0,0,0,0,0,0,0,0,0,
0,0,0,0,0,0,0,0,12430,12430,0,0,0,0,0,0,
0,0,0,0,0,0,0,0,12611,12611,0,0,0,0,0,0,
0,0,0,0,0,0,0,0,0,0,0,0,0,0,0,0,
0,0,0,0,0,0,0,0,0,0,0,0,0,0,0,0,
0,0,0,0,0,0,0,0,0,0,0,0,0,0,0,0,
0,0,0,0,0,0,0,0,0,0,0,0,0,0,0,0,
0,0,0,0,0,0,0,0,0,0,0,0,0,0,0,0,
0,0,0,0,0,0,0,0,0,0,0,0,0,0,0,0,
0,0,0,0,0,0,0,0,0,0,0,0,0,0,0,0,
0,0,0,0,0,0,0,0,0,0,0,0,0,0,0,0,
0,0,0,0,0,0,0,0,0,0,0,0,0,0,0,0,
0,0,0,0,0,0,0,0,0,0,0,0,0,0,0,0,
0,0,0,0,0,0,0,0,0,0,0,0,0,0,0,0,
0,0,0,0,0,0,0,0,0,0,0,0,0,0,0,0,
0,0,0,0,0,0,0,0,0,0,0,0,0,0,0,0
</chunk>
  </data>
 </layer>
 <layer id="10" name="bed_event" width="15" height="15">
  <data encoding="csv">
   <chunk x="-16" y="0" width="16" height="16">
0,0,0,0,0,0,0,0,0,0,0,0,0,0,0,0,
0,0,0,0,0,0,0,0,0,0,0,0,0,0,0,0,
0,0,0,0,0,0,0,0,0,0,0,0,0,0,0,0,
0,0,0,0,12611,12611,12611,12611,0,0,0,0,0,0,0,0,
0,0,0,0,12611,12611,12611,12611,0,0,0,0,0,0,0,0,
0,0,0,0,0,0,0,0,0,0,0,0,0,0,0,0,
0,0,0,0,0,0,0,0,0,0,0,0,0,0,0,0,
0,0,0,0,0,0,0,0,0,0,0,0,0,0,0,0,
0,0,0,0,0,0,0,0,0,0,0,0,0,0,0,0,
0,0,0,0,0,0,0,0,0,0,0,0,0,0,0,0,
0,0,0,0,0,0,0,0,0,0,0,0,0,0,0,0,
0,0,0,0,0,0,0,0,0,0,0,0,0,0,0,0,
0,0,0,0,0,0,0,0,0,0,0,0,0,0,0,0,
0,0,0,0,0,0,0,0,0,0,0,0,0,0,0,0,
0,0,0,0,0,0,0,0,0,0,0,0,0,0,0,0,
0,0,0,0,0,0,0,0,0,0,0,0,0,0,0,0
</chunk>
  </data>
 </layer>
 <layer id="7" name="floor" width="15" height="15">
  <data encoding="csv">
   <chunk x="0" y="-16" width="16" height="16">
0,0,0,0,0,0,0,0,0,0,0,0,0,0,0,0,
0,0,0,0,0,0,0,0,0,0,0,0,0,0,0,0,
0,0,0,0,0,0,0,0,0,0,0,0,0,0,0,0,
0,0,0,0,0,0,0,0,0,0,0,0,0,0,0,0,
0,0,0,0,0,0,0,0,0,0,0,0,0,0,0,0,
0,0,0,0,0,0,0,0,0,0,0,0,0,0,0,0,
0,0,0,0,0,0,0,0,0,0,0,0,0,0,0,0,
0,0,0,0,0,0,0,0,0,0,0,0,0,0,0,0,
0,0,0,0,0,0,0,0,0,0,0,0,0,0,0,0,
0,0,0,0,0,0,0,0,0,0,0,0,0,0,0,0,
0,0,0,0,0,0,0,0,0,0,0,0,0,0,0,0,
0,0,0,0,0,0,0,0,0,0,0,0,0,0,0,0,
0,0,0,0,0,0,0,0,0,0,0,0,0,0,0,0,
0,0,0,0,0,0,0,0,0,0,0,0,0,0,0,0,
0,0,0,0,0,0,0,0,0,0,0,0,0,0,0,0,
0,0,0,0,0,0,0,0,0,0,13443,13444,0,0,0,0
</chunk>
   <chunk x="-16" y="0" width="16" height="16">
0,0,0,0,0,0,0,0,0,0,0,0,0,0,0,0,
0,0,0,0,0,0,0,0,0,0,0,0,0,0,0,0,
0,0,0,0,14182,14182,14182,14182,14182,14182,14182,14182,14182,14182,13443,13444,
0,0,0,0,14182,14182,14182,14182,14182,14182,14182,14182,14182,14182,13459,13460,
0,0,0,0,14182,14182,14182,14182,14182,14182,14182,14182,14182,14182,13443,13444,
0,0,0,0,14182,14182,14182,14182,14182,14182,14182,14182,14182,14182,13459,13460,
0,0,0,0,14182,14182,14182,14182,14182,14182,14182,14182,14182,14182,13443,13444,
0,0,0,0,14182,14182,14182,14182,14182,14182,14182,14182,14182,14182,13443,13444,
0,0,0,0,14182,14182,14182,14182,14182,14182,14182,14182,14182,14194,13443,13444,
0,0,0,0,14201,14202,14203,14204,14205,14206,14207,14208,14201,14202,13459,13460,
0,0,0,0,13443,13443,13443,13444,13460,13444,13444,13444,13444,13459,13459,13443,
0,0,0,0,13443,13444,13444,13444,13443,13443,13443,13443,13444,13444,13444,13444,
0,0,0,0,13459,13460,13444,13460,13443,13444,13444,13443,13443,13444,13444,13444,
0,0,0,0,13459,13460,13444,13460,13443,13444,13460,13444,13444,13444,13460,13443,
0,0,0,0,13459,13460,13460,13460,13443,13444,13460,13444,13460,13444,13460,13444,
0,0,0,0,13443,13459,13460,13460,13443,13444,13460,13444,13460,13444,13460,13444
</chunk>
   <chunk x="0" y="0" width="16" height="16">
0,0,0,0,0,0,0,0,0,0,13443,13444,0,0,0,0,
0,0,0,13443,13443,13443,13443,13444,0,0,13443,13444,13443,13444,0,0,
13444,13444,13444,13444,13444,13444,13444,13444,13444,13443,13444,13443,13443,13444,0,0,
13460,13443,13444,13460,13460,13460,13460,13460,13460,13444,13460,13443,13443,13444,13444,13443,
13443,13443,13444,13459,13460,13460,0,13443,13444,13444,13459,13443,13443,13444,13460,13443,
13459,13443,13444,13444,13443,13444,0,13443,13443,13444,0,13443,13443,13444,13460,13443,
13443,13444,13444,13460,13444,13444,13444,13444,13443,13444,0,13443,13443,13444,13460,13443,
13444,13460,13460,13444,13460,13460,13460,13444,13443,13444,0,13443,13443,13444,13460,13443,
13460,13444,13444,13444,13444,13444,13460,13444,13443,13444,13443,13443,13443,13444,13460,13443,
13443,13444,13444,13460,13460,13460,13460,13460,13443,13444,13459,13459,13443,13444,13460,13443,
13444,13444,13460,13443,13443,13443,13443,13444,13443,13444,13459,13460,13443,13444,13443,13444,
13444,13460,13460,13444,13444,13443,13443,13444,13444,13444,13459,13460,13459,13460,13443,13444,
13460,13459,13460,13444,13460,13443,13443,13444,13444,13444,13459,13460,13459,13460,13444,13444,
13443,13443,13443,13444,13460,13459,13443,13444,13444,13444,13459,13460,13459,13460,13444,13460,
13444,13459,13443,13443,13444,13444,13444,13444,13444,13444,13459,13460,13459,13460,13444,13460,
13460,13443,13459,13443,13444,13460,13444,13460,13444,13444,13459,13460,13459,13460,13460,13459
</chunk>
   <chunk x="16" y="0" width="16" height="16">
0,0,0,0,0,0,0,0,0,0,0,0,0,0,0,0,
0,13443,13444,13444,0,0,0,0,0,0,0,0,0,0,0,0,
0,13443,13444,13460,0,0,0,0,0,0,0,0,0,0,0,0,
13444,13444,13444,13460,0,0,0,0,0,0,0,0,0,0,0,0,
13444,13444,13460,13460,0,0,0,0,0,0,0,0,0,0,0,0,
13444,13460,13459,13460,0,0,0,0,0,0,0,0,0,0,0,0,
13444,13460,13459,13460,0,0,0,0,0,0,0,0,0,0,0,0,
13444,13460,13459,13460,0,0,0,0,0,0,0,0,0,0,0,0,
13444,13460,13459,13460,0,0,0,0,0,0,0,0,0,0,0,0,
13444,13460,13459,13460,0,0,0,0,0,0,0,0,0,0,0,0,
13444,13460,13459,13460,0,0,0,0,0,0,0,0,0,0,0,0,
13460,13460,13459,13460,0,0,0,0,0,0,0,0,0,0,0,0,
13460,13444,13459,13460,0,0,0,0,0,0,0,0,0,0,0,0,
13460,13444,13459,13460,0,0,0,0,0,0,0,0,0,0,0,0,
13443,13444,13459,13460,0,0,0,0,0,0,0,0,0,0,0,0,
13443,13444,13459,13460,0,0,0,0,0,0,0,0,0,0,0,0
</chunk>
   <chunk x="-16" y="16" width="16" height="16">
0,0,0,0,13459,13459,13460,13460,13444,13444,13460,13444,13460,13444,13460,13444,
0,0,0,0,13459,13460,13459,13460,13460,13444,13460,13460,13460,13460,13460,13460,
0,0,0,0,0,0,0,13459,13460,13460,13460,0,0,0,0,13459,
0,0,0,0,0,0,0,0,0,0,0,0,0,0,0,0,
0,0,0,0,0,0,0,0,0,0,0,0,0,0,0,0,
0,0,0,0,0,0,0,0,0,0,0,0,0,0,0,0,
0,0,0,0,0,0,0,0,0,0,0,0,0,0,0,0,
0,0,0,0,0,0,0,0,0,0,0,0,0,0,0,0,
0,0,0,0,0,0,0,0,0,0,0,0,0,0,0,0,
0,0,0,0,0,0,0,0,0,0,0,0,0,0,0,0,
0,0,0,0,0,0,0,0,0,0,0,0,0,0,0,0,
0,0,0,0,0,0,0,0,0,0,0,0,0,0,0,0,
0,0,0,0,0,0,0,0,0,0,0,0,0,0,0,0,
0,0,0,0,0,0,0,0,0,0,0,0,0,0,0,0,
0,0,0,0,0,0,0,0,0,0,0,0,0,0,0,0,
0,0,0,0,0,0,0,0,0,0,0,0,0,0,0,0
</chunk>
   <chunk x="0" y="16" width="16" height="16">
13444,13459,13459,13443,13444,13460,13444,13460,13460,13460,13459,13460,13459,13460,13460,13444,
13460,13444,13444,13444,13444,13460,13460,13460,13459,13460,13459,13460,13459,13460,13460,13460,
13460,13460,13460,13460,13460,13460,13459,13460,13459,13460,0,0,0,0,0,13459,
0,0,0,0,13459,13460,13460,13460,13459,13460,0,0,0,0,0,0,
0,0,0,0,0,0,0,0,0,0,0,0,0,0,0,0,
0,0,0,0,0,0,0,0,0,0,0,0,0,0,0,0,
0,0,0,0,0,0,0,0,0,0,0,0,0,0,0,0,
0,0,0,0,0,0,0,0,0,0,0,0,0,0,0,0,
0,0,0,0,0,0,0,0,0,0,0,0,0,0,0,0,
0,0,0,0,0,0,0,0,0,0,0,0,0,0,0,0,
0,0,0,0,0,0,0,0,0,0,0,0,0,0,0,0,
0,0,0,0,0,0,0,0,0,0,0,0,0,0,0,0,
0,0,0,0,0,0,0,0,0,0,0,0,0,0,0,0,
0,0,0,0,0,0,0,0,0,0,0,0,0,0,0,0,
0,0,0,0,0,0,0,0,0,0,0,0,0,0,0,0,
0,0,0,0,0,0,0,0,0,0,0,0,0,0,0,0
</chunk>
   <chunk x="16" y="16" width="16" height="16">
13444,13444,13459,13460,0,0,0,0,0,0,0,0,0,0,0,0,
13460,13444,13444,13444,0,0,0,0,0,0,0,0,0,0,0,0,
13460,13460,13460,13460,0,0,0,0,0,0,0,0,0,0,0,0,
0,0,0,0,0,0,0,0,0,0,0,0,0,0,0,0,
0,0,0,0,0,0,0,0,0,0,0,0,0,0,0,0,
0,0,0,0,0,0,0,0,0,0,0,0,0,0,0,0,
0,0,0,0,0,0,0,0,0,0,0,0,0,0,0,0,
0,0,0,0,0,0,0,0,0,0,0,0,0,0,0,0,
0,0,0,0,0,0,0,0,0,0,0,0,0,0,0,0,
0,0,0,0,0,0,0,0,0,0,0,0,0,0,0,0,
0,0,0,0,0,0,0,0,0,0,0,0,0,0,0,0,
0,0,0,0,0,0,0,0,0,0,0,0,0,0,0,0,
0,0,0,0,0,0,0,0,0,0,0,0,0,0,0,0,
0,0,0,0,0,0,0,0,0,0,0,0,0,0,0,0,
0,0,0,0,0,0,0,0,0,0,0,0,0,0,0,0,
0,0,0,0,0,0,0,0,0,0,0,0,0,0,0,0
</chunk>
  </data>
 </layer>
 <layer id="4" name="furniture_-1" width="15" height="15">
  <data encoding="csv">
   <chunk x="-16" y="0" width="16" height="16">
0,0,0,0,0,0,0,0,0,0,0,0,0,0,0,0,
0,0,0,0,0,0,0,0,0,0,0,0,0,0,0,0,
0,0,0,0,0,0,0,0,0,0,0,0,0,0,0,0,
0,0,0,0,0,0,0,0,0,0,0,0,0,0,0,0,
0,0,0,0,0,0,0,0,0,0,0,0,0,0,0,0,
0,0,0,0,0,0,0,0,0,0,0,0,0,0,0,0,
0,0,0,0,0,0,0,0,0,0,0,0,0,0,0,0,
0,0,0,0,0,0,0,0,0,0,0,0,0,0,0,0,
0,0,0,0,0,0,0,0,0,0,0,0,0,0,0,0,
0,0,0,0,0,0,0,0,0,0,0,0,0,0,0,0,
0,0,0,0,0,0,0,0,0,0,0,0,0,0,0,0,
0,0,0,0,0,0,0,0,0,0,0,0,0,0,0,0,
0,0,0,0,0,0,0,0,0,0,0,0,0,0,0,0,
0,0,0,0,0,0,0,0,0,0,0,0,0,0,0,0,
0,0,0,0,10487,10488,0,0,0,0,0,0,0,0,0,0,
0,0,0,0,10519,10520,0,0,0,0,0,0,0,0,0,0
</chunk>
   <chunk x="16" y="0" width="16" height="16">
0,0,0,0,0,0,0,0,0,0,0,0,0,0,0,0,
0,0,0,0,0,0,0,0,0,0,0,0,0,0,0,0,
0,0,0,0,0,0,0,0,0,0,0,0,0,0,0,0,
0,9378,0,0,0,0,0,0,0,0,0,0,0,0,0,0,
0,1101,1102,0,0,0,0,0,0,0,0,0,0,0,0,0,
0,0,0,0,0,0,0,0,0,0,0,0,0,0,0,0,
0,0,0,0,0,0,0,0,0,0,0,0,0,0,0,0,
0,0,0,0,0,0,0,0,0,0,0,0,0,0,0,0,
0,0,0,0,0,0,0,0,0,0,0,0,0,0,0,0,
0,0,0,0,0,0,0,0,0,0,0,0,0,0,0,0,
0,0,0,0,0,0,0,0,0,0,0,0,0,0,0,0,
0,0,0,0,0,0,0,0,0,0,0,0,0,0,0,0,
0,0,0,0,0,0,0,0,0,0,0,0,0,0,0,0,
0,0,0,0,0,0,0,0,0,0,0,0,0,0,0,0,
0,0,0,0,0,0,0,0,0,0,0,0,0,0,0,0,
0,0,0,0,0,0,0,0,0,0,0,0,0,0,0,0
</chunk>
   <chunk x="-16" y="16" width="16" height="16">
0,0,0,0,10551,10552,0,0,0,0,0,0,0,0,0,0,
0,0,0,0,10583,10584,0,0,0,0,0,0,0,0,0,0,
0,0,0,0,10615,10616,0,0,0,0,0,0,0,0,0,0,
0,0,0,0,10647,10648,0,0,0,0,0,0,0,0,0,0,
0,0,0,0,0,0,0,0,0,0,0,0,0,0,0,0,
0,0,0,0,0,0,0,0,0,0,0,0,0,0,0,0,
0,0,0,0,0,0,0,0,0,0,0,0,0,0,0,0,
0,0,0,0,0,0,0,0,0,0,0,0,0,0,0,0,
0,0,0,0,0,0,0,0,0,0,0,0,0,0,0,0,
0,0,0,0,0,0,0,0,0,0,0,0,0,0,0,0,
0,0,0,0,0,0,0,0,0,0,0,0,0,0,0,0,
0,0,0,0,0,0,0,0,0,0,0,0,0,0,0,0,
0,0,0,0,0,0,0,0,0,0,0,0,0,0,0,0,
0,0,0,0,0,0,0,0,0,0,0,0,0,0,0,0,
0,0,0,0,0,0,0,0,0,0,0,0,0,0,0,0,
0,0,0,0,0,0,0,0,0,0,0,0,0,0,0,0
</chunk>
   <chunk x="0" y="16" width="16" height="16">
0,0,0,0,0,0,0,0,0,0,0,0,0,0,0,0,
0,0,0,0,0,0,0,0,0,0,0,0,0,0,0,13807,
0,0,0,0,0,0,0,0,0,0,0,0,0,0,0,13823,
0,0,0,0,0,0,0,0,0,0,0,0,0,0,0,13839,
0,0,0,0,0,0,0,0,0,0,0,0,0,0,0,13855,
0,0,0,0,0,0,0,0,0,0,0,0,0,0,0,0,
0,0,0,0,0,0,0,0,0,0,0,0,0,0,0,0,
0,0,0,0,0,0,0,0,0,0,0,0,0,0,0,0,
0,0,0,0,0,0,0,0,0,0,0,0,0,0,0,0,
0,0,0,0,0,0,0,0,0,0,0,0,0,0,0,0,
0,0,0,0,0,0,0,0,0,0,0,0,0,0,0,0,
0,0,0,0,0,0,0,0,0,0,0,0,0,0,0,0,
0,0,0,0,0,0,0,0,0,0,0,0,0,0,0,0,
0,0,0,0,0,0,0,0,0,0,0,0,0,0,0,0,
0,0,0,0,0,0,0,0,0,0,0,0,0,0,0,0,
0,0,0,0,0,0,0,0,0,0,0,0,0,0,0,0
</chunk>
   <chunk x="16" y="16" width="16" height="16">
0,0,0,0,0,0,0,0,0,0,0,0,0,0,0,0,
13808,0,0,0,0,0,0,0,0,0,0,0,0,0,0,0,
13824,0,0,0,0,0,0,0,0,0,0,0,0,0,0,0,
13840,0,0,0,0,0,0,0,0,0,0,0,0,0,0,0,
13856,0,0,0,0,0,0,0,0,0,0,0,0,0,0,0,
0,0,0,0,0,0,0,0,0,0,0,0,0,0,0,0,
0,0,0,0,0,0,0,0,0,0,0,0,0,0,0,0,
0,0,0,0,0,0,0,0,0,0,0,0,0,0,0,0,
0,0,0,0,0,0,0,0,0,0,0,0,0,0,0,0,
0,0,0,0,0,0,0,0,0,0,0,0,0,0,0,0,
0,0,0,0,0,0,0,0,0,0,0,0,0,0,0,0,
0,0,0,0,0,0,0,0,0,0,0,0,0,0,0,0,
0,0,0,0,0,0,0,0,0,0,0,0,0,0,0,0,
0,0,0,0,0,0,0,0,0,0,0,0,0,0,0,0,
0,0,0,0,0,0,0,0,0,0,0,0,0,0,0,0,
0,0,0,0,0,0,0,0,0,0,0,0,0,0,0,0
</chunk>
  </data>
 </layer>
 <layer id="1" name="wall" width="15" height="15">
  <data encoding="csv">
   <chunk x="-16" y="-16" width="16" height="16">
0,0,0,0,0,0,0,0,0,0,0,0,0,0,0,0,
0,0,0,0,0,0,0,0,0,0,0,0,0,0,0,0,
0,0,0,0,0,0,0,0,0,0,0,0,0,0,0,0,
0,0,0,0,0,0,0,0,0,0,0,0,0,0,0,0,
0,0,0,0,0,0,0,0,0,0,0,0,0,0,0,0,
0,0,0,0,0,0,0,0,0,0,0,0,0,0,0,0,
0,0,0,0,0,0,0,0,0,0,0,0,0,0,0,0,
0,0,0,0,0,0,0,0,0,0,0,0,0,0,0,0,
0,0,0,0,0,0,0,0,0,0,0,0,0,0,0,0,
0,0,0,0,0,0,0,0,0,0,0,0,0,0,0,0,
0,0,0,0,0,0,0,0,0,0,0,0,0,0,0,0,
0,0,0,0,0,0,0,0,0,0,0,0,0,0,0,0,
0,0,0,0,0,0,0,0,0,0,0,0,0,0,0,0,
0,0,0,349,635,635,635,635,635,635,635,635,635,635,635,635,
0,0,0,517,663,663,663,663,663,663,663,663,663,663,663,663,
0,0,0,545,719,719,719,719,719,719,719,719,719,719,719,719
</chunk>
   <chunk x="0" y="-16" width="16" height="16">
0,0,0,0,0,0,0,0,0,0,0,0,0,0,0,0,
0,0,0,0,0,0,0,0,0,0,0,0,0,0,0,0,
0,0,0,0,0,0,0,0,0,0,0,0,0,0,0,0,
0,0,0,0,0,0,0,0,0,0,0,0,0,0,0,0,
0,0,0,0,0,0,0,0,0,0,0,0,0,0,0,0,
0,0,0,0,0,0,0,0,0,0,0,0,0,0,0,0,
0,0,0,0,0,0,0,0,0,0,0,0,0,0,0,0,
0,0,0,0,0,0,0,0,0,0,0,0,0,0,0,0,
0,0,0,0,0,0,0,0,0,0,0,0,0,0,0,0,
0,0,0,0,0,0,0,0,0,0,0,0,0,0,0,0,
0,0,0,0,0,0,0,0,0,0,0,0,0,0,0,0,
0,0,0,0,0,0,0,0,0,0,0,0,0,0,0,0,
0,0,0,0,0,0,0,0,0,0,0,0,0,0,0,0,
635,635,635,635,635,635,635,635,635,635,635,635,635,635,635,635,
663,663,663,663,663,663,663,663,663,663,663,663,663,663,663,663,
719,719,719,719,719,719,719,719,719,719,719,719,719,719,719,719
</chunk>
   <chunk x="16" y="-16" width="16" height="16">
0,0,0,0,0,0,0,0,0,0,0,0,0,0,0,0,
0,0,0,0,0,0,0,0,0,0,0,0,0,0,0,0,
0,0,0,0,0,0,0,0,0,0,0,0,0,0,0,0,
0,0,0,0,0,0,0,0,0,0,0,0,0,0,0,0,
0,0,0,0,0,0,0,0,0,0,0,0,0,0,0,0,
0,0,0,0,0,0,0,0,0,0,0,0,0,0,0,0,
0,0,0,0,0,0,0,0,0,0,0,0,0,0,0,0,
0,0,0,0,0,0,0,0,0,0,0,0,0,0,0,0,
0,0,0,0,0,0,0,0,0,0,0,0,0,0,0,0,
0,0,0,0,0,0,0,0,0,0,0,0,0,0,0,0,
0,0,0,0,0,0,0,0,0,0,0,0,0,0,0,0,
0,0,0,0,0,0,0,0,0,0,0,0,0,0,0,0,
0,0,0,0,0,0,0,0,0,0,0,0,0,0,0,0,
635,635,635,635,360,0,0,0,0,0,0,0,0,0,0,0,
663,663,663,663,388,0,0,0,0,0,0,0,0,0,0,0,
719,719,719,719,416,0,0,0,0,0,0,0,0,0,0,0
</chunk>
   <chunk x="-16" y="0" width="16" height="16">
0,0,0,573,747,747,747,747,747,747,747,747,747,747,747,747,
0,0,0,489,775,775,775,775,775,775,775,775,775,775,775,775,
0,0,0,517,0,0,0,0,0,0,0,0,0,0,0,0,
0,0,0,545,0,0,0,0,0,0,0,0,0,0,0,0,
0,0,0,573,0,0,0,0,0,0,0,0,0,0,0,0,
0,0,0,461,0,0,0,0,0,0,0,0,0,0,0,0,
0,0,0,489,0,0,0,0,0,0,0,0,0,0,0,0,
0,0,0,517,0,0,0,0,0,0,0,0,0,0,0,0,
0,0,0,545,0,0,0,0,0,0,0,0,0,0,0,0,
0,0,0,573,0,0,0,0,0,0,0,0,0,0,0,0,
0,0,0,601,0,0,0,0,0,0,0,0,0,0,0,0,
0,0,0,461,0,0,0,0,0,0,0,0,0,0,0,0,
0,0,0,461,0,0,0,0,0,0,0,0,0,0,0,0,
0,0,0,489,0,0,0,0,0,0,0,0,0,0,0,0,
0,0,0,517,0,0,0,0,0,0,0,0,0,0,0,0,
0,0,0,545,0,0,0,0,0,0,0,0,0,0,0,0
</chunk>
   <chunk x="0" y="0" width="16" height="16">
747,747,747,747,747,747,747,747,747,747,747,747,747,747,747,747,
775,775,775,775,775,775,775,775,775,775,775,775,775,775,775,775,
0,0,0,0,0,0,0,0,0,0,0,0,0,0,0,0,
0,0,0,0,0,0,0,0,0,0,0,0,0,0,0,0,
0,0,0,0,0,0,0,0,0,0,0,0,0,0,0,0,
0,0,0,0,0,0,0,0,0,0,0,0,0,0,0,0,
0,0,0,0,0,0,0,0,0,0,0,0,0,0,0,0,
0,0,0,0,0,0,0,0,0,0,0,0,0,0,0,0,
0,0,0,0,0,0,0,0,0,0,0,0,0,0,0,0,
0,0,0,0,0,0,0,0,0,0,0,0,0,0,0,0,
0,0,0,0,0,0,0,0,0,0,0,0,0,0,0,0,
0,0,0,0,0,0,0,0,0,0,0,0,0,0,0,0,
0,0,0,0,0,0,0,0,0,0,0,0,0,0,0,0,
0,0,0,0,0,0,0,0,0,0,0,0,0,0,0,0,
0,0,0,0,0,0,0,0,0,0,0,0,0,0,0,0,
0,0,0,0,0,0,0,0,0,0,0,0,0,0,0,0
</chunk>
   <chunk x="16" y="0" width="16" height="16">
747,747,747,747,444,0,0,0,0,0,0,0,0,0,0,0,
775,775,775,775,472,0,0,0,0,0,0,0,0,0,0,0,
0,0,0,0,500,0,0,0,0,0,0,0,0,0,0,0,
0,0,0,0,528,0,0,0,0,0,0,0,0,0,0,0,
0,0,0,0,472,0,0,0,0,0,0,0,0,0,0,0,
0,0,0,0,500,0,0,0,0,0,0,0,0,0,0,0,
0,0,0,0,472,0,0,0,0,0,0,0,0,0,0,0,
0,0,0,0,500,0,0,0,0,0,0,0,0,0,0,0,
0,0,0,0,528,0,0,0,0,0,0,0,0,0,0,0,
0,0,0,0,556,0,0,0,0,0,0,0,0,0,0,0,
0,0,0,0,584,0,0,0,0,0,0,0,0,0,0,0,
0,0,0,0,500,0,0,0,0,0,0,0,0,0,0,0,
0,0,0,0,528,0,0,0,0,0,0,0,0,0,0,0,
0,0,0,0,500,0,0,0,0,0,0,0,0,0,0,0,
0,0,0,0,528,0,0,0,0,0,0,0,0,0,0,0,
0,0,0,0,556,0,0,0,0,0,0,0,0,0,0,0
</chunk>
   <chunk x="-16" y="16" width="16" height="16">
0,0,0,573,0,0,0,0,0,0,0,0,0,0,0,0,
0,0,0,601,0,0,0,0,0,0,0,0,0,0,0,0,
0,0,0,629,631,632,633,634,0,0,637,638,639,640,638,639,
0,0,0,718,718,718,718,718,718,718,718,718,718,718,718,718,
0,0,0,746,746,746,746,746,746,746,746,746,746,746,746,746,
0,0,0,774,774,774,774,774,774,774,774,774,774,774,774,774,
0,0,0,0,0,0,0,0,0,0,0,0,0,0,0,0,
0,0,0,0,0,0,0,0,0,0,0,0,0,0,0,0,
0,0,0,0,0,0,0,0,0,0,0,0,0,0,0,0,
0,0,0,0,0,0,0,0,0,0,0,0,0,0,0,0,
0,0,0,0,0,0,0,0,0,0,0,0,0,0,0,0,
0,0,0,0,0,0,0,0,0,0,0,0,0,0,0,0,
0,0,0,0,0,0,0,0,0,0,0,0,0,0,0,0,
0,0,0,0,0,0,0,0,0,0,0,0,0,0,0,0,
0,0,0,0,0,0,0,0,0,0,0,0,0,0,0,0,
0,0,0,0,0,0,0,0,0,0,0,0,0,0,0,0
</chunk>
   <chunk x="0" y="16" width="16" height="16">
0,0,0,0,0,0,0,0,0,0,0,0,0,0,0,0,
0,0,0,0,0,0,0,0,0,0,0,0,0,0,0,0,
640,632,633,634,635,636,637,638,639,640,631,632,633,634,635,636,
718,718,718,718,718,718,718,718,718,718,718,718,718,718,718,718,
746,746,746,746,746,746,746,746,746,746,746,746,746,746,746,746,
774,774,774,774,774,774,774,774,774,774,774,774,774,774,774,774,
0,0,0,0,0,0,0,0,0,0,0,0,0,0,0,0,
0,0,0,0,0,0,0,0,0,0,0,0,0,0,0,0,
0,0,0,0,0,0,0,0,0,0,0,0,0,0,0,0,
0,0,0,0,0,0,0,0,0,0,0,0,0,0,0,0,
0,0,0,0,0,0,0,0,0,0,0,0,0,0,0,0,
0,0,0,0,0,0,0,0,0,0,0,0,0,0,0,0,
0,0,0,0,0,0,0,0,0,0,0,0,0,0,0,0,
0,0,0,0,0,0,0,0,0,0,0,0,0,0,0,0,
0,0,0,0,0,0,0,0,0,0,0,0,0,0,0,0,
0,0,0,0,0,0,0,0,0,0,0,0,0,0,0,0
</chunk>
   <chunk x="16" y="16" width="16" height="16">
0,0,0,0,584,0,0,0,0,0,0,0,0,0,0,0,
0,0,0,0,612,0,0,0,0,0,0,0,0,0,0,0,
637,638,639,640,640,0,0,0,0,0,0,0,0,0,0,0,
718,718,718,718,718,0,0,0,0,0,0,0,0,0,0,0,
746,746,746,746,746,0,0,0,0,0,0,0,0,0,0,0,
774,774,774,774,774,0,0,0,0,0,0,0,0,0,0,0,
0,0,0,0,0,0,0,0,0,0,0,0,0,0,0,0,
0,0,0,0,0,0,0,0,0,0,0,0,0,0,0,0,
0,0,0,0,0,0,0,0,0,0,0,0,0,0,0,0,
0,0,0,0,0,0,0,0,0,0,0,0,0,0,0,0,
0,0,0,0,0,0,0,0,0,0,0,0,0,0,0,0,
0,0,0,0,0,0,0,0,0,0,0,0,0,0,0,0,
0,0,0,0,0,0,0,0,0,0,0,0,0,0,0,0,
0,0,0,0,0,0,0,0,0,0,0,0,0,0,0,0,
0,0,0,0,0,0,0,0,0,0,0,0,0,0,0,0,
0,0,0,0,0,0,0,0,0,0,0,0,0,0,0,0
</chunk>
  </data>
 </layer>
 <layer id="5" name="door" width="15" height="15">
  <data encoding="csv">
   <chunk x="-16" y="16" width="16" height="16">
0,0,0,0,0,0,0,0,0,0,0,0,0,0,0,0,
0,0,0,0,0,0,0,0,0,0,0,0,0,0,0,0,
0,0,0,0,0,0,0,0,5945,5946,0,0,0,0,0,0,
0,0,0,0,0,0,0,0,6014,6015,0,0,0,0,0,0,
0,0,0,0,0,0,0,0,6083,6084,0,0,0,0,0,0,
0,0,0,0,0,0,0,0,6152,6153,0,0,0,0,0,0,
0,0,0,0,0,0,0,0,0,0,0,0,0,0,0,0,
0,0,0,0,0,0,0,0,0,0,0,0,0,0,0,0,
0,0,0,0,0,0,0,0,0,0,0,0,0,0,0,0,
0,0,0,0,0,0,0,0,0,0,0,0,0,0,0,0,
0,0,0,0,0,0,0,0,0,0,0,0,0,0,0,0,
0,0,0,0,0,0,0,0,0,0,0,0,0,0,0,0,
0,0,0,0,0,0,0,0,0,0,0,0,0,0,0,0,
0,0,0,0,0,0,0,0,0,0,0,0,0,0,0,0,
0,0,0,0,0,0,0,0,0,0,0,0,0,0,0,0,
0,0,0,0,0,0,0,0,0,0,0,0,0,0,0,0
</chunk>
  </data>
 </layer>
 <layer id="2" name="furniture" width="15" height="15">
  <data encoding="csv">
   <chunk x="-16" y="-16" width="16" height="16">
0,0,0,0,0,0,0,0,0,0,0,0,0,0,0,0,
0,0,0,0,0,0,0,0,0,0,0,0,0,0,0,0,
0,0,0,0,0,0,0,0,0,0,0,0,0,0,0,0,
0,0,0,0,0,0,0,0,0,0,0,0,0,0,0,0,
0,0,0,0,0,0,0,0,0,0,0,0,0,0,0,0,
0,0,0,0,0,0,0,0,0,0,0,0,0,0,0,0,
0,0,0,0,0,0,0,0,0,0,0,0,0,0,0,0,
0,0,0,0,0,0,0,0,0,0,0,0,0,0,0,0,
0,0,0,0,0,0,0,0,0,0,0,0,0,0,0,0,
0,0,0,0,0,0,0,0,0,0,0,0,0,0,0,0,
0,0,0,0,0,0,0,0,0,0,0,0,0,0,0,0,
0,0,0,0,0,0,0,0,0,0,0,0,0,0,0,0,
0,0,0,0,0,0,0,0,0,0,0,0,0,0,0,0,
0,0,0,0,0,0,0,0,0,0,0,0,0,0,0,0,
0,0,0,0,0,0,0,0,0,0,0,0,0,0,0,2107,
0,0,0,0,0,0,0,0,1607,1608,13119,13120,2437,2438,0,2139
</chunk>
   <chunk x="0" y="-16" width="16" height="16">
0,0,0,0,0,0,0,0,0,0,0,0,0,0,0,0,
0,0,0,0,0,0,0,0,0,0,0,0,0,0,0,0,
0,0,0,0,0,0,0,0,0,0,0,0,0,0,0,0,
0,0,0,0,0,0,0,0,0,0,0,0,0,0,0,0,
0,0,0,0,0,0,0,0,0,0,0,0,0,0,0,0,
0,0,0,0,0,0,0,0,0,0,0,0,0,0,0,0,
0,0,0,0,0,0,0,0,0,0,0,0,0,0,0,0,
0,0,0,0,0,0,0,0,0,0,0,0,0,0,0,0,
0,0,0,0,0,0,0,0,0,0,0,0,0,0,0,0,
0,0,0,0,0,0,0,0,0,0,0,0,0,0,0,0,
0,0,0,0,0,0,0,0,0,0,0,0,0,0,0,0,
0,0,0,0,0,0,0,0,0,0,0,0,0,0,0,0,
0,0,0,0,0,0,0,0,0,0,0,0,0,0,0,0,
0,0,0,0,0,0,0,0,0,0,0,0,0,0,0,0,
2108,0,0,0,0,0,0,0,0,0,0,0,0,0,0,0,
2140,0,0,0,0,0,0,2255,2256,0,0,10363,10364,0,1603,1604
</chunk>
   <chunk x="16" y="-16" width="16" height="16">
0,0,0,0,0,0,0,0,0,0,0,0,0,0,0,0,
0,0,0,0,0,0,0,0,0,0,0,0,0,0,0,0,
0,0,0,0,0,0,0,0,0,0,0,0,0,0,0,0,
0,0,0,0,0,0,0,0,0,0,0,0,0,0,0,0,
0,0,0,0,0,0,0,0,0,0,0,0,0,0,0,0,
0,0,0,0,0,0,0,0,0,0,0,0,0,0,0,0,
0,0,0,0,0,0,0,0,0,0,0,0,0,0,0,0,
0,0,0,0,0,0,0,0,0,0,0,0,0,0,0,0,
0,0,0,0,0,0,0,0,0,0,0,0,0,0,0,0,
0,0,0,0,0,0,0,0,0,0,0,0,0,0,0,0,
0,0,0,0,0,0,0,0,0,0,0,0,0,0,0,0,
0,0,0,0,0,0,0,0,0,0,0,0,0,0,0,0,
0,0,0,0,0,0,0,0,0,0,0,0,0,0,0,0,
0,0,0,0,0,0,0,0,0,0,0,0,0,0,0,0,
0,0,0,0,0,0,0,0,0,0,0,0,0,0,0,0,
1603,1604,0,0,0,0,0,0,0,0,0,0,0,0,0,0
</chunk>
   <chunk x="-16" y="0" width="16" height="16">
0,0,0,0,1965,1966,1967,1968,1639,1640,13151,13152,2469,2470,0,2171,
0,0,0,0,1997,1998,1999,2000,1671,1672,13183,13184,0,0,0,2203,
0,0,0,0,2029,2030,2031,2032,1703,1704,13215,13216,0,0,0,0,
0,0,0,0,2061,2062,2063,10351,10352,0,0,0,0,0,0,0,
0,0,0,0,0,0,0,10383,10384,0,0,0,0,0,0,0,
0,0,0,0,0,0,0,10415,10416,0,0,0,0,3581,3582,0,
0,0,0,0,1101,1102,0,10447,10448,0,0,0,0,3650,3651,0,
0,0,0,0,0,0,0,0,0,0,0,0,0,3581,3582,0,
0,0,0,0,0,0,0,0,0,0,0,0,0,3650,3651,0,
0,0,0,0,3717,3718,3718,3717,3718,3717,3718,3717,3718,3719,3720,0,
0,0,0,0,3786,3787,3787,3786,3787,3786,3787,3786,3787,3788,3789,0,
0,0,0,0,0,0,0,0,0,0,0,0,0,0,0,0,
0,0,0,0,0,0,0,0,0,0,0,0,0,0,0,0,
0,0,0,0,0,0,0,0,0,0,0,0,0,0,0,0,
0,0,0,0,0,0,0,0,0,0,0,0,0,0,0,0,
0,0,0,0,0,0,0,0,0,0,0,0,0,0,0,0
</chunk>
   <chunk x="0" y="0" width="16" height="16">
2172,0,0,0,0,0,0,2287,2288,0,0,10395,10396,0,1635,1636,
2204,0,0,0,0,0,0,0,0,0,0,0,0,0,1667,1668,
0,0,0,0,0,0,0,0,0,0,0,0,1101,1102,1699,1700,
0,0,0,0,0,0,0,0,0,0,0,0,0,0,0,0,
0,0,0,0,0,0,0,0,0,0,0,0,0,0,0,0,
0,0,0,0,0,0,0,0,0,0,0,0,0,0,0,1101,
0,0,0,0,0,0,0,0,0,0,0,0,0,1101,1102,0,
0,0,0,0,0,0,0,0,0,0,0,0,0,0,0,0,
0,0,0,0,0,0,0,0,0,0,0,0,0,0,0,0,
0,0,0,0,0,0,0,0,0,0,0,0,0,0,0,0,
0,0,0,0,0,0,0,0,0,0,0,0,0,0,0,0,
0,0,0,0,0,0,0,0,0,0,0,0,0,0,0,0,
0,0,0,0,0,0,0,0,0,0,0,0,0,0,0,0,
0,0,0,0,0,0,0,0,0,0,0,0,0,0,0,0,
0,0,0,0,0,0,0,0,0,0,0,0,0,0,0,0,
0,0,0,0,0,0,0,0,0,0,0,0,0,0,0,0
</chunk>
   <chunk x="16" y="0" width="16" height="16">
1635,1636,13807,13808,0,0,0,0,0,0,0,0,0,0,0,0,
1667,1668,13823,13824,0,0,0,0,0,0,0,0,0,0,0,0,
1699,1700,13839,13840,0,0,0,0,0,0,0,0,0,0,0,0,
0,9378,13855,13856,0,0,0,0,0,0,0,0,0,0,0,0,
0,9447,9448,9449,0,0,0,0,0,0,0,0,0,0,0,0,
1102,9516,9517,9518,0,0,0,0,0,0,0,0,0,0,0,0,
0,9585,9586,9587,0,0,0,0,0,0,0,0,0,0,0,0,
0,9654,9655,9656,0,0,0,0,0,0,0,0,0,0,0,0,
0,9723,9724,9725,0,0,0,0,0,0,0,0,0,0,0,0,
0,0,0,0,0,0,0,0,0,0,0,0,0,0,0,0,
0,0,0,0,0,0,0,0,0,0,0,0,0,0,0,0,
0,0,0,0,0,0,0,0,0,0,0,0,0,0,0,0,
0,9378,9379,9380,0,0,0,0,0,0,0,0,0,0,0,0,
0,9447,9448,9449,0,0,0,0,0,0,0,0,0,0,0,0,
0,9516,9517,9518,0,0,0,0,0,0,0,0,0,0,0,0,
0,9585,9586,9587,0,0,0,0,0,0,0,0,0,0,0,0
</chunk>
   <chunk x="16" y="16" width="16" height="16">
0,9654,9655,9656,0,0,0,0,0,0,0,0,0,0,0,0,
0,9723,9724,9725,0,0,0,0,0,0,0,0,0,0,0,0,
0,0,0,0,0,0,0,0,0,0,0,0,0,0,0,0,
0,0,0,0,0,0,0,0,0,0,0,0,0,0,0,0,
0,0,0,0,0,0,0,0,0,0,0,0,0,0,0,0,
0,0,0,0,0,0,0,0,0,0,0,0,0,0,0,0,
0,0,0,0,0,0,0,0,0,0,0,0,0,0,0,0,
0,0,0,0,0,0,0,0,0,0,0,0,0,0,0,0,
0,0,0,0,0,0,0,0,0,0,0,0,0,0,0,0,
0,0,0,0,0,0,0,0,0,0,0,0,0,0,0,0,
0,0,0,0,0,0,0,0,0,0,0,0,0,0,0,0,
0,0,0,0,0,0,0,0,0,0,0,0,0,0,0,0,
0,0,0,0,0,0,0,0,0,0,0,0,0,0,0,0,
0,0,0,0,0,0,0,0,0,0,0,0,0,0,0,0,
0,0,0,0,0,0,0,0,0,0,0,0,0,0,0,0,
0,0,0,0,0,0,0,0,0,0,0,0,0,0,0,0
</chunk>
  </data>
 </layer>
 <layer id="3" name="furniture_1" width="15" height="15">
  <data encoding="csv">
   <chunk x="-16" y="-16" width="16" height="16">
0,0,0,0,0,0,0,0,0,0,0,0,0,0,0,0,
0,0,0,0,0,0,0,0,0,0,0,0,0,0,0,0,
0,0,0,0,0,0,0,0,0,0,0,0,0,0,0,0,
0,0,0,0,0,0,0,0,0,0,0,0,0,0,0,0,
0,0,0,0,0,0,0,0,0,0,0,0,0,0,0,0,
0,0,0,0,0,0,0,0,0,0,0,0,0,0,0,0,
0,0,0,0,0,0,0,0,0,0,0,0,0,0,0,0,
0,0,0,0,0,0,0,0,0,0,0,0,0,0,0,0,
0,0,0,0,0,0,0,0,0,0,0,0,0,0,0,0,
0,0,0,0,0,0,0,0,0,0,0,0,0,0,0,0,
0,0,0,0,0,0,0,0,0,0,0,0,0,0,0,0,
0,0,0,0,0,0,0,0,0,0,0,0,0,0,0,0,
0,0,0,0,0,0,0,0,0,0,0,0,0,0,0,0,
0,0,0,0,0,0,0,0,0,0,0,0,0,0,0,0,
0,0,0,0,12397,12398,12399,12400,1499,1500,0,0,0,0,0,0,
0,0,0,0,12429,12430,12431,12432,1515,1516,0,0,0,0,0,0
</chunk>
   <chunk x="0" y="-16" width="16" height="16">
0,0,0,0,0,0,0,0,0,0,0,0,0,0,0,0,
0,0,0,0,0,0,0,0,0,0,0,0,0,0,0,0,
0,0,0,0,0,0,0,0,0,0,0,0,0,0,0,0,
0,0,0,0,0,0,0,0,0,0,0,0,0,0,0,0,
0,0,0,0,0,0,0,0,0,0,0,0,0,0,0,0,
0,0,0,0,0,0,0,0,0,0,0,0,0,0,0,0,
0,0,0,0,0,0,0,0,0,0,0,0,0,0,0,0,
0,0,0,0,0,0,0,0,0,0,0,0,0,0,0,0,
0,0,0,0,0,0,0,0,0,0,0,0,0,0,0,0,
0,0,0,0,0,0,0,0,0,0,0,0,0,0,0,0,
0,0,0,0,0,0,0,0,0,0,0,0,0,0,0,0,
0,0,0,0,0,0,0,0,0,0,0,0,0,0,0,0,
0,0,0,0,0,0,0,0,0,0,0,0,0,0,0,0,
0,0,0,0,0,0,0,0,0,0,0,0,0,0,0,0,
0,0,0,1721,1722,0,0,0,0,0,0,0,0,0,0,0,
0,0,0,1753,1754,0,0,0,0,0,0,0,0,0,0,0
</chunk>
   <chunk x="-16" y="0" width="16" height="16">
0,0,0,0,12461,12462,12463,12464,0,0,0,0,0,0,0,0,
0,0,0,0,12493,12494,12495,12496,0,0,0,0,0,0,0,0,
0,0,0,0,12525,12526,12527,12528,0,0,0,0,0,0,0,0,
0,0,0,0,12557,12558,12559,12560,0,0,0,0,0,0,0,0,
0,0,0,0,0,0,0,0,0,0,0,0,0,0,0,0,
0,0,0,0,0,0,0,0,0,0,0,0,0,0,0,0,
0,0,0,0,0,0,0,0,0,1867,1868,0,0,0,0,0,
0,0,0,0,0,0,0,0,0,1899,1900,0,0,0,0,0,
0,0,0,0,0,0,3790,3791,0,0,14027,14028,0,0,0,0,
0,0,0,0,0,0,3859,3860,0,0,14043,14044,0,0,0,0,
0,0,0,0,0,0,3928,3929,0,0,0,0,0,0,0,0,
0,0,0,0,0,0,0,0,0,0,0,0,0,0,0,0,
0,0,0,0,0,0,0,0,0,0,0,0,0,0,0,0,
0,0,0,0,0,0,0,0,0,0,0,0,0,0,0,0,
0,0,0,0,0,0,0,0,0,0,0,0,0,0,0,0,
0,0,0,0,0,0,0,0,0,0,0,0,0,0,0,0
</chunk>
   <chunk x="0" y="0" width="16" height="16">
0,0,0,0,0,0,0,0,0,0,0,0,0,0,0,0,
0,0,0,0,0,0,0,0,0,0,0,0,0,0,0,0,
0,0,0,0,0,0,0,0,0,0,0,0,0,0,0,0,
0,0,0,0,0,13443,13443,0,0,0,0,0,0,0,0,0,
0,0,0,0,0,13459,13443,13443,0,0,0,0,0,0,0,0,
0,0,0,0,0,0,13459,13443,13443,13443,13443,0,0,0,0,0,
0,0,0,0,0,0,0,13459,13459,13459,13443,0,0,0,0,0,
0,0,0,0,0,0,0,0,0,0,13443,0,0,0,0,0,
0,0,0,0,0,0,0,0,0,0,13459,0,0,0,0,0,
0,0,0,0,0,0,0,0,0,0,0,0,0,0,0,0,
0,0,0,0,0,0,0,0,0,0,0,0,0,0,0,0,
0,0,0,0,0,0,0,0,0,0,0,0,0,0,0,0,
0,0,0,0,0,0,0,0,0,0,0,0,0,0,0,0,
0,0,0,0,0,0,0,0,0,0,0,0,0,0,0,0,
0,0,0,0,0,0,0,0,0,0,0,0,0,0,0,0,
0,0,0,0,0,0,0,0,0,0,0,0,0,0,0,0
</chunk>
   <chunk x="16" y="0" width="16" height="16">
0,0,0,0,0,0,0,0,0,0,0,0,0,0,0,0,
0,0,0,0,0,0,0,0,0,0,0,0,0,0,0,0,
0,0,0,0,0,0,0,0,0,0,0,0,0,0,0,0,
0,0,0,0,0,0,0,0,0,0,0,0,0,0,0,0,
0,0,0,0,0,0,0,0,0,0,0,0,0,0,0,0,
0,0,0,0,0,0,0,0,0,0,0,0,0,0,0,0,
0,0,0,0,0,0,0,0,0,0,0,0,0,0,0,0,
0,0,0,0,0,0,0,0,0,0,0,0,0,0,0,0,
0,0,11391,11392,0,0,0,0,0,0,0,0,0,0,0,0,
0,0,11423,11424,0,0,0,0,0,0,0,0,0,0,0,0,
0,0,11455,11456,0,0,0,0,0,0,0,0,0,0,0,0,
0,0,11487,11488,0,0,0,0,0,0,0,0,0,0,0,0,
0,0,11519,11520,0,0,0,0,0,0,0,0,0,0,0,0,
0,0,0,0,0,0,0,0,0,0,0,0,0,0,0,0,
0,0,0,0,0,0,0,0,0,0,0,0,0,0,0,0,
0,0,0,0,0,0,0,0,0,0,0,0,0,0,0,0
</chunk>
  </data>
 </layer>
 <layer id="6" name="furniture_2" width="15" height="15">
  <data encoding="csv"/>
 </layer>
</map>
