<?xml version="1.0" encoding="UTF-8"?>
<map version="1.10" tiledversion="1.12.1" orientation="orthogonal" renderorder="right-down" width="15" height="15" tilewidth="16" tileheight="16" infinite="1" nextlayerid="21" nextobjectid="1">
 <tileset firstgid="1" name="house_indoor_wall" tilewidth="16" tileheight="16" tilecount="1008" columns="28">
  <image source="../src/assets/game/sucai/house_indoor_wall.png" width="448" height="576"/>
 </tileset>
 <tileset firstgid="1009" name="house_indoor" tilewidth="16" tileheight="16" tilecount="7728" columns="69">
  <image source="../src/assets/game/sucai/house_indoor.png" width="1116" height="1792"/>
 </tileset>
 <tileset firstgid="8737" name="house_indoor_europe" tilewidth="16" tileheight="16" tilecount="2304" columns="48">
  <image source="../src/assets/game/sucai/house_indoor_europe.png" width="768" height="768"/>
 </tileset>
 <tileset firstgid="11041" name="house_indoor_2" tilewidth="16" tileheight="16" tilecount="768" columns="16">
  <image source="../src/assets/game/sucai/house_indoor_2.PNG" width="256" height="768"/>
 </tileset>
 <tileset firstgid="11809" name="farm_object_2" tilewidth="16" tileheight="16" tilecount="1024" columns="32">
  <image source="../src/assets/game/sucai/farm_object_2.png" width="512" height="512"/>
 </tileset>
 <layer id="20" name="role" width="15" height="15">
  <data encoding="csv">
   <chunk x="-16" y="0" width="16" height="16">
0,0,0,0,0,0,0,0,0,0,0,0,0,0,0,0,
0,0,0,0,0,0,0,0,0,0,0,0,0,0,0,0,
0,0,0,0,0,0,0,0,0,0,0,0,0,0,0,0,
0,0,0,0,0,0,0,0,0,0,0,0,0,0,903,0,
0,0,0,0,0,0,0,0,0,0,0,0,0,0,0,0,
0,0,0,0,0,0,0,0,0,0,0,0,0,0,0,0,
0,0,0,0,0,0,0,0,0,0,0,0,0,0,0,0,
0,0,0,0,0,0,0,0,0,0,0,0,0,0,0,0,
0,0,0,0,0,0,0,0,0,0,0,0,0,0,0,0,
0,0,0,0,0,0,0,0,0,0,0,0,0,0,0,0,
0,0,0,0,0,0,0,0,0,0,0,0,0,0,0,0,
0,0,0,0,0,0,0,0,0,0,0,0,0,0,0,0,
0,0,0,0,0,0,0,0,0,0,0,0,0,0,0,0,
0,0,0,0,0,0,0,0,0,0,0,0,0,0,0,0,
0,0,0,0,0,0,0,0,0,0,0,0,0,0,0,0,
0,0,0,0,0,0,0,0,0,0,0,0,0,0,0,0
</chunk>
  </data>
 </layer>
 <layer id="19" name="leave_event" width="15" height="15">
  <data encoding="csv">
   <chunk x="-16" y="0" width="16" height="16">
0,0,0,0,0,0,0,0,0,0,0,0,0,0,0,0,
0,0,0,0,0,0,0,0,0,0,0,0,0,0,0,0,
0,0,0,0,0,0,0,0,0,0,0,0,0,0,0,0,
0,0,0,0,0,0,0,0,0,0,0,0,0,0,903,903,
0,0,0,0,0,0,0,0,0,0,0,0,0,0,903,903,
0,0,0,0,0,0,0,0,0,0,0,0,0,0,0,0,
0,0,0,0,0,0,0,0,0,0,0,0,0,0,0,0,
0,0,0,0,0,0,0,0,0,0,0,0,0,0,0,0,
0,0,0,0,0,0,0,0,0,0,0,0,0,0,0,0,
0,0,0,0,0,0,0,0,0,0,0,0,0,0,0,0,
0,0,0,0,0,0,0,0,0,0,0,0,0,0,0,0,
0,0,0,0,0,0,0,0,0,0,0,0,0,0,0,0,
0,0,0,0,0,0,0,0,0,0,0,0,0,0,0,0,
0,0,0,0,0,0,0,0,0,0,0,0,0,0,0,0,
0,0,0,0,0,0,0,0,0,0,0,0,0,0,0,0,
0,0,0,0,0,0,0,0,0,0,0,0,0,0,0,0
</chunk>
  </data>
 </layer>
 <layer id="17" name="lixue_room_event" width="15" height="15">
  <data encoding="csv">
   <chunk x="-16" y="-32" width="16" height="16">
0,0,0,0,0,0,0,0,0,0,0,0,0,0,0,0,
0,0,0,0,0,0,0,0,0,0,0,0,0,0,0,0,
0,0,0,0,0,0,0,0,0,0,0,0,0,0,0,0,
0,0,0,0,0,0,0,0,0,0,0,0,0,0,0,0,
0,0,0,0,0,0,0,0,0,0,0,0,0,0,0,0,
0,0,903,903,0,0,0,0,0,0,0,0,0,0,0,0,
0,0,903,903,0,0,0,0,0,0,0,0,0,0,0,0,
0,0,0,0,0,0,0,0,0,0,0,0,0,0,0,0,
0,0,0,0,0,0,0,0,0,0,0,0,0,0,0,0,
0,0,0,0,0,0,0,0,0,0,0,0,0,0,0,0,
0,0,0,0,0,0,0,0,0,0,0,0,0,0,0,0,
0,0,0,0,0,0,0,0,0,0,0,0,0,0,0,0,
0,0,0,0,0,0,0,0,0,0,0,0,0,0,0,0,
0,0,0,0,0,0,0,0,0,0,0,0,0,0,0,0,
0,0,0,0,0,0,0,0,0,0,0,0,0,0,0,0,
0,0,0,0,0,0,0,0,0,0,0,0,0,0,0,0
</chunk>
  </data>
 </layer>
 <layer id="18" name="locked_room_event" width="15" height="15">
  <data encoding="csv">
   <chunk x="-32" y="-32" width="16" height="16">
0,0,0,0,0,0,0,0,0,0,0,0,0,0,0,0,
0,0,0,0,0,0,0,0,0,0,0,0,0,0,0,0,
0,0,0,0,0,0,0,0,0,0,0,0,0,0,0,0,
0,0,0,0,0,0,0,0,0,0,0,0,0,0,0,0,
0,0,0,0,0,0,0,0,0,0,0,0,0,0,0,0,
0,0,0,0,0,0,0,0,0,0,0,0,903,903,0,0,
0,0,0,0,0,0,0,0,0,0,0,0,903,903,0,0,
0,0,0,0,0,0,0,0,0,0,0,0,0,0,0,0,
0,0,0,0,0,0,0,0,0,0,0,0,0,0,0,0,
0,0,0,0,0,0,0,0,0,0,0,0,0,0,0,0,
0,0,0,0,0,0,0,0,0,0,0,0,0,0,0,0,
0,0,0,0,0,0,0,0,0,0,0,0,0,0,0,0,
0,0,0,0,0,0,0,0,0,0,0,0,0,0,0,0,
0,0,0,0,0,0,0,0,0,0,0,0,0,0,0,0,
0,0,0,0,0,0,0,0,0,0,0,0,0,0,0,0,
0,0,0,0,0,0,0,0,0,0,0,0,0,0,0,0
</chunk>
  </data>
 </layer>
 <layer id="16" name="mumu_room_event" width="15" height="15">
  <data encoding="csv">
   <chunk x="16" y="-32" width="16" height="16">
0,0,0,0,0,0,0,0,0,0,0,0,0,0,0,0,
0,0,0,0,0,0,0,0,0,0,0,0,0,0,0,0,
0,0,0,0,0,0,0,0,0,0,0,0,0,0,0,0,
0,0,0,0,0,0,0,0,0,0,0,0,0,0,0,0,
0,0,0,0,0,0,0,0,0,0,0,0,0,0,0,0,
0,0,0,0,0,0,0,0,0,0,0,0,0,0,0,0,
0,0,903,903,903,0,0,0,0,0,0,0,0,0,0,0,
0,0,903,903,903,0,0,0,0,0,0,0,0,0,0,0,
0,0,903,903,903,0,0,0,0,0,0,0,0,0,0,0,
0,0,0,0,0,0,0,0,0,0,0,0,0,0,0,0,
0,0,0,0,0,0,0,0,0,0,0,0,0,0,0,0,
0,0,0,0,0,0,0,0,0,0,0,0,0,0,0,0,
0,0,0,0,0,0,0,0,0,0,0,0,0,0,0,0,
0,0,0,0,0,0,0,0,0,0,0,0,0,0,0,0,
0,0,0,0,0,0,0,0,0,0,0,0,0,0,0,0,
0,0,0,0,0,0,0,0,0,0,0,0,0,0,0,0
</chunk>
  </data>
 </layer>
 <layer id="15" name="liluo_room_event" width="15" height="15">
  <data encoding="csv">
   <chunk x="0" y="-32" width="16" height="16">
0,0,0,0,0,0,0,0,0,0,0,0,0,0,0,0,
0,0,0,0,0,0,0,0,0,0,0,0,0,0,0,0,
0,0,0,0,0,0,0,0,0,0,0,0,0,0,0,0,
0,0,0,0,0,0,0,0,0,0,0,0,0,0,0,0,
0,0,0,0,0,0,0,0,0,0,0,0,0,0,0,0,
0,0,0,0,0,0,0,0,0,0,903,903,0,0,0,0,
0,0,0,0,0,0,0,0,0,0,903,903,0,0,0,0,
0,0,0,0,0,0,0,0,0,0,0,0,0,0,0,0,
0,0,0,0,0,0,0,0,0,0,0,0,0,0,0,0,
0,0,0,0,0,0,0,0,0,0,0,0,0,0,0,0,
0,0,0,0,0,0,0,0,0,0,0,0,0,0,0,0,
0,0,0,0,0,0,0,0,0,0,0,0,0,0,0,0,
0,0,0,0,0,0,0,0,0,0,0,0,0,0,0,0,
0,0,0,0,0,0,0,0,0,0,0,0,0,0,0,0,
0,0,0,0,0,0,0,0,0,0,0,0,0,0,0,0,
0,0,0,0,0,0,0,0,0,0,0,0,0,0,0,0
</chunk>
  </data>
 </layer>
 <layer id="14" name="Collision" width="15" height="15">
  <data encoding="csv">
   <chunk x="-32" y="-32" width="16" height="16">
0,0,0,0,0,0,0,0,0,0,0,0,0,0,0,0,
0,0,0,0,0,0,0,0,903,903,903,903,903,903,903,903,
0,0,0,0,0,0,0,0,903,903,903,903,903,903,903,903,
0,0,0,0,0,0,0,0,903,903,903,903,903,903,903,903,
0,0,0,0,0,0,0,0,903,903,903,903,903,903,903,903,
0,0,0,0,0,0,0,0,903,903,903,903,0,0,903,903,
0,0,0,0,0,0,0,0,903,903,903,0,0,0,0,0,
0,0,0,0,0,0,0,0,903,0,0,0,0,0,0,0,
0,0,0,0,0,0,0,0,903,0,0,0,0,0,0,0,
0,0,0,0,0,0,0,0,903,0,0,0,0,0,0,0,
0,0,0,0,0,0,0,0,903,0,0,0,0,0,0,0,
0,0,0,0,0,0,0,0,903,903,903,903,903,903,903,903,
0,0,0,0,0,0,0,0,903,903,903,903,903,903,903,903,
0,0,0,0,0,0,0,0,903,903,903,903,903,903,903,903,
0,0,0,0,0,0,0,0,903,903,903,903,903,903,903,903,
0,0,0,0,0,0,0,0,903,903,903,903,903,903,903,903
</chunk>
   <chunk x="-16" y="-32" width="16" height="16">
0,0,0,0,0,0,0,0,0,0,0,0,0,0,0,0,
903,903,903,903,903,903,903,903,903,903,903,903,903,903,903,903,
903,903,903,903,903,903,903,903,903,903,903,903,903,903,903,903,
903,903,903,903,903,903,903,903,903,903,903,903,903,903,903,903,
903,903,903,903,903,903,903,903,903,903,903,903,903,903,903,903,
903,903,0,0,903,903,903,903,903,903,903,903,903,903,903,903,
0,0,0,0,0,0,0,0,0,0,0,0,0,0,0,0,
0,0,0,0,0,0,0,0,0,0,0,0,0,0,0,0,
0,0,0,0,0,0,0,0,0,0,0,0,0,0,0,0,
0,0,0,0,0,0,0,0,0,0,0,0,0,0,0,0,
0,0,0,0,0,0,0,0,0,0,0,0,0,0,0,0,
903,903,903,903,903,903,903,903,0,0,0,903,903,903,903,903,
903,903,903,903,903,903,903,903,0,0,0,903,903,903,903,903,
903,903,903,903,903,903,903,903,0,0,0,903,903,903,903,903,
903,903,903,903,903,903,903,903,0,0,0,903,903,903,903,903,
903,903,903,903,903,903,903,903,0,0,0,903,903,903,903,903
</chunk>
   <chunk x="0" y="-32" width="16" height="16">
0,0,0,0,0,0,0,0,0,0,0,0,0,0,0,0,
903,903,903,903,903,903,903,903,903,903,903,903,903,903,903,903,
903,903,903,903,903,903,903,903,903,903,903,903,903,903,903,903,
903,903,903,903,903,903,903,903,903,903,903,903,903,903,903,903,
903,903,903,903,903,903,903,903,903,903,903,903,903,903,903,903,
903,903,903,903,903,903,903,903,903,903,0,0,903,903,903,903,
0,0,0,0,0,0,0,0,0,0,0,0,0,0,0,0,
0,0,0,0,0,0,0,0,0,0,0,0,0,0,0,0,
0,0,0,0,0,0,0,0,0,0,0,0,0,0,0,0,
0,0,0,0,0,0,0,0,0,0,0,0,0,0,0,0,
0,0,0,0,0,0,0,0,0,0,0,0,0,0,0,0,
903,903,903,903,903,903,903,903,903,903,903,903,903,903,903,903,
903,903,903,903,903,903,903,903,903,903,903,903,903,903,903,903,
903,903,903,903,903,903,903,903,903,903,903,903,903,903,903,903,
903,903,903,903,903,903,903,903,903,903,903,903,903,903,903,903,
903,903,903,903,903,903,903,903,903,903,903,903,903,903,903,903
</chunk>
   <chunk x="16" y="-32" width="16" height="16">
0,0,0,0,0,0,0,0,0,0,0,0,0,0,0,0,
903,903,903,903,903,903,0,0,0,0,0,0,0,0,0,0,
903,903,903,903,903,903,0,0,0,0,0,0,0,0,0,0,
903,903,903,903,903,903,0,0,0,0,0,0,0,0,0,0,
903,903,903,903,903,903,0,0,0,0,0,0,0,0,0,0,
903,903,903,903,903,903,0,0,0,0,0,0,0,0,0,0,
0,0,0,0,0,903,0,0,0,0,0,0,0,0,0,0,
0,0,0,0,0,903,0,0,0,0,0,0,0,0,0,0,
0,0,0,0,0,903,0,0,0,0,0,0,0,0,0,0,
0,0,0,0,0,903,0,0,0,0,0,0,0,0,0,0,
0,0,0,0,0,903,0,0,0,0,0,0,0,0,0,0,
903,903,903,903,903,903,0,0,0,0,0,0,0,0,0,0,
903,903,903,903,903,903,0,0,0,0,0,0,0,0,0,0,
903,903,903,903,903,903,0,0,0,0,0,0,0,0,0,0,
903,903,903,903,903,903,0,0,0,0,0,0,0,0,0,0,
903,903,903,903,903,903,0,0,0,0,0,0,0,0,0,0
</chunk>
   <chunk x="-32" y="-16" width="16" height="16">
0,0,0,0,0,0,0,0,903,903,903,903,903,903,903,903,
0,0,0,0,0,0,0,0,903,903,903,903,903,903,903,903,
0,0,0,0,0,0,0,0,903,903,903,903,903,903,903,903,
0,0,0,0,0,0,0,0,903,903,903,0,0,903,903,903,
0,0,0,0,0,0,0,0,903,0,0,0,0,903,903,903,
0,0,0,0,0,0,0,0,903,0,0,0,0,0,0,0,
0,0,0,0,0,0,0,0,903,0,0,0,0,0,0,0,
0,0,0,0,0,0,0,0,903,0,0,0,0,0,0,0,
0,0,0,0,0,0,0,0,903,903,903,903,903,903,903,903,
0,0,0,0,0,0,0,0,903,903,903,903,903,903,903,903,
0,0,0,0,0,0,0,0,903,903,903,903,903,903,903,903,
0,0,0,0,0,0,0,0,903,903,903,903,903,903,903,903,
0,0,0,0,0,0,0,0,903,903,903,903,903,903,903,903,
0,0,0,0,0,0,0,0,903,903,903,903,903,903,903,903,
0,0,0,0,0,0,0,0,903,903,903,903,903,903,903,903,
0,0,0,0,0,0,0,0,903,903,903,903,903,903,903,903
</chunk>
   <chunk x="-16" y="-16" width="16" height="16">
903,903,903,903,903,903,903,903,0,0,0,903,903,903,903,903,
903,903,903,903,903,903,903,903,0,0,0,903,903,903,903,903,
903,903,903,903,903,903,903,903,0,0,0,903,903,903,903,903,
903,903,903,903,0,0,903,903,0,0,0,903,903,0,0,0,
903,903,903,903,0,0,0,0,0,0,0,0,0,0,0,0,
0,0,0,0,0,0,0,0,0,0,0,0,0,0,0,0,
0,0,0,0,0,0,0,0,0,0,0,0,0,0,0,0,
0,0,0,0,0,0,0,0,0,0,0,0,0,0,0,0,
903,903,903,903,903,903,903,0,0,0,0,0,0,0,0,0,
903,903,903,903,903,903,903,903,903,0,0,0,0,0,0,0,
903,903,903,903,903,903,903,903,903,0,0,0,0,0,0,0,
903,903,903,903,903,903,903,903,903,0,0,0,0,0,0,0,
903,903,903,903,903,903,903,903,903,0,0,0,0,0,0,0,
903,903,903,903,903,903,903,903,903,0,0,0,0,0,0,0,
903,903,903,903,903,903,903,903,903,0,0,0,0,0,0,0,
903,903,903,903,903,903,903,903,903,0,0,0,0,0,0,0
</chunk>
   <chunk x="0" y="-16" width="16" height="16">
903,903,903,903,903,903,903,903,903,903,903,903,903,903,903,903,
903,903,903,903,903,903,903,903,903,903,903,903,903,903,903,903,
903,903,903,903,903,903,903,903,903,903,903,903,903,903,903,903,
0,0,903,903,903,903,0,0,0,0,0,0,0,0,0,0,
0,0,0,0,0,0,0,0,0,0,0,0,0,0,0,0,
0,0,0,0,0,0,0,0,0,0,0,0,0,0,0,0,
0,0,0,0,0,0,0,0,0,0,0,0,0,0,0,0,
0,0,0,0,0,0,0,0,0,0,0,0,0,0,0,0,
0,0,0,0,0,0,0,0,0,0,0,0,0,0,0,0,
0,0,0,0,0,0,0,0,0,0,0,0,0,0,0,0,
0,0,0,0,0,0,0,0,0,0,0,0,0,0,0,0,
0,0,0,0,0,0,0,0,0,0,903,903,903,903,903,903,
0,0,0,0,0,0,0,0,0,0,0,0,0,0,0,0,
0,0,0,0,0,0,0,0,0,0,0,0,0,0,0,0,
0,0,0,0,0,0,0,903,0,0,0,0,0,0,0,0,
0,0,0,0,0,0,0,903,0,0,0,903,903,903,903,903
</chunk>
   <chunk x="16" y="-16" width="16" height="16">
903,903,903,903,903,903,0,0,0,0,0,0,0,0,0,0,
903,903,903,903,903,903,0,0,0,0,0,0,0,0,0,0,
903,903,903,903,903,903,0,0,0,0,0,0,0,0,0,0,
0,0,0,903,903,903,0,0,0,0,0,0,0,0,0,0,
0,0,0,0,0,903,0,0,0,0,0,0,0,0,0,0,
0,0,0,0,0,903,0,0,0,0,0,0,0,0,0,0,
0,0,0,0,0,903,0,0,0,0,0,0,0,0,0,0,
0,0,0,0,0,903,0,0,0,0,0,0,0,0,0,0,
0,0,0,0,0,903,0,0,0,0,0,0,0,0,0,0,
0,0,0,0,0,903,0,0,0,0,0,0,0,0,0,0,
0,0,0,903,903,903,0,0,0,0,0,0,0,0,0,0,
903,903,0,903,903,903,0,0,0,0,0,0,0,0,0,0,
0,0,0,903,903,903,0,0,0,0,0,0,0,0,0,0,
0,0,0,0,903,903,0,0,0,0,0,0,0,0,0,0,
0,0,0,0,903,903,0,0,0,0,0,0,0,0,0,0,
903,0,0,0,903,903,0,0,0,0,0,0,0,0,0,0
</chunk>
   <chunk x="-32" y="0" width="16" height="16">
0,0,0,0,0,0,0,0,903,903,903,0,0,0,903,903,
0,0,0,0,0,0,0,0,903,903,903,0,0,0,0,0,
0,0,0,0,0,0,0,0,903,903,903,0,0,0,0,0,
0,0,0,0,0,0,0,0,903,903,903,0,0,0,0,0,
0,0,0,0,0,0,0,0,903,903,903,903,903,903,903,903,
0,0,0,0,0,0,0,0,903,903,903,903,903,903,903,903,
0,0,0,0,0,0,0,0,903,903,903,903,903,903,903,903,
0,0,0,0,0,0,0,0,903,903,903,903,903,903,903,903,
0,0,0,0,0,0,0,0,903,903,903,903,903,903,903,903,
0,0,0,0,0,0,0,0,0,0,0,0,0,0,0,0,
0,0,0,0,0,0,0,0,0,0,0,0,0,0,0,0,
0,0,0,0,0,0,0,0,0,0,0,0,0,0,0,0,
0,0,0,0,0,0,0,0,0,0,0,0,0,0,0,0,
0,0,0,0,0,0,0,0,0,0,0,0,0,0,0,0,
0,0,0,0,0,0,0,0,0,0,0,0,0,0,0,0,
0,0,0,0,0,0,0,0,0,0,0,0,0,0,0,0
</chunk>
   <chunk x="-16" y="0" width="16" height="16">
903,903,903,903,903,903,903,903,903,0,0,0,0,0,0,0,
0,0,0,0,0,0,0,0,0,0,0,0,0,0,0,0,
0,0,0,0,0,0,0,0,0,0,0,0,0,0,0,0,
0,0,0,0,0,0,0,0,0,0,0,0,0,0,0,0,
903,903,903,903,903,903,903,903,903,0,0,0,0,0,0,0,
903,903,903,903,903,903,903,903,903,903,903,903,903,903,903,903,
903,903,903,903,903,903,903,903,903,903,903,903,903,903,903,903,
903,903,903,903,903,903,903,903,903,903,903,903,903,903,903,903,
903,903,903,903,903,903,903,903,903,903,903,903,903,903,903,903,
0,0,0,0,0,0,0,0,0,0,0,0,0,0,0,0,
0,0,0,0,0,0,0,0,0,0,0,0,0,0,0,0,
0,0,0,0,0,0,0,0,0,0,0,0,0,0,0,0,
0,0,0,0,0,0,0,0,0,0,0,0,0,0,0,0,
0,0,0,0,0,0,0,0,0,0,0,0,0,0,0,0,
0,0,0,0,0,0,0,0,0,0,0,0,0,0,0,0,
0,0,0,0,0,0,0,0,0,0,0,0,0,0,0,0
</chunk>
   <chunk x="0" y="0" width="16" height="16">
0,0,0,0,0,0,0,903,0,0,0,903,903,903,903,903,
0,0,0,0,0,0,0,903,0,0,0,903,903,903,903,903,
0,0,0,0,0,0,0,903,0,0,0,903,903,903,903,903,
0,0,0,0,0,0,0,0,0,0,0,0,0,0,0,0,
0,0,0,0,0,0,0,0,0,0,0,0,0,0,0,0,
903,903,903,903,903,903,903,903,903,903,903,903,903,903,903,903,
903,903,903,903,903,903,903,903,903,903,903,903,903,903,903,903,
903,903,903,903,903,903,903,903,903,903,903,903,903,903,903,903,
903,903,903,903,903,903,903,903,903,903,903,903,903,903,903,903,
0,0,0,0,0,0,0,0,0,0,0,0,0,0,0,0,
0,0,0,0,0,0,0,0,0,0,0,0,0,0,0,0,
0,0,0,0,0,0,0,0,0,0,0,0,0,0,0,0,
0,0,0,0,0,0,0,0,0,0,0,0,0,0,0,0,
0,0,0,0,0,0,0,0,0,0,0,0,0,0,0,0,
0,0,0,0,0,0,0,0,0,0,0,0,0,0,0,0,
0,0,0,0,0,0,0,0,0,0,0,0,0,0,0,0
</chunk>
   <chunk x="16" y="0" width="16" height="16">
903,0,0,0,903,903,0,0,0,0,0,0,0,0,0,0,
903,0,0,0,903,903,0,0,0,0,0,0,0,0,0,0,
903,0,0,0,903,903,0,0,0,0,0,0,0,0,0,0,
0,0,0,903,903,903,0,0,0,0,0,0,0,0,0,0,
0,0,0,903,903,903,0,0,0,0,0,0,0,0,0,0,
903,903,903,903,903,903,0,0,0,0,0,0,0,0,0,0,
903,903,903,903,903,903,0,0,0,0,0,0,0,0,0,0,
903,903,903,903,903,903,0,0,0,0,0,0,0,0,0,0,
903,903,903,903,903,903,0,0,0,0,0,0,0,0,0,0,
0,0,0,0,0,0,0,0,0,0,0,0,0,0,0,0,
0,0,0,0,0,0,0,0,0,0,0,0,0,0,0,0,
0,0,0,0,0,0,0,0,0,0,0,0,0,0,0,0,
0,0,0,0,0,0,0,0,0,0,0,0,0,0,0,0,
0,0,0,0,0,0,0,0,0,0,0,0,0,0,0,0,
0,0,0,0,0,0,0,0,0,0,0,0,0,0,0,0,
0,0,0,0,0,0,0,0,0,0,0,0,0,0,0,0
</chunk>
  </data>
 </layer>
 <layer id="1" name="图块层 1" width="15" height="15">
  <data encoding="csv">
   <chunk x="-32" y="-32" width="16" height="16">
0,0,0,0,0,0,0,0,0,0,0,0,0,0,0,0,
0,0,0,0,0,0,0,0,0,0,0,0,0,0,0,0,
0,0,0,0,0,0,0,0,0,0,0,0,0,0,0,0,
0,0,0,0,0,0,0,0,0,0,0,0,0,0,0,0,
0,0,0,0,0,0,0,0,0,0,0,0,0,0,0,0,
0,0,0,0,0,0,0,0,0,0,0,0,0,0,0,0,
0,0,0,0,0,0,0,0,0,11041,11041,11041,11041,11041,11041,11041,
0,0,0,0,0,0,0,0,0,11057,11057,11057,11057,11057,11057,11057,
0,0,0,0,0,0,0,0,0,11057,11058,11042,11042,11042,11042,11042,
0,0,0,0,0,0,0,0,0,11057,11058,11058,11058,11058,11042,11058,
0,0,0,0,0,0,0,0,0,11057,11057,11057,11057,11058,11058,11057,
0,0,0,0,0,0,0,0,0,0,0,0,0,0,0,0,
0,0,0,0,0,0,0,0,0,0,0,0,0,0,0,0,
0,0,0,0,0,0,0,0,0,0,0,0,0,0,0,0,
0,0,0,0,0,0,0,0,0,0,0,0,0,0,0,0,
0,0,0,0,0,0,0,0,0,0,0,0,0,0,0,0
</chunk>
   <chunk x="-16" y="-32" width="16" height="16">
0,0,0,0,0,0,0,0,0,0,0,0,0,0,0,0,
0,0,0,0,0,0,0,0,0,0,0,0,0,0,0,0,
0,0,0,0,0,0,0,0,0,0,0,0,0,0,0,0,
0,0,0,0,0,0,0,0,0,0,0,0,0,0,0,0,
0,0,0,0,0,0,0,0,0,0,0,0,0,0,0,0,
0,0,0,0,0,0,0,0,0,0,0,0,0,11041,11042,0,
11041,11041,11041,11041,11041,11041,11041,11041,11041,11041,11041,11041,11042,11041,11041,11041,
11057,11057,11057,11057,11057,11057,11057,11057,11041,11041,11041,11041,11041,11041,11041,11041,
11057,11057,11057,11057,11058,11057,11058,11057,11057,11057,11041,11057,11041,11041,11057,11041,
11058,11042,11042,11042,11042,11042,11042,11057,11058,11042,11041,11057,11041,11057,11057,11057,
11058,11058,11058,11058,11058,11058,11058,11058,11058,11058,11057,11057,11057,11057,11057,11057,
0,0,0,0,0,0,0,0,11057,11057,11058,0,0,0,0,11057,
0,0,0,0,0,0,0,0,11057,11058,11042,0,0,0,0,0,
0,0,0,0,0,0,0,0,11057,11058,11058,0,0,0,0,0,
0,0,0,0,0,0,0,0,11057,11058,11058,0,0,0,0,0,
0,0,0,0,0,0,0,0,11057,11057,11058,0,0,0,0,0
</chunk>
   <chunk x="0" y="-32" width="16" height="16">
0,0,0,0,0,0,0,0,0,0,0,0,0,0,0,0,
0,0,0,0,0,0,0,0,0,0,0,0,0,0,0,0,
0,0,0,0,0,0,0,0,0,0,0,0,0,0,0,0,
0,0,0,0,0,0,0,0,0,0,0,0,0,0,0,0,
0,0,0,0,0,0,0,0,0,0,0,0,0,0,0,0,
0,0,0,0,0,0,0,0,0,0,0,11041,11042,11041,11042,0,
11042,11042,11041,11042,11041,11042,11041,11041,11041,11042,11041,11041,11041,11041,11041,11041,
11042,11058,11041,11042,11041,11042,11041,11057,11041,11042,11041,11057,11057,11041,11041,11057,
11041,11041,11041,11041,11041,11041,11041,11057,11041,11041,11041,11057,11057,11041,11041,11057,
11041,11057,11041,11057,11057,11041,11041,11057,11057,11041,11057,11058,11057,11041,11041,11057,
11041,11057,11057,11057,11058,11057,11057,11057,11058,11057,11057,11058,11057,11057,11057,11057,
11057,11057,11058,11057,11058,11057,11058,11057,11058,0,0,0,0,0,0,0,
0,0,0,11057,11058,0,0,0,0,0,0,0,0,0,0,0,
0,0,0,0,0,0,0,0,0,0,0,0,0,0,0,0,
0,0,0,0,0,0,0,0,0,0,0,0,0,0,0,0,
0,0,0,0,0,0,0,0,0,0,0,0,0,0,0,0
</chunk>
   <chunk x="16" y="-32" width="16" height="16">
0,0,0,0,0,0,0,0,0,0,0,0,0,0,0,0,
0,0,0,0,0,0,0,0,0,0,0,0,0,0,0,0,
0,0,0,0,0,0,0,0,0,0,0,0,0,0,0,0,
0,0,0,0,0,0,0,0,0,0,0,0,0,0,0,0,
0,0,0,0,0,0,0,0,0,0,0,0,0,0,0,0,
0,0,0,0,0,0,0,0,0,0,0,0,0,0,0,0,
11041,11042,8893,8894,8895,0,0,0,0,0,0,0,0,0,0,0,
11041,11042,8941,8942,8943,0,0,0,0,0,0,0,0,0,0,0,
11041,11042,8989,8990,8991,0,0,0,0,0,0,0,0,0,0,0,
11041,11041,11041,11041,11041,0,0,0,0,0,0,0,0,0,0,0,
11057,11057,11057,11057,11057,0,0,0,0,0,0,0,0,0,0,0,
0,0,0,0,0,0,0,0,0,0,0,0,0,0,0,0,
0,0,0,0,0,0,0,0,0,0,0,0,0,0,0,0,
0,0,0,0,0,0,0,0,0,0,0,0,0,0,0,0,
0,0,0,0,0,0,0,0,0,0,0,0,0,0,0,0,
0,0,0,0,0,0,0,0,0,0,0,0,0,0,0,0
</chunk>
   <chunk x="-32" y="-16" width="16" height="16">
0,0,0,0,0,0,0,0,0,0,0,0,0,0,0,0,
0,0,0,0,0,0,0,0,0,0,0,0,0,0,0,0,
0,0,0,0,0,0,0,0,0,0,0,0,0,0,0,0,
0,0,0,0,0,0,0,0,11041,11041,11041,11041,11041,11041,11041,11041,
0,0,0,0,0,0,0,0,11057,11041,11042,11042,11057,11057,11057,11057,
0,0,0,0,0,0,0,0,0,11041,11042,11058,11042,11042,11042,11058,
0,0,0,0,0,0,0,0,0,11041,11041,11041,11041,11041,11041,11041,
0,0,0,0,0,0,0,0,0,11041,11042,11042,11042,11042,11042,11042,
0,0,0,0,0,0,0,0,0,11041,11042,11058,11058,11058,11058,11058,
0,0,0,0,0,0,0,0,0,11041,11041,11041,11041,11041,11041,11041,
0,0,0,0,0,0,0,0,0,11057,11057,11057,11057,11057,11057,11057,
0,0,0,0,0,0,0,0,0,0,0,0,0,0,0,0,
0,0,0,0,0,0,0,0,0,0,0,0,0,0,0,0,
0,0,0,0,0,0,0,0,0,0,0,0,0,0,0,0,
0,0,0,0,0,0,0,0,0,0,0,0,0,0,0,0,
0,0,0,0,0,0,0,0,0,0,0,11041,11042,11042,0,0
</chunk>
   <chunk x="-16" y="-16" width="16" height="16">
0,0,0,0,0,0,0,0,11057,11058,11042,0,0,0,0,0,
0,0,0,0,0,0,0,0,11057,11058,11058,0,0,0,0,0,
0,0,0,0,0,0,0,0,11041,11057,11058,0,0,0,0,0,
11041,11041,11041,11041,11041,11041,11041,11041,11057,11057,11058,11041,11041,11041,11041,11041,
11057,11057,11057,11057,11057,11057,11057,11057,11057,11057,11041,11041,11041,11041,11041,11041,
11058,11058,11042,11042,11042,11042,11042,11042,11042,11042,11057,11057,11057,11057,11057,11057,
11041,11041,11041,11042,11042,11058,11058,11058,11058,11058,11058,11058,11058,11058,11058,11058,
11042,11042,11042,11042,11058,11042,11042,11042,11042,11042,11042,11042,11042,11042,11042,11042,
11058,11058,11058,11058,11058,11058,11058,11058,11058,11058,11058,11058,11058,11058,11058,11058,
11041,11041,11041,11042,673,674,675,676,677,11041,11041,11041,11041,11041,11057,11057,
11057,11057,11041,11041,11041,11041,11041,11041,11041,11041,11041,11042,11057,11057,11057,11057,
0,0,11057,11057,11057,11057,11057,11057,11057,11057,11041,11041,11041,11041,11041,11041,
0,0,0,0,673,11041,11041,11041,11041,11041,11041,11041,11041,11041,11041,11041,
0,0,0,0,673,11057,11057,11057,11057,11057,11057,11057,11057,11057,11057,11057,
0,0,11041,11041,11041,11041,11041,11041,11057,11057,11057,11057,11057,11041,11042,11042,
0,0,11057,11057,11057,11057,11057,11057,11058,11058,11041,11041,11042,11042,11042,11041
</chunk>
   <chunk x="0" y="-16" width="16" height="16">
0,0,0,0,0,0,0,0,0,0,0,0,0,0,0,0,
0,0,0,0,0,0,0,0,0,0,0,0,0,0,0,0,
0,0,0,0,0,0,0,0,0,0,0,0,0,0,0,0,
11041,11041,11041,11041,11041,11041,11041,11041,11041,11041,11041,11041,11041,11041,11041,11041,
11041,11041,11041,11041,11041,11041,11041,11042,11042,11042,11042,11042,11042,11042,11042,11057,
11057,11057,11057,11057,11057,11057,11057,11041,11041,11041,11042,11042,11042,11042,11042,11042,
11041,11042,11042,11042,11042,11042,11042,11042,11042,11042,11058,11058,11058,11058,11058,11058,
11042,11058,11058,11058,11058,11058,11058,11058,11058,11058,11042,11042,11042,11042,11057,11058,
11058,11058,11058,11058,11058,11058,11058,11058,11058,11058,11058,11058,11058,11058,11057,11058,
11057,11057,11057,11057,11057,11057,11057,11057,11057,11058,11058,11058,11058,11058,11042,11057,
11041,11041,11041,11041,11041,11041,11041,11041,11041,11041,11041,11041,11041,11057,11058,11058,
11041,11042,11057,11057,11057,11057,11041,11041,11041,11041,11041,11041,11042,11057,11057,11057,
11041,11041,11041,11041,11041,11041,11057,11057,11041,11042,11042,11042,11042,11042,976,0,
11057,11041,11042,11042,11042,11042,11042,11042,11042,11042,11042,11042,11042,11042,11042,11042,
11042,11042,11042,11042,11042,11042,11042,11042,11042,11042,11042,11042,11042,11058,11058,11058,
11041,11041,11041,11041,11041,11042,11058,11058,11058,11058,11058,11058,11058,11057,11057,11058
</chunk>
   <chunk x="16" y="-16" width="16" height="16">
0,0,0,0,0,0,0,0,0,0,0,0,0,0,0,0,
0,0,0,0,0,0,0,0,0,0,0,0,0,0,0,0,
0,0,0,0,0,0,0,0,0,0,0,0,0,0,0,0,
11041,11041,11041,11041,11042,0,0,0,0,0,0,0,0,0,0,0,
11057,11041,11042,11041,11042,0,0,0,0,0,0,0,0,0,0,0,
11042,11042,11042,11041,11042,0,0,0,0,0,0,0,0,0,0,0,
11058,11058,11042,11041,11042,0,0,0,0,0,0,0,0,0,0,0,
11042,11042,11042,11041,11042,0,0,0,0,0,0,0,0,0,0,0,
11058,11042,11058,11041,11042,0,0,0,0,0,0,0,0,0,0,0,
11058,11058,11058,11041,11042,0,0,0,0,0,0,0,0,0,0,0,
11058,11057,11058,11041,11042,0,0,0,0,0,0,0,0,0,0,0,
11057,11057,11058,11041,11042,0,0,0,0,0,0,0,0,0,0,0,
0,11057,11058,11041,11042,0,0,0,0,0,0,0,0,0,0,0,
11042,11042,11042,11042,11042,0,0,0,0,0,0,0,0,0,0,0,
11058,11058,11058,11058,11042,0,0,0,0,0,0,0,0,0,0,0,
0,11057,11058,11041,11042,0,0,0,0,0,0,0,0,0,0,0
</chunk>
   <chunk x="-32" y="0" width="16" height="16">
0,0,0,0,0,0,0,0,0,11041,11041,11042,11042,11058,11042,11042,
0,0,0,0,0,0,0,0,0,11057,11041,11042,11042,11042,11041,11041,
0,0,0,0,0,0,0,0,0,11041,11042,11042,11058,11058,11042,11042,
0,0,0,0,0,0,0,0,0,11041,11041,11041,11041,11042,11058,11058,
0,0,0,0,0,0,0,0,0,11057,11057,11057,11057,11041,11041,11041,
0,0,0,0,0,0,0,0,0,0,0,0,0,11057,11057,11057,
0,0,0,0,0,0,0,0,0,0,0,0,0,0,0,0,
0,0,0,0,0,0,0,0,0,0,0,0,0,0,0,0,
0,0,0,0,0,0,0,0,0,0,0,0,0,0,0,0,
0,0,0,0,0,0,0,0,0,0,0,0,0,0,0,0,
0,0,0,0,0,0,0,0,0,0,0,0,0,0,0,0,
0,0,0,0,0,0,0,0,0,0,0,0,0,0,0,0,
0,0,0,0,0,0,0,0,0,0,0,0,0,0,0,0,
0,0,0,0,0,0,0,0,0,0,0,0,0,0,0,0,
0,0,0,0,0,0,0,0,0,0,0,0,0,0,0,0,
0,0,0,0,0,0,0,0,0,0,0,0,0,0,0,0
</chunk>
   <chunk x="-16" y="0" width="16" height="16">
11042,11042,11042,11042,11042,11041,11041,11041,11041,11042,11042,11042,11042,11042,11042,11042,
11041,11041,11041,11041,11041,11041,11041,11041,11042,11058,11058,11058,11058,11058,11058,11058,
11042,11042,11042,11042,11057,11041,11042,11042,11042,11042,11041,11041,11057,11057,11057,11058,
11058,11058,11058,11058,11042,11042,11042,11058,11058,11058,11057,11057,11057,11058,11042,11042,
11041,11041,11041,11041,11041,11041,11041,11041,11041,11041,11041,11041,11042,11058,11058,11058,
11057,11057,11057,11057,11057,11057,11057,11057,11057,11057,11057,11057,11058,873,860,860,
0,0,0,0,897,897,897,897,897,897,898,899,900,901,0,0,
0,0,0,0,925,925,925,925,925,925,926,927,928,929,0,0,
0,0,0,0,953,953,953,953,953,953,954,955,956,957,0,0,
0,0,0,0,0,0,0,0,0,0,0,0,0,0,0,0,
0,0,0,0,0,0,0,0,0,0,0,0,0,0,0,0,
0,0,0,0,0,0,0,0,0,0,0,0,0,0,0,0,
0,0,0,0,0,0,0,0,0,0,0,0,0,0,0,0,
0,0,0,0,0,0,0,0,0,0,0,0,0,0,0,0,
0,0,0,0,0,0,0,0,0,0,0,0,0,0,0,0,
0,0,0,0,0,0,0,0,0,0,0,0,0,0,0,0
</chunk>
   <chunk x="0" y="0" width="16" height="16">
11042,11042,11042,11042,11042,11042,11042,11042,11042,11042,11042,889,890,891,892,0,
11058,11041,11041,11041,11041,11042,11058,11058,11058,11058,11058,917,918,919,920,0,
11042,11042,11042,11042,11041,11041,11041,11041,11041,11041,11041,11041,11041,11041,11041,11042,
11042,11042,11042,11058,11042,11042,11042,11042,11042,11042,11042,11042,11042,11042,11042,11042,
11058,11058,11058,11058,11058,11058,11058,11058,11058,11058,11058,11058,11058,11058,11058,11058,
876,877,878,879,880,881,882,883,884,884,884,884,884,884,0,0,
904,905,906,907,908,909,910,911,912,912,912,912,912,912,0,0,
932,933,934,935,936,937,938,939,940,940,940,940,940,940,0,0,
960,961,962,963,964,965,966,967,968,968,968,968,968,968,0,0,
0,0,0,0,0,0,0,0,0,0,0,0,0,0,0,0,
0,0,0,0,0,0,0,0,0,0,0,0,0,0,0,0,
0,0,0,0,0,0,0,0,0,0,0,0,0,0,0,0,
0,0,0,0,0,0,0,0,0,0,0,0,0,0,0,0,
0,0,0,0,0,0,0,0,0,0,0,0,0,0,0,0,
0,0,0,0,0,0,0,0,0,0,0,0,0,0,0,0,
0,0,0,0,0,0,0,0,0,0,0,0,0,0,0,0
</chunk>
   <chunk x="16" y="0" width="16" height="16">
0,11057,11058,11041,11042,0,0,0,0,0,0,0,0,0,0,0,
0,11057,11058,11041,11042,0,0,0,0,0,0,0,0,0,0,0,
0,11057,11058,11042,11042,0,0,0,0,0,0,0,0,0,0,0,
11041,11042,11057,11058,11042,0,0,0,0,0,0,0,0,0,0,0,
11057,11058,11057,11058,11058,0,0,0,0,0,0,0,0,0,0,0,
0,0,0,0,0,0,0,0,0,0,0,0,0,0,0,0,
0,0,0,0,0,0,0,0,0,0,0,0,0,0,0,0,
0,0,0,0,0,0,0,0,0,0,0,0,0,0,0,0,
0,0,0,0,0,0,0,0,0,0,0,0,0,0,0,0,
0,0,0,0,0,0,0,0,0,0,0,0,0,0,0,0,
0,0,0,0,0,0,0,0,0,0,0,0,0,0,0,0,
0,0,0,0,0,0,0,0,0,0,0,0,0,0,0,0,
0,0,0,0,0,0,0,0,0,0,0,0,0,0,0,0,
0,0,0,0,0,0,0,0,0,0,0,0,0,0,0,0,
0,0,0,0,0,0,0,0,0,0,0,0,0,0,0,0,
0,0,0,0,0,0,0,0,0,0,0,0,0,0,0,0
</chunk>
  </data>
 </layer>
 <layer id="6" name="furniture_-2" width="15" height="15">
  <data encoding="csv">
   <chunk x="-16" y="0" width="16" height="16">
0,0,0,0,0,0,0,0,0,0,0,0,0,0,0,0,
0,0,0,0,0,0,0,0,0,0,0,0,0,0,0,0,
0,0,0,0,0,0,0,0,0,0,0,0,4913,4914,4915,4916,
0,0,0,0,0,0,0,0,0,0,0,0,4982,4983,4984,4985,
0,0,0,0,0,0,0,0,0,0,0,0,5051,5052,5053,5054,
0,0,0,0,0,0,0,0,0,0,0,0,5120,5121,5122,5123,
0,0,0,0,0,0,0,0,0,0,0,0,0,0,0,0,
0,0,0,0,0,0,0,0,0,0,0,0,0,0,0,0,
0,0,0,0,0,0,0,0,0,0,0,0,0,0,0,0,
0,0,0,0,0,0,0,0,0,0,0,0,0,0,0,0,
0,0,0,0,0,0,0,0,0,0,0,0,0,0,0,0,
0,0,0,0,0,0,0,0,0,0,0,0,0,0,0,0,
0,0,0,0,0,0,0,0,0,0,0,0,0,0,0,0,
0,0,0,0,0,0,0,0,0,0,0,0,0,0,0,0,
0,0,0,0,0,0,0,0,0,0,0,0,0,0,0,0,
0,0,0,0,0,0,0,0,0,0,0,0,0,0,0,0
</chunk>
   <chunk x="0" y="0" width="16" height="16">
0,0,0,0,0,0,0,0,0,0,0,0,0,0,0,0,
0,0,0,0,0,0,0,0,0,0,0,0,0,0,0,0,
4917,4918,0,0,0,0,0,0,0,0,0,0,0,0,0,0,
4986,4987,0,0,0,0,0,0,0,0,0,0,0,0,0,0,
5055,5056,0,0,0,0,0,0,0,0,0,0,0,0,0,0,
5124,5125,0,0,0,0,0,0,0,0,0,0,0,0,0,0,
0,0,0,0,0,0,0,0,0,0,0,0,0,0,0,0,
0,0,0,0,0,0,0,0,0,0,0,0,0,0,0,0,
0,0,0,0,0,0,0,0,0,0,0,0,0,0,0,0,
0,0,0,0,0,0,0,0,0,0,0,0,0,0,0,0,
0,0,0,0,0,0,0,0,0,0,0,0,0,0,0,0,
0,0,0,0,0,0,0,0,0,0,0,0,0,0,0,0,
0,0,0,0,0,0,0,0,0,0,0,0,0,0,0,0,
0,0,0,0,0,0,0,0,0,0,0,0,0,0,0,0,
0,0,0,0,0,0,0,0,0,0,0,0,0,0,0,0,
0,0,0,0,0,0,0,0,0,0,0,0,0,0,0,0
</chunk>
  </data>
 </layer>
 <layer id="5" name="furniture_-1" width="15" height="15">
  <data encoding="csv">
   <chunk x="-32" y="-32" width="16" height="16">
0,0,0,0,0,0,0,0,0,0,0,0,0,0,0,0,
0,0,0,0,0,0,0,0,0,0,0,0,0,0,0,0,
0,0,0,0,0,0,0,0,0,0,0,0,0,0,0,0,
0,0,0,0,0,0,0,0,0,0,0,0,0,0,0,0,
0,0,0,0,0,0,0,0,0,0,0,0,0,0,0,0,
0,0,0,0,0,0,0,0,0,0,0,0,0,0,0,0,
0,0,0,0,0,0,0,0,0,0,0,0,0,0,0,0,
0,0,0,0,0,0,0,0,0,0,0,0,0,0,0,0,
0,0,0,0,0,0,0,0,0,0,0,0,0,0,0,0,
0,0,0,0,0,0,0,0,0,0,0,0,0,0,0,0,
0,0,0,0,0,0,0,0,5272,5273,5274,0,0,0,0,0,
0,0,0,0,0,0,0,0,5341,5342,5343,0,0,0,0,0,
0,0,0,0,0,0,0,0,5410,5411,5412,0,0,0,0,0,
0,0,0,0,0,0,0,0,5479,5480,5481,0,0,0,0,0,
0,0,0,0,0,0,0,0,0,0,0,0,0,0,0,0,
0,0,0,0,0,0,0,0,0,0,0,0,0,0,0,0
</chunk>
   <chunk x="-16" y="-32" width="16" height="16">
0,0,0,0,0,0,0,0,0,0,0,0,0,0,0,0,
0,0,0,0,0,0,0,0,0,0,0,0,0,0,0,0,
0,0,0,0,0,0,0,0,0,0,0,0,0,0,0,0,
0,0,0,0,0,0,0,0,0,0,0,0,0,0,0,0,
0,0,0,0,0,0,0,0,0,0,0,0,0,0,0,0,
0,0,0,0,0,0,0,0,0,0,0,0,0,0,0,0,
0,0,0,0,0,0,0,0,0,0,0,0,0,0,0,0,
0,0,0,0,0,0,0,0,0,0,0,0,0,0,0,0,
0,0,0,0,0,0,0,0,0,0,0,0,0,0,0,0,
0,0,0,0,0,0,0,0,0,0,0,0,0,0,0,0,
0,0,0,0,0,5272,5273,5274,0,0,5272,5273,5274,11479,0,0,
0,0,0,0,0,5341,5342,5343,0,0,5341,5342,5343,11479,0,0,
0,0,0,0,0,5410,5411,5412,0,0,5410,5411,5412,11479,0,0,
0,0,0,0,0,5479,5480,5481,0,0,5479,5480,5481,5481,0,0,
0,0,0,0,0,0,0,0,0,0,0,0,0,0,0,0,
0,0,0,0,0,0,0,0,0,0,0,0,0,0,0,0
</chunk>
   <chunk x="16" y="-32" width="16" height="16">
0,0,0,0,0,0,0,0,0,0,0,0,0,0,0,0,
0,0,0,0,0,0,0,0,0,0,0,0,0,0,0,0,
0,0,0,0,0,0,0,0,0,0,0,0,0,0,0,0,
0,0,0,0,0,0,0,0,0,0,0,0,0,0,0,0,
0,0,0,0,0,0,0,0,0,0,0,0,0,0,0,0,
0,0,0,0,0,0,0,0,0,0,0,0,0,0,0,0,
0,0,0,0,0,0,0,0,0,0,0,0,0,0,0,0,
0,0,0,0,0,0,0,0,0,0,0,0,0,0,0,0,
0,0,0,0,0,0,0,0,0,0,0,0,0,0,0,0,
0,0,0,0,0,0,0,0,0,0,0,0,0,0,0,0,
0,0,5272,5273,5274,0,0,0,0,0,0,0,0,0,0,0,
0,0,5341,5342,5343,0,0,0,0,0,0,0,0,0,0,0,
0,0,5410,5411,5412,0,0,0,0,0,0,0,0,0,0,0,
0,0,5479,5480,5481,0,0,0,0,0,0,0,0,0,0,0,
0,0,0,0,0,0,0,0,0,0,0,0,0,0,0,0,
0,0,0,0,0,0,0,0,0,0,0,0,0,0,0,0
</chunk>
   <chunk x="-32" y="-16" width="16" height="16">
0,0,0,0,0,0,0,0,0,0,0,0,0,0,0,0,
0,0,0,0,0,0,0,0,0,0,0,0,0,0,0,0,
0,0,0,0,0,0,0,0,0,0,0,0,0,0,0,0,
0,0,0,0,0,0,0,0,0,0,0,0,0,0,0,0,
0,0,0,0,0,0,0,0,0,0,0,0,0,0,0,0,
0,0,0,0,0,0,0,0,0,0,0,0,0,0,0,0,
0,0,0,0,0,0,0,0,0,0,0,0,0,0,0,0,
0,0,0,0,0,0,0,0,0,0,0,0,0,0,0,0,
0,0,0,0,0,0,0,0,0,6622,6623,6624,6625,0,6626,6627,
0,0,0,0,0,0,0,0,0,6691,6692,6693,6694,0,6695,6696,
0,0,0,0,0,0,0,0,0,6760,6761,6762,6763,0,6764,6765,
0,0,0,0,0,0,0,0,0,6829,6830,6831,6832,0,6833,6834,
0,0,0,0,0,0,0,0,0,0,0,0,0,0,0,0,
0,0,0,0,0,0,0,0,0,0,0,0,0,0,0,0,
0,0,0,0,0,0,0,0,0,0,0,0,0,0,0,0,
0,0,0,0,0,0,0,0,0,0,0,0,0,0,0,0
</chunk>
   <chunk x="-16" y="-16" width="16" height="16">
0,0,0,0,0,0,0,0,0,0,0,0,0,0,0,0,
0,0,0,0,0,0,0,0,0,0,0,0,0,0,0,0,
0,0,0,0,0,0,0,0,0,0,0,0,0,0,0,0,
0,0,0,0,0,0,0,0,0,0,0,0,0,0,0,0,
0,0,0,0,0,0,0,0,0,0,0,0,0,0,0,0,
0,0,0,0,0,0,0,0,0,0,0,0,0,0,0,0,
0,0,0,0,0,0,0,0,0,0,0,0,0,0,0,0,
0,0,0,0,0,0,0,0,0,0,0,0,0,0,0,0,
6628,6629,0,6212,6213,6214,6215,0,0,0,0,0,0,0,0,0,
6697,6698,0,6281,6282,6283,6284,0,0,0,0,0,0,0,0,0,
6766,6767,0,6350,6351,6352,6353,0,0,0,0,0,0,0,0,0,
6835,6836,0,6419,6420,6421,6422,0,0,0,0,0,0,0,0,0,
0,0,0,0,0,0,0,0,0,0,0,0,0,0,0,0,
0,0,0,0,0,0,0,0,0,0,0,0,0,0,0,0,
0,0,0,0,0,0,0,0,0,0,0,0,0,0,0,0,
0,0,0,0,0,0,0,0,0,0,0,0,0,0,0,0
</chunk>
   <chunk x="0" y="-16" width="16" height="16">
0,0,0,0,0,0,0,0,0,0,0,0,0,0,0,0,
0,0,0,0,0,0,0,0,0,0,0,0,0,0,0,0,
0,0,0,0,0,0,0,0,0,0,0,0,0,0,0,0,
0,0,0,0,0,0,0,0,0,0,0,0,0,0,0,0,
0,0,0,0,0,0,0,0,0,0,0,0,0,0,0,0,
0,0,0,0,0,0,0,0,0,0,0,0,0,0,0,0,
0,0,0,0,0,0,0,0,0,0,0,0,0,0,0,0,
0,0,0,0,0,0,0,0,0,0,0,0,0,0,0,0,
0,0,0,0,0,0,0,0,0,0,0,0,0,0,0,0,
0,0,0,0,0,0,0,0,0,0,0,0,0,0,0,0,
0,0,0,0,0,0,0,0,0,0,0,0,0,0,0,0,
0,0,0,0,0,0,0,0,0,0,0,0,0,0,0,0,
0,0,0,0,0,0,0,0,0,0,0,0,0,0,0,0,
0,0,0,0,0,0,0,0,0,0,0,0,0,0,0,0,
0,0,0,0,0,0,0,0,0,0,3095,3096,3097,3098,3099,3100,
0,0,0,0,0,0,0,0,0,0,3164,3165,3166,3167,3168,3169
</chunk>
   <chunk x="16" y="-16" width="16" height="16">
0,0,0,0,0,0,0,0,0,0,0,0,0,0,0,0,
0,0,0,0,0,0,0,0,0,0,0,0,0,0,0,0,
0,0,0,0,0,0,0,0,0,0,0,0,0,0,0,0,
0,0,0,0,0,0,0,0,0,0,0,0,0,0,0,0,
0,0,0,0,0,0,0,0,0,0,0,0,0,0,0,0,
0,0,0,0,0,0,0,0,0,0,0,0,0,0,0,0,
0,0,0,0,0,0,0,0,0,0,0,0,0,0,0,0,
0,0,0,0,0,0,0,0,0,0,0,0,0,0,0,0,
0,0,0,0,0,0,0,0,0,0,0,0,0,0,0,0,
0,0,0,0,0,0,0,0,0,0,0,0,0,0,0,0,
0,0,0,5345,5346,0,0,0,0,0,0,0,0,0,0,0,
0,0,0,5414,5415,0,0,0,0,0,0,0,0,0,0,0,
0,0,0,5483,5484,0,0,0,0,0,0,0,0,0,0,0,
0,0,0,5552,5553,0,0,0,0,0,0,0,0,0,0,0,
3101,3102,0,0,0,0,0,0,0,0,0,0,0,0,0,0,
3170,3171,0,0,0,0,0,0,0,0,0,0,0,0,0,0
</chunk>
   <chunk x="-32" y="0" width="16" height="16">
0,0,0,0,0,0,0,0,0,0,0,0,0,0,0,0,
0,0,0,0,0,0,0,0,0,0,0,0,0,0,0,0,
0,0,0,0,0,0,0,0,0,0,0,0,0,0,0,0,
0,0,0,0,0,0,0,0,0,0,0,0,0,0,0,0,
0,0,0,0,0,0,0,0,0,10636,10637,10638,10777,10778,10779,10780,
0,0,0,0,0,0,0,0,0,10684,10685,10686,10825,10826,10827,10828,
0,0,0,0,0,0,0,0,0,10732,10733,10734,10873,10874,10875,10876,
0,0,0,0,0,0,0,0,0,0,0,0,0,0,0,0,
0,0,0,0,0,0,0,0,0,0,0,0,0,0,0,0,
0,0,0,0,0,0,0,0,0,0,0,0,0,0,0,0,
0,0,0,0,0,0,0,0,0,0,0,0,0,0,0,0,
0,0,0,0,0,0,0,0,0,0,0,0,0,0,0,0,
0,0,0,0,0,0,0,0,0,0,0,0,0,0,0,0,
0,0,0,0,0,0,0,0,0,0,0,0,0,0,0,0,
0,0,0,0,0,0,0,0,0,0,0,0,0,0,0,0,
0,0,0,0,0,0,0,0,0,0,0,0,0,0,0,0
</chunk>
   <chunk x="-16" y="0" width="16" height="16">
0,0,0,0,0,0,0,0,0,0,0,0,0,0,0,0,
0,0,0,0,0,0,0,0,0,0,0,0,0,0,0,0,
0,0,0,0,0,0,0,0,0,0,0,0,0,0,0,0,
0,0,0,0,0,0,0,0,0,0,0,0,5873,5874,0,0,
10781,10782,0,11703,11704,11703,11704,11953,11954,0,0,0,5942,5943,0,0,
10829,10830,0,11719,11720,11719,11720,11985,11986,0,0,0,6011,6012,0,0,
10877,10878,0,11735,11736,11735,11736,0,0,0,0,0,0,0,0,0,
0,0,0,0,0,0,0,0,0,0,0,0,0,0,0,0,
0,0,0,0,0,0,0,0,0,0,0,0,0,0,0,0,
0,0,0,0,0,0,0,0,0,0,0,0,0,0,0,0,
0,0,0,0,0,0,0,0,0,0,0,0,0,0,0,0,
0,0,0,0,0,0,0,0,0,0,0,0,0,0,0,0,
0,0,0,0,0,0,0,0,0,0,0,0,0,0,0,0,
0,0,0,0,0,0,0,0,0,0,0,0,0,0,0,0,
0,0,0,0,0,0,0,0,0,0,0,0,0,0,0,0,
0,0,0,0,0,0,0,0,0,0,0,0,0,0,0,0
</chunk>
   <chunk x="0" y="0" width="16" height="16">
0,0,0,0,0,0,0,0,0,0,3233,3234,3235,3236,3237,3238,
0,0,0,0,0,0,0,0,0,0,3302,3303,3304,3305,3306,3307,
0,0,0,0,0,0,0,0,0,0,3371,3372,3373,3374,3375,3376,
5873,5874,0,0,0,0,0,0,0,0,3440,3441,3442,3443,3444,3445,
5942,5943,0,0,0,0,0,0,0,0,0,0,0,0,0,0,
6011,6012,0,0,0,0,0,0,0,0,0,0,0,0,0,0,
0,0,0,0,0,0,0,0,0,0,0,0,0,0,0,0,
0,0,0,0,0,0,0,0,0,0,0,0,0,0,0,0,
0,0,0,0,0,0,0,0,0,0,0,0,0,0,0,0,
0,0,0,0,0,0,0,0,0,0,0,0,0,0,0,0,
0,0,0,0,0,0,0,0,0,0,0,0,0,0,0,0,
0,0,0,0,0,0,0,0,0,0,0,0,0,0,0,0,
0,0,0,0,0,0,0,0,0,0,0,0,0,0,0,0,
0,0,0,0,0,0,0,0,0,0,0,0,0,0,0,0,
0,0,0,0,0,0,0,0,0,0,0,0,0,0,0,0,
0,0,0,0,0,0,0,0,0,0,0,0,0,0,0,0
</chunk>
   <chunk x="16" y="0" width="16" height="16">
3239,3240,0,0,0,0,0,0,0,0,0,0,0,0,0,0,
3308,3309,0,0,0,0,0,0,0,0,0,0,0,0,0,0,
3377,3378,0,0,0,0,0,0,0,0,0,0,0,0,0,0,
3446,3447,0,5345,5346,0,0,0,0,0,0,0,0,0,0,0,
0,0,0,5414,5415,0,0,0,0,0,0,0,0,0,0,0,
0,0,0,5483,5484,0,0,0,0,0,0,0,0,0,0,0,
0,0,0,5552,5553,0,0,0,0,0,0,0,0,0,0,0,
0,0,0,0,0,0,0,0,0,0,0,0,0,0,0,0,
0,0,0,0,0,0,0,0,0,0,0,0,0,0,0,0,
0,0,0,0,0,0,0,0,0,0,0,0,0,0,0,0,
0,0,0,0,0,0,0,0,0,0,0,0,0,0,0,0,
0,0,0,0,0,0,0,0,0,0,0,0,0,0,0,0,
0,0,0,0,0,0,0,0,0,0,0,0,0,0,0,0,
0,0,0,0,0,0,0,0,0,0,0,0,0,0,0,0,
0,0,0,0,0,0,0,0,0,0,0,0,0,0,0,0,
0,0,0,0,0,0,0,0,0,0,0,0,0,0,0,0
</chunk>
  </data>
 </layer>
 <layer id="3" name="wall" width="15" height="15">
  <data encoding="csv">
   <chunk x="-32" y="-32" width="16" height="16">
0,0,0,0,0,0,0,0,0,0,0,0,0,0,0,0,
0,0,0,0,0,0,0,0,629,629,630,631,632,633,634,635,
0,0,0,0,0,0,0,0,349,657,658,659,660,661,662,663,
0,0,0,0,0,0,0,0,433,719,719,719,719,719,719,719,
0,0,0,0,0,0,0,0,461,691,691,691,691,691,691,691,
0,0,0,0,0,0,0,0,489,774,775,776,777,778,779,775,
0,0,0,0,0,0,0,0,517,0,0,0,0,0,0,0,
0,0,0,0,0,0,0,0,545,0,0,0,0,0,0,0,
0,0,0,0,0,0,0,0,573,0,0,0,0,0,0,0,
0,0,0,0,0,0,0,0,545,0,0,0,0,0,0,0,
0,0,0,0,0,0,0,0,573,0,0,0,0,0,0,0,
0,0,0,0,0,0,0,0,349,350,351,352,353,354,355,356,
0,0,0,0,0,0,0,0,377,378,379,380,381,382,383,384,
0,0,0,0,0,0,0,0,573,574,575,576,577,578,579,580,
0,0,0,0,0,0,0,0,601,602,603,604,605,606,607,608,
0,0,0,0,0,0,0,0,349,633,633,633,633,633,633,633
</chunk>
   <chunk x="-16" y="-32" width="16" height="16">
0,0,0,0,0,0,0,0,0,0,0,0,0,0,0,0,
636,632,633,634,635,636,637,638,632,632,632,632,632,632,632,632,
664,660,661,662,663,664,665,666,660,660,660,660,660,660,660,660,
719,719,719,719,719,719,719,719,719,719,719,719,719,719,719,719,
691,691,691,691,691,691,691,691,691,691,691,691,691,691,691,691,
776,777,778,779,775,776,777,778,779,775,776,777,778,779,775,776,
0,0,0,0,0,0,0,0,0,0,0,0,0,0,0,0,
0,0,0,0,0,0,0,0,0,0,0,0,0,0,0,0,
0,0,0,0,0,0,0,0,0,0,0,0,0,0,0,0,
0,0,0,0,0,0,0,0,0,0,0,0,0,0,0,0,
0,0,0,0,0,0,0,0,0,0,0,0,0,0,0,0,
354,355,354,355,356,357,359,360,0,0,0,349,350,351,352,355,
382,383,382,383,384,385,387,388,0,0,0,377,378,379,380,383,
577,578,579,580,581,582,583,584,0,0,0,573,574,575,576,577,
605,606,607,608,609,610,611,612,0,0,0,601,602,603,604,605,
633,633,633,633,633,633,633,633,0,0,0,633,633,633,633,633
</chunk>
   <chunk x="0" y="-32" width="16" height="16">
0,0,0,0,0,0,0,0,0,0,0,0,0,0,0,0,
632,632,632,632,632,632,632,632,632,632,632,632,632,632,632,632,
660,660,660,660,660,660,660,660,660,660,660,660,660,660,660,660,
719,719,719,719,719,719,719,719,719,719,719,719,719,719,719,719,
691,691,691,691,691,691,691,691,691,691,691,691,691,691,691,691,
777,778,779,775,776,777,778,779,775,776,777,778,775,776,777,778,
0,0,0,0,0,0,0,0,0,0,0,0,0,0,0,0,
0,0,0,0,0,0,0,0,0,0,0,0,0,0,0,0,
0,0,0,0,0,0,0,0,0,0,0,0,0,0,0,0,
0,0,0,0,0,0,0,0,0,0,0,0,0,0,0,0,
0,0,0,0,0,0,0,0,0,0,0,0,0,0,0,0,
355,355,355,355,355,355,355,355,355,355,355,355,355,355,355,355,
383,383,383,383,383,383,383,383,383,383,383,383,383,383,383,383,
578,579,577,578,579,580,577,578,579,580,581,580,581,577,578,577,
606,607,605,606,607,608,605,606,607,608,609,608,609,605,606,605,
633,633,633,633,633,633,633,633,633,633,633,633,633,633,633,633
</chunk>
   <chunk x="16" y="-32" width="16" height="16">
0,0,0,0,0,0,0,0,0,0,0,0,0,0,0,0,
633,634,635,636,637,360,0,0,0,0,0,0,0,0,0,0,
661,662,663,664,665,528,0,0,0,0,0,0,0,0,0,0,
719,719,719,719,719,388,0,0,0,0,0,0,0,0,0,0,
691,691,691,691,691,416,0,0,0,0,0,0,0,0,0,0,
775,776,777,778,779,444,0,0,0,0,0,0,0,0,0,0,
0,0,0,0,0,472,0,0,0,0,0,0,0,0,0,0,
0,0,0,0,0,500,0,0,0,0,0,0,0,0,0,0,
0,0,0,0,0,528,0,0,0,0,0,0,0,0,0,0,
0,0,0,0,0,556,0,0,0,0,0,0,0,0,0,0,
0,0,0,0,0,584,0,0,0,0,0,0,0,0,0,0,
355,355,356,357,359,360,0,0,0,0,0,0,0,0,0,0,
383,383,384,385,387,388,0,0,0,0,0,0,0,0,0,0,
578,579,580,581,583,584,0,0,0,0,0,0,0,0,0,0,
606,607,608,609,611,612,0,0,0,0,0,0,0,0,0,0,
633,633,633,633,633,360,0,0,0,0,0,0,0,0,0,0
</chunk>
   <chunk x="-32" y="-16" width="16" height="16">
0,0,0,0,0,0,0,0,377,661,661,661,661,661,661,661,
0,0,0,0,0,0,0,0,405,689,689,689,689,689,689,689,
0,0,0,0,0,0,0,0,433,775,775,775,775,775,775,775,
0,0,0,0,0,0,0,0,433,0,0,0,0,0,0,0,
0,0,0,0,0,0,0,0,461,0,0,0,0,0,0,0,
0,0,0,0,0,0,0,0,489,0,0,0,0,0,0,0,
0,0,0,0,0,0,0,0,517,0,0,0,0,0,0,0,
0,0,0,0,0,0,0,0,545,0,0,0,0,0,0,0,
0,0,0,0,0,0,0,0,405,0,0,0,0,0,0,0,
0,0,0,0,0,0,0,0,433,350,351,352,353,354,355,356,
0,0,0,0,0,0,0,0,461,378,379,380,381,382,383,384,
0,0,0,0,0,0,0,0,601,602,603,604,605,607,608,609,
0,0,0,0,0,0,0,0,405,629,630,631,632,633,629,630,
0,0,0,0,0,0,0,0,433,662,662,662,662,662,662,662,
0,0,0,0,0,0,0,0,461,690,690,690,690,690,690,690,
0,0,0,0,0,0,0,0,489,775,775,775,775,775,775,775
</chunk>
   <chunk x="-16" y="-16" width="16" height="16">
661,661,661,661,661,661,661,661,0,0,0,661,661,661,661,661,
689,689,689,689,689,689,689,689,0,0,0,689,689,689,689,689,
775,775,775,775,775,775,775,784,0,0,0,775,775,775,775,775,
0,0,0,0,0,0,0,0,0,0,0,0,0,0,0,0,
0,0,0,0,0,0,0,0,0,0,0,0,0,0,0,0,
0,0,0,0,0,0,0,0,0,0,0,0,0,0,0,0,
0,0,0,0,0,0,0,0,0,0,0,0,0,0,0,0,
0,0,0,0,0,0,0,0,0,0,0,0,0,0,0,0,
0,0,0,0,0,0,0,0,0,0,0,0,0,0,0,0,
350,351,352,353,354,355,356,357,360,0,0,0,0,0,0,0,
385,379,380,381,382,383,384,385,388,0,0,0,0,0,0,0,
610,604,605,606,607,608,609,610,416,0,0,0,0,0,0,0,
631,632,633,634,635,636,637,638,635,0,0,0,0,0,0,0,
662,662,662,662,662,662,662,662,663,0,0,0,0,0,0,0,
690,690,690,690,690,690,690,690,691,0,0,0,0,0,0,0,
775,775,775,775,775,775,775,775,775,0,0,0,0,0,0,0
</chunk>
   <chunk x="0" y="-16" width="16" height="16">
661,661,661,661,661,661,661,661,661,661,661,661,661,661,661,661,
689,689,689,689,689,689,689,689,689,689,689,689,689,689,689,689,
775,775,775,775,775,775,775,775,775,775,775,775,775,775,775,775,
0,0,0,0,0,0,0,0,0,0,0,0,0,0,0,0,
0,0,0,0,0,0,0,0,0,0,0,0,0,0,0,0,
0,0,0,0,0,0,0,0,0,0,0,0,0,0,0,0,
0,0,0,0,0,0,0,0,0,0,0,0,0,0,0,0,
0,0,0,0,0,0,0,0,0,0,0,0,0,0,0,0,
0,0,0,0,0,0,0,0,0,0,0,0,0,0,0,0,
0,0,0,0,0,0,0,0,0,0,0,0,0,0,0,0,
0,0,0,0,0,0,0,0,0,0,0,0,0,0,0,0,
0,0,0,0,0,0,0,0,0,0,0,0,0,0,0,0,
0,0,0,0,0,0,0,0,0,0,0,0,0,0,0,0,
0,0,0,0,0,0,0,0,0,0,0,0,0,0,0,0,
0,0,0,0,0,0,0,0,0,0,0,0,0,0,0,0,
0,0,0,0,0,0,0,0,0,0,0,0,0,0,0,0
</chunk>
   <chunk x="16" y="-16" width="16" height="16">
661,661,661,661,661,388,0,0,0,0,0,0,0,0,0,0,
689,689,689,689,689,388,0,0,0,0,0,0,0,0,0,0,
775,775,775,775,775,416,0,0,0,0,0,0,0,0,0,0,
0,0,0,0,0,444,0,0,0,0,0,0,0,0,0,0,
0,0,0,0,0,500,0,0,0,0,0,0,0,0,0,0,
0,0,0,0,0,528,0,0,0,0,0,0,0,0,0,0,
0,0,0,0,0,556,0,0,0,0,0,0,0,0,0,0,
0,0,0,0,0,472,0,0,0,0,0,0,0,0,0,0,
0,0,0,0,0,500,0,0,0,0,0,0,0,0,0,0,
0,0,0,0,0,528,0,0,0,0,0,0,0,0,0,0,
0,0,0,0,0,556,0,0,0,0,0,0,0,0,0,0,
0,0,0,0,0,584,0,0,0,0,0,0,0,0,0,0,
0,0,0,0,0,472,0,0,0,0,0,0,0,0,0,0,
0,0,0,0,0,500,0,0,0,0,0,0,0,0,0,0,
0,0,0,0,0,528,0,0,0,0,0,0,0,0,0,0,
0,0,0,0,0,556,0,0,0,0,0,0,0,0,0,0
</chunk>
   <chunk x="-32" y="0" width="16" height="16">
0,0,0,0,0,0,0,0,517,0,0,0,0,0,0,0,
0,0,0,0,0,0,0,0,405,0,0,0,0,0,0,0,
0,0,0,0,0,0,0,0,433,0,0,0,0,0,0,0,
0,0,0,0,0,0,0,0,461,0,0,0,0,0,0,0,
0,0,0,0,0,0,0,0,489,0,0,0,0,0,0,0,
0,0,0,0,0,0,0,0,517,633,634,635,636,637,638,634,
0,0,0,0,0,0,0,0,545,719,719,719,719,719,719,719,
0,0,0,0,0,0,0,0,573,747,747,747,747,747,747,747,
0,0,0,0,0,0,0,0,773,775,775,775,775,775,775,775,
0,0,0,0,0,0,0,0,0,0,0,0,0,0,0,0,
0,0,0,0,0,0,0,0,0,0,0,0,0,0,0,0,
0,0,0,0,0,0,0,0,0,0,0,0,0,0,0,0,
0,0,0,0,0,0,0,0,0,0,0,0,0,0,0,0,
0,0,0,0,0,0,0,0,0,0,0,0,0,0,0,0,
0,0,0,0,0,0,0,0,0,0,0,0,0,0,0,0,
0,0,0,0,0,0,0,0,0,0,0,0,0,0,0,0
</chunk>
   <chunk x="-16" y="0" width="16" height="16">
0,0,0,0,0,0,0,0,0,0,0,0,0,0,0,0,
0,0,0,0,0,0,0,0,0,0,0,0,0,0,0,0,
0,0,0,0,0,0,0,0,0,0,0,0,0,0,0,0,
0,0,0,0,0,0,0,0,0,0,0,0,0,0,0,0,
0,0,0,0,0,0,0,0,0,0,0,0,0,0,0,0,
635,636,637,638,633,633,633,633,633,633,633,633,633,489,4345,4346,
719,719,719,719,718,718,718,718,718,718,718,718,718,718,4414,4415,
747,747,747,747,746,746,746,746,746,746,746,746,746,746,4483,4484,
775,775,775,775,774,774,774,774,774,774,774,774,774,774,4552,4553,
0,0,0,0,0,0,0,0,0,0,0,0,0,0,0,0,
0,0,0,0,0,0,0,0,0,0,0,0,0,0,0,0,
0,0,0,0,0,0,0,0,0,0,0,0,0,0,0,0,
0,0,0,0,0,0,0,0,0,0,0,0,0,0,0,0,
0,0,0,0,0,0,0,0,0,0,0,0,0,0,0,0,
0,0,0,0,0,0,0,0,0,0,0,0,0,0,0,0,
0,0,0,0,0,0,0,0,0,0,0,0,0,0,0,0
</chunk>
   <chunk x="0" y="0" width="16" height="16">
0,0,0,0,0,0,0,0,0,0,0,0,0,0,0,0,
0,0,0,0,0,0,0,0,0,0,0,0,0,0,0,0,
0,0,0,0,0,0,0,0,0,0,0,0,0,0,0,0,
0,0,0,0,0,0,0,0,0,0,0,0,0,0,0,0,
0,0,0,0,0,0,0,0,0,0,0,0,0,0,0,0,
500,633,633,633,633,633,633,633,633,633,633,633,633,634,636,636,
718,718,718,718,718,718,718,718,718,718,718,718,718,718,719,719,
746,746,746,746,746,746,746,746,746,746,746,746,746,746,747,747,
774,774,774,774,774,774,774,774,774,774,774,774,774,774,775,775,
0,0,0,0,0,0,0,0,0,0,0,0,0,0,0,0,
0,0,0,0,0,0,0,0,0,0,0,0,0,0,0,0,
0,0,0,0,0,0,0,0,0,0,0,0,0,0,0,0,
0,0,0,0,0,0,0,0,0,0,0,0,0,0,0,0,
0,0,0,0,0,0,0,0,0,0,0,0,0,0,0,0,
0,0,0,0,0,0,0,0,0,0,0,0,0,0,0,0,
0,0,0,0,0,0,0,0,0,0,0,0,0,0,0,0
</chunk>
   <chunk x="16" y="0" width="16" height="16">
0,0,0,0,0,584,0,0,0,0,0,0,0,0,0,0,
0,0,0,0,0,612,0,0,0,0,0,0,0,0,0,0,
0,0,0,0,0,556,0,0,0,0,0,0,0,0,0,0,
0,0,0,0,0,584,0,0,0,0,0,0,0,0,0,0,
0,0,0,0,0,612,0,0,0,0,0,0,0,0,0,0,
636,636,636,636,636,640,0,0,0,0,0,0,0,0,0,0,
719,719,719,719,719,719,0,0,0,0,0,0,0,0,0,0,
747,747,747,747,747,747,0,0,0,0,0,0,0,0,0,0,
775,775,775,775,775,775,0,0,0,0,0,0,0,0,0,0,
0,0,0,0,0,0,0,0,0,0,0,0,0,0,0,0,
0,0,0,0,0,0,0,0,0,0,0,0,0,0,0,0,
0,0,0,0,0,0,0,0,0,0,0,0,0,0,0,0,
0,0,0,0,0,0,0,0,0,0,0,0,0,0,0,0,
0,0,0,0,0,0,0,0,0,0,0,0,0,0,0,0,
0,0,0,0,0,0,0,0,0,0,0,0,0,0,0,0,
0,0,0,0,0,0,0,0,0,0,0,0,0,0,0,0
</chunk>
  </data>
 </layer>
 <layer id="10" name="door" width="15" height="15">
  <data encoding="csv">
   <chunk x="-32" y="-32" width="16" height="16">
0,0,0,0,0,0,0,0,0,0,0,0,0,0,0,0,
0,0,0,0,0,0,0,0,0,0,0,0,0,0,0,0,
0,0,0,0,0,0,0,0,0,0,0,0,4345,4346,0,0,
0,0,0,0,0,0,0,0,0,0,0,0,4414,4415,0,0,
0,0,0,0,0,0,0,0,0,0,0,0,4483,4484,0,0,
0,0,0,0,0,0,0,0,0,0,0,0,4552,4553,0,0,
0,0,0,0,0,0,0,0,0,0,0,0,0,0,0,0,
0,0,0,0,0,0,0,0,0,0,0,0,0,0,0,0,
0,0,0,0,0,0,0,0,0,0,0,0,0,0,0,0,
0,0,0,0,0,0,0,0,0,0,0,0,0,0,0,0,
0,0,0,0,0,0,0,0,0,0,0,0,0,0,0,0,
0,0,0,0,0,0,0,0,0,0,0,0,0,0,0,0,
0,0,0,0,0,0,0,0,0,0,0,0,0,0,0,0,
0,0,0,0,0,0,0,0,0,0,0,0,0,0,0,0,
0,0,0,0,0,0,0,0,0,0,0,0,0,0,0,0,
0,0,0,0,0,0,0,0,0,0,0,0,0,0,0,0
</chunk>
   <chunk x="-16" y="-32" width="16" height="16">
0,0,0,0,0,0,0,0,0,0,0,0,0,0,0,0,
0,0,0,0,0,0,0,0,0,0,0,0,0,0,0,0,
0,0,4345,4346,0,0,0,0,0,0,0,0,0,0,0,0,
0,0,4414,4415,0,0,0,0,0,0,0,0,0,0,0,0,
0,0,4483,4484,0,0,0,0,0,0,0,0,0,0,0,0,
0,0,4552,4553,0,0,0,0,0,0,0,0,0,0,0,0,
0,0,0,0,0,0,0,0,0,0,0,0,0,0,0,0,
0,0,0,0,0,0,0,0,0,0,0,0,0,0,0,0,
0,0,0,0,0,0,0,0,0,0,0,0,0,0,0,0,
0,0,0,0,0,0,0,0,0,0,0,0,0,0,0,0,
0,0,0,0,0,0,0,0,0,0,0,0,0,0,0,0,
0,0,0,0,0,0,0,0,0,0,0,0,0,0,0,0,
0,0,0,0,0,0,0,0,0,0,0,0,0,0,0,0,
0,0,0,0,0,0,0,0,0,0,0,0,0,0,0,0,
0,0,0,0,0,0,0,0,0,0,0,0,0,0,0,0,
0,0,0,0,0,0,0,0,0,0,0,0,0,0,0,0
</chunk>
   <chunk x="0" y="-32" width="16" height="16">
0,0,0,0,0,0,0,0,0,0,0,0,0,0,0,0,
0,0,0,0,0,0,0,0,0,0,0,0,0,0,0,0,
0,0,0,0,0,0,0,0,0,0,4345,4346,0,0,0,0,
0,0,0,0,0,0,0,0,0,0,4414,4415,0,0,0,0,
0,0,0,0,0,0,0,0,0,0,4483,4484,0,0,0,0,
0,0,0,0,0,0,0,0,0,0,4552,4553,0,0,0,0,
0,0,0,0,0,0,0,0,0,0,0,0,0,0,0,0,
0,0,0,0,0,0,0,0,0,0,0,0,0,0,0,0,
0,0,0,0,0,0,0,0,0,0,0,0,0,0,0,0,
0,0,0,0,0,0,0,0,0,0,0,0,0,0,0,0,
0,0,0,0,0,0,0,0,0,0,0,0,0,0,0,0,
0,0,0,0,0,0,0,0,0,0,0,0,0,0,0,0,
0,0,0,0,0,0,0,0,0,0,0,0,0,0,0,0,
0,0,0,0,0,0,0,0,0,0,0,0,0,0,0,0,
0,0,0,0,0,0,0,0,0,0,0,0,0,0,0,0,
0,0,0,0,0,0,0,0,0,0,0,0,0,0,0,0
</chunk>
  </data>
 </layer>
 <layer id="8" name="furniture_1" width="15" height="15">
  <data encoding="csv">
   <chunk x="-32" y="-32" width="16" height="16">
0,0,0,0,0,0,0,0,0,0,0,0,0,0,0,0,
0,0,0,0,0,0,0,0,0,0,0,0,0,0,0,0,
0,0,0,0,0,0,0,0,0,0,0,0,0,0,0,0,
0,0,0,0,0,0,0,0,5272,5273,5274,0,0,0,0,0,
0,0,0,0,0,0,0,0,5341,5342,5343,0,0,0,0,0,
0,0,0,0,0,0,0,0,5410,5411,5412,0,0,0,0,0,
0,0,0,0,0,0,0,0,5479,5480,5481,0,0,0,0,0,
0,0,0,0,0,0,0,0,0,0,0,0,0,0,0,0,
0,0,0,0,0,0,0,0,0,0,0,0,0,0,0,0,
0,0,0,0,0,0,0,0,0,0,0,0,0,0,0,0,
0,0,0,0,0,0,0,0,0,0,0,0,0,0,0,0,
0,0,0,0,0,0,0,0,0,0,0,0,0,0,0,0,
0,0,0,0,0,0,0,0,0,0,0,0,0,0,0,0,
0,0,0,0,0,0,0,0,0,0,0,0,0,0,0,0,
0,0,0,0,0,0,0,0,0,0,0,0,0,0,0,0,
0,0,0,0,0,0,0,0,0,0,0,0,0,0,0,0
</chunk>
   <chunk x="-16" y="-32" width="16" height="16">
0,0,0,0,0,0,0,0,0,0,0,0,0,0,0,0,
0,0,0,0,0,0,0,0,0,0,0,0,0,0,0,0,
0,0,0,0,0,0,0,11183,11184,0,0,0,11183,11184,0,0,
0,0,0,0,0,0,0,11199,11200,0,0,0,11199,11200,0,0,
0,0,0,0,0,0,0,11215,11216,0,0,0,11215,11216,0,0,
0,0,0,0,0,0,0,0,0,0,0,0,0,0,0,0,
0,0,0,0,0,0,0,0,0,0,0,0,0,0,0,0,
0,0,0,0,0,0,0,0,0,0,0,0,0,0,0,0,
0,0,0,0,0,0,0,0,0,0,0,0,0,0,0,0,
0,0,0,0,0,0,0,0,0,0,0,0,0,0,0,0,
0,0,0,0,0,0,0,0,0,0,0,11478,11479,11479,0,0,
0,0,0,0,0,0,0,0,0,0,0,0,11478,11479,0,0,
0,0,0,0,0,0,0,0,0,0,0,0,0,0,0,0,
0,0,0,0,0,0,0,0,0,0,0,0,0,0,0,0,
0,0,0,0,0,0,0,0,0,0,0,0,0,0,0,0,
0,0,0,0,0,0,0,0,0,0,0,0,0,0,0,0
</chunk>
   <chunk x="0" y="-32" width="16" height="16">
0,0,0,0,0,0,0,0,0,0,0,0,0,0,0,0,
0,0,0,0,0,0,0,0,0,0,0,0,0,0,0,0,
0,11183,11184,0,0,0,11183,11184,0,0,0,0,0,0,0,0,
0,11199,11200,0,0,0,11199,11200,0,0,0,0,0,0,0,7288,
0,11215,11216,0,0,0,11215,11216,0,0,0,0,0,0,0,7357,
0,0,0,0,0,0,0,0,0,0,0,0,0,0,0,0,
0,0,0,0,0,0,0,0,0,0,0,0,0,0,0,0,
0,0,0,0,0,0,0,0,0,0,0,0,0,0,0,0,
0,0,0,0,0,0,0,0,0,0,0,0,0,0,0,0,
0,0,0,0,0,0,0,0,0,0,0,0,0,0,0,0,
0,0,0,0,0,0,0,0,0,0,0,0,0,0,0,0,
0,0,0,0,0,0,0,0,0,0,0,0,0,0,0,0,
0,0,0,0,0,0,0,0,0,0,0,0,0,0,0,0,
0,0,0,0,0,0,0,0,0,0,0,0,0,0,0,0,
0,0,0,0,0,0,0,0,0,0,0,0,0,0,0,0,
0,0,6123,6124,6125,6126,0,0,0,0,0,0,0,0,0,0
</chunk>
   <chunk x="16" y="-32" width="16" height="16">
0,0,0,0,0,0,0,0,0,0,0,0,0,0,0,0,
0,0,0,0,0,0,0,0,0,0,0,0,0,0,0,0,
0,0,0,0,0,0,0,0,0,0,0,0,0,0,0,0,
7289,0,0,6736,6737,0,0,0,0,0,0,0,0,0,0,0,
7358,0,0,6805,6806,0,0,0,0,0,0,0,0,0,0,0,
0,0,0,0,0,0,0,0,0,0,0,0,0,0,0,0,
0,0,0,0,0,0,0,0,0,0,0,0,0,0,0,0,
0,0,0,0,0,0,0,0,0,0,0,0,0,0,0,0,
0,0,0,0,0,0,0,0,0,0,0,0,0,0,0,0,
0,0,0,0,0,0,0,0,0,0,0,0,0,0,0,0,
0,0,0,0,0,0,0,0,0,0,0,0,0,0,0,0,
0,0,0,0,0,0,0,0,0,0,0,0,0,0,0,0,
0,0,0,0,0,0,0,0,0,0,0,0,0,0,0,0,
0,0,0,0,0,0,0,0,0,0,0,0,0,0,0,0,
0,0,0,0,0,0,0,0,0,0,0,0,0,0,0,0,
0,0,0,0,0,0,0,0,0,0,0,0,0,0,0,0
</chunk>
   <chunk x="-32" y="-16" width="16" height="16">
0,0,0,0,0,0,0,0,5272,5273,5274,0,0,0,0,0,
0,0,0,0,0,0,0,0,5341,5342,5343,0,0,0,0,0,
0,0,0,0,0,0,0,0,5410,5411,5412,0,0,5307,5308,10471,
0,0,0,0,0,0,0,0,5479,5480,5481,0,0,5376,5377,10519,
0,0,0,0,0,0,0,0,0,0,0,0,0,5445,5446,10567,
0,0,0,0,0,0,0,0,0,0,0,0,0,0,0,0,
0,0,0,0,0,0,0,0,5479,0,0,0,0,0,0,0,
0,0,0,0,0,0,0,0,0,0,0,0,0,0,0,0,
0,0,0,0,0,0,0,0,0,0,0,0,0,0,0,0,
0,0,0,0,0,0,0,0,0,0,0,0,0,0,0,0,
0,0,0,0,0,0,0,0,0,0,0,0,0,0,0,0,
0,0,0,0,0,0,0,0,0,0,0,0,0,0,0,0,
0,0,0,0,0,0,0,0,0,0,0,0,0,0,0,0,
0,0,0,0,0,0,0,0,0,0,0,11267,11268,0,0,0,
0,0,0,0,0,0,0,0,0,11265,11266,11283,11284,0,10756,10757,
0,0,0,0,0,0,0,0,0,11281,11282,11245,11246,0,10804,10805
</chunk>
   <chunk x="-16" y="-16" width="16" height="16">
0,0,0,0,0,5272,5273,5274,0,0,5272,5273,5274,0,0,0,
0,0,0,0,0,5341,5342,5343,0,0,5341,5342,5343,0,0,0,
10472,10473,5589,5590,0,5410,5411,5412,0,0,5410,5411,5412,0,0,0,
10520,10521,5658,5659,0,5479,5480,5481,0,0,5479,5480,5481,5479,0,0,
10568,10569,5727,5728,0,0,0,0,0,0,0,0,0,0,0,0,
0,0,0,0,0,0,0,0,0,0,0,0,0,0,0,0,
0,0,0,0,0,0,0,0,0,0,0,0,0,0,5479,0,
0,0,0,0,0,0,0,0,0,0,0,0,0,0,0,0,
0,0,0,0,0,0,0,0,0,0,0,0,0,0,0,0,
0,0,0,0,0,0,0,0,0,0,0,0,0,0,0,0,
0,0,0,0,0,0,0,0,0,0,0,0,0,0,0,0,
0,0,0,0,0,0,0,0,0,0,0,0,0,0,0,0,
0,0,0,0,11179,0,0,0,0,0,0,0,0,0,0,0,
0,0,0,0,0,0,0,0,0,0,0,0,0,0,0,0,
10758,10759,10760,10761,10762,10763,10764,0,0,0,0,0,0,0,0,0,
10806,10807,10808,10809,10810,10811,10812,12027,12028,0,0,0,0,0,0,0
</chunk>
   <chunk x="0" y="-16" width="16" height="16">
0,0,6192,6193,6194,6195,0,0,0,0,0,0,3012,3013,3014,3015,
0,0,6261,6262,6263,6264,0,0,0,0,0,0,3081,3082,3083,3084,
0,0,6330,6331,6332,6333,0,0,0,0,0,0,3150,3151,3152,3153,
0,0,6399,6400,6401,6402,0,0,0,0,0,0,0,0,0,0,
0,0,0,0,0,0,0,0,0,0,0,0,0,0,0,0,
0,0,0,0,0,0,0,0,0,0,0,0,0,0,0,0,
0,0,0,0,0,0,0,0,0,0,0,0,0,0,0,0,
0,0,0,0,0,0,0,0,0,0,0,0,0,0,0,0,
0,0,0,0,0,0,0,0,0,0,0,0,0,0,0,0,
0,0,0,0,0,0,0,0,0,0,0,0,0,0,0,0,
0,0,0,0,0,0,0,0,0,0,6669,6670,6671,6670,6670,6671,
0,0,0,0,0,0,0,0,0,0,6738,6739,6740,6739,6739,6740,
0,0,0,0,0,0,0,0,0,0,6807,6808,6809,6808,6808,6809,
0,0,0,0,0,0,0,7237,7238,7239,6876,6877,6878,6877,6877,6878,
0,0,0,0,0,0,0,7306,7307,7308,0,0,0,0,0,0,
0,0,0,0,0,0,0,7375,7376,7377,0,5469,5470,5470,5470,5470
</chunk>
   <chunk x="16" y="-16" width="16" height="16">
0,0,0,0,0,0,0,0,0,0,0,0,0,0,0,0,
0,0,0,5863,5864,0,0,0,0,0,0,0,0,0,0,0,
0,0,0,5932,5933,0,0,0,0,0,0,0,0,0,0,0,
0,0,0,6001,6002,0,0,0,0,0,0,0,0,0,0,0,
0,0,0,0,0,0,0,0,0,0,0,0,0,0,0,0,
0,0,0,0,0,0,0,0,0,0,0,0,0,0,0,0,
0,0,0,0,0,0,0,0,0,0,0,0,0,0,0,0,
0,0,0,0,0,0,0,0,0,0,0,0,0,0,0,0,
0,0,0,0,0,0,0,0,0,0,0,0,0,0,0,0,
0,0,0,0,0,0,0,0,0,0,0,0,0,0,0,0,
6672,6674,0,0,0,0,0,0,0,0,0,0,0,0,0,0,
6741,6743,0,0,0,0,0,0,0,0,0,0,0,0,0,0,
6810,6812,0,0,0,0,0,0,0,0,0,0,0,0,0,0,
6879,6881,7234,7235,7236,0,0,0,0,0,0,0,0,0,0,0,
0,0,7303,7304,7305,0,0,0,0,0,0,0,0,0,0,0,
5472,0,7372,7373,7374,0,0,0,0,0,0,0,0,0,0,0
</chunk>
   <chunk x="-32" y="0" width="16" height="16">
0,0,0,0,0,0,0,0,0,12017,12018,11261,11262,0,10852,10853,
0,0,0,0,0,0,0,0,0,12049,12050,0,0,0,0,0,
0,0,0,0,0,0,0,0,0,11957,11958,0,0,0,0,0,
0,0,0,0,0,0,0,0,0,11989,11990,0,0,0,0,0,
0,0,0,0,0,0,0,0,0,0,0,0,0,0,0,0,
0,0,0,0,0,0,0,0,0,0,0,0,0,0,0,0,
0,0,0,0,0,0,0,0,0,0,0,0,0,0,0,0,
0,0,0,0,0,0,0,0,0,0,0,0,0,0,0,0,
0,0,0,0,0,0,0,0,0,0,0,0,0,0,0,0,
0,0,0,0,0,0,0,0,0,0,0,0,0,0,0,0,
0,0,0,0,0,0,0,0,0,0,0,0,0,0,0,0,
0,0,0,0,0,0,0,0,0,0,0,0,0,0,0,0,
0,0,0,0,0,0,0,0,0,0,0,0,0,0,0,0,
0,0,0,0,0,0,0,0,0,0,0,0,0,0,0,0,
0,0,0,0,0,0,0,0,0,0,0,0,0,0,0,0,
0,0,0,0,0,0,0,0,0,0,0,0,0,0,0,0
</chunk>
   <chunk x="-16" y="0" width="16" height="16">
10854,10855,10856,10857,10858,10859,10860,12059,12060,0,0,0,0,0,0,0,
0,0,0,0,0,0,0,0,0,0,0,0,0,0,0,0,
0,0,0,0,0,0,0,0,0,0,0,0,0,0,0,0,
0,0,0,11713,11714,0,0,0,0,0,0,0,0,0,0,0,
0,0,0,11729,11730,0,0,0,0,0,0,0,0,0,0,0,
0,0,0,0,0,0,0,0,0,0,0,0,0,0,0,0,
0,0,0,0,0,0,0,0,0,0,0,0,0,0,0,0,
0,0,0,0,0,0,0,0,0,0,0,0,0,0,0,0,
0,0,0,0,0,0,0,0,0,0,0,0,0,0,0,0,
0,0,0,0,0,0,0,0,0,0,0,0,0,0,0,0,
0,0,0,0,0,0,0,0,0,0,0,0,0,0,0,0,
0,0,0,0,0,0,0,0,0,0,0,0,0,0,0,0,
0,0,0,0,0,0,0,0,0,0,0,0,0,0,0,0,
0,0,0,0,0,0,0,0,0,0,0,0,0,0,0,0,
0,0,0,0,0,0,0,0,0,0,0,0,0,0,0,0,
0,0,0,0,0,0,0,0,0,0,0,0,0,0,0,0
</chunk>
   <chunk x="0" y="0" width="16" height="16">
0,0,0,0,0,0,0,7444,7445,7446,0,5538,5539,5539,5539,5539,
0,0,0,0,0,0,0,7513,7514,7515,0,5607,5608,5608,5608,5608,
0,0,0,0,0,0,0,7582,7583,7584,0,5676,5677,5677,5677,5677,
0,0,0,0,0,0,0,0,0,0,0,0,0,0,0,0,
0,0,0,0,0,0,0,0,0,0,6945,6946,6947,6946,6946,6947,
0,0,0,0,0,0,0,0,0,0,0,0,0,0,0,0,
0,0,0,0,0,0,0,0,0,0,0,0,0,0,0,0,
0,0,0,0,0,0,0,0,0,0,0,0,0,0,0,0,
0,0,0,0,0,0,0,0,0,0,0,0,0,0,0,0,
0,0,0,0,0,0,0,0,0,0,0,0,0,0,0,0,
0,0,0,0,0,0,0,0,0,0,0,0,0,0,0,0,
0,0,0,0,0,0,0,0,0,0,0,0,0,0,0,0,
0,0,0,0,0,0,0,0,0,0,0,0,0,0,0,0,
0,0,0,0,0,0,0,0,0,0,0,0,0,0,0,0,
0,0,0,0,0,0,0,0,0,0,0,0,0,0,0,0,
0,0,0,0,0,0,0,0,0,0,0,0,0,0,0,0
</chunk>
   <chunk x="16" y="0" width="16" height="16">
5541,0,7441,7442,7443,0,0,0,0,0,0,0,0,0,0,0,
5610,0,7510,7511,7512,0,0,0,0,0,0,0,0,0,0,0,
5679,0,7579,7580,7581,0,0,0,0,0,0,0,0,0,0,0,
0,0,0,0,0,0,0,0,0,0,0,0,0,0,0,0,
6947,6948,0,0,0,0,0,0,0,0,0,0,0,0,0,0,
0,0,0,0,0,0,0,0,0,0,0,0,0,0,0,0,
0,0,0,0,0,0,0,0,0,0,0,0,0,0,0,0,
0,0,0,0,0,0,0,0,0,0,0,0,0,0,0,0,
0,0,0,0,0,0,0,0,0,0,0,0,0,0,0,0,
0,0,0,0,0,0,0,0,0,0,0,0,0,0,0,0,
0,0,0,0,0,0,0,0,0,0,0,0,0,0,0,0,
0,0,0,0,0,0,0,0,0,0,0,0,0,0,0,0,
0,0,0,0,0,0,0,0,0,0,0,0,0,0,0,0,
0,0,0,0,0,0,0,0,0,0,0,0,0,0,0,0,
0,0,0,0,0,0,0,0,0,0,0,0,0,0,0,0,
0,0,0,0,0,0,0,0,0,0,0,0,0,0,0,0
</chunk>
  </data>
 </layer>
 <layer id="11" name="furniture_2" width="15" height="15">
  <data encoding="csv">
   <chunk x="-32" y="-16" width="16" height="16">
0,0,0,0,0,0,0,0,0,0,0,0,0,0,0,0,
0,0,0,0,0,0,0,0,0,0,0,0,0,0,0,0,
0,0,0,0,0,0,0,0,0,0,0,0,0,0,0,0,
0,0,0,0,0,0,0,0,0,0,0,0,0,0,0,0,
0,0,0,0,0,0,0,0,0,0,0,0,0,0,0,0,
0,0,0,0,0,0,0,0,0,0,0,0,0,0,0,0,
0,0,0,0,0,0,0,0,0,0,0,0,0,0,0,0,
0,0,0,0,0,0,0,0,0,0,0,0,0,0,0,0,
0,0,0,0,0,0,0,0,0,0,0,0,0,0,0,0,
0,0,0,0,0,0,0,0,0,0,0,0,0,0,0,0,
0,0,0,0,0,0,0,0,0,0,0,0,0,0,0,0,
0,0,0,0,0,0,0,0,0,0,0,0,0,0,0,0,
0,0,0,0,0,0,0,0,0,0,0,0,0,0,0,0,
0,0,0,0,0,0,0,0,0,0,0,0,0,0,0,11686,
0,0,0,0,0,0,0,0,0,0,0,0,0,0,0,0,
0,0,0,0,0,0,0,0,0,0,0,0,0,0,0,0
</chunk>
   <chunk x="-16" y="-16" width="16" height="16">
0,0,0,0,0,0,0,0,0,0,0,0,0,0,0,0,
0,0,0,0,0,0,0,0,0,0,0,0,0,0,0,0,
0,0,0,0,0,0,0,0,0,0,0,0,0,0,0,0,
0,0,0,0,0,0,0,0,0,0,0,0,0,0,0,0,
0,0,0,0,0,0,0,0,0,0,0,0,0,0,0,0,
0,0,0,0,0,0,0,0,0,0,0,0,0,0,0,0,
0,0,0,0,0,0,0,0,0,0,0,0,0,0,0,0,
0,0,0,0,0,0,0,0,0,0,0,0,0,0,0,0,
0,0,0,0,0,0,0,0,0,0,0,0,0,0,0,0,
0,0,0,0,0,0,0,0,0,0,0,0,0,0,0,0,
0,0,0,0,0,0,0,0,0,0,0,0,0,0,0,0,
0,0,0,0,0,0,0,0,0,0,0,0,0,0,0,0,
0,0,0,0,0,0,0,0,0,0,0,0,0,0,0,0,
0,11715,11716,0,0,0,0,0,0,0,0,0,0,0,0,0,
0,11731,11732,0,0,0,0,0,0,0,0,0,0,0,0,0,
0,0,0,0,0,0,0,0,0,0,0,0,0,0,0,0
</chunk>
   <chunk x="0" y="0" width="16" height="16">
0,0,0,0,0,0,0,0,0,0,0,0,0,11269,11270,0,
0,0,0,0,0,0,0,0,0,0,0,0,0,11285,11286,0,
0,0,0,0,0,0,0,0,0,0,0,0,0,0,0,0,
0,0,0,0,0,0,0,0,0,0,0,0,0,0,0,0,
0,0,0,0,0,0,0,0,0,0,0,0,0,0,0,0,
0,0,0,0,0,0,0,0,0,0,0,0,0,0,0,0,
0,0,0,0,0,0,0,0,0,0,0,0,0,0,0,0,
0,0,0,0,0,0,0,0,0,0,0,0,0,0,0,0,
0,0,0,0,0,0,0,0,0,0,0,0,0,0,0,0,
0,0,0,0,0,0,0,0,0,0,0,0,0,0,0,0,
0,0,0,0,0,0,0,0,0,0,0,0,0,0,0,0,
0,0,0,0,0,0,0,0,0,0,0,0,0,0,0,0,
0,0,0,0,0,0,0,0,0,0,0,0,0,0,0,0,
0,0,0,0,0,0,0,0,0,0,0,0,0,0,0,0,
0,0,0,0,0,0,0,0,0,0,0,0,0,0,0,0,
0,0,0,0,0,0,0,0,0,0,0,0,0,0,0,0
</chunk>
  </data>
 </layer>
</map>
