<?xml version="1.0" encoding="UTF-8"?>
<map version="1.10" tiledversion="1.12.1" orientation="orthogonal" renderorder="right-down" width="48" height="48" tilewidth="16" tileheight="16" infinite="1" nextlayerid="28" nextobjectid="1">
 <tileset firstgid="1" name="Tileset" tilewidth="16" tileheight="16" tilecount="486" columns="18">
  <image source="../sucai/Farm_tileset.png" width="288" height="432"/>
 </tileset>
 <tileset firstgid="487" name="Object" tilewidth="16" tileheight="16" tilecount="456" columns="24">
  <image source="../sucai/Farm_object.png" width="384" height="304"/>
 </tileset>
 <tileset firstgid="943" name="sprites_liluo" tilewidth="16" tileheight="16" tilecount="192" columns="24">
  <image source="../sucai/sprites_liluo.png" width="384" height="128"/>
 </tileset>
 <tileset firstgid="1135" name="object_portal" tilewidth="16" tileheight="16" tilecount="128" columns="32">
  <image source="../sucai/object_portal.png" width="512" height="64"/>
 </tileset>
 <tileset firstgid="1263" name="cozytown_buildings_roofs" tilewidth="16" tileheight="16" tilecount="240" columns="12">
  <image source="../sucai/cozytown_buildings_roofs.png" width="192" height="320"/>
 </tileset>
 <tileset firstgid="1503" name="cozytown_buildings_walls" tilewidth="16" tileheight="16" tilecount="144" columns="12">
  <image source="../sucai/cozytown_buildings_walls.png" width="192" height="192"/>
 </tileset>
 <tileset firstgid="1647" name="cozytown_terrain" tilewidth="16" tileheight="16" tilecount="180" columns="12">
  <image source="../sucai/cozytown_terrain.png" width="192" height="240"/>
 </tileset>
 <tileset firstgid="1827" name="cozytown_buildings_door" tilewidth="16" tileheight="16" tilecount="6" columns="3">
  <image source="../sucai/cozytown_buildings_door.png" width="48" height="32"/>
 </tileset>
 <tileset firstgid="1833" name="cozytown_buildings_objects" tilewidth="16" tileheight="16" tilecount="130" columns="13">
  <image source="../sucai/cozytown_buildings_objects.png" width="216" height="160"/>
 </tileset>
 <tileset firstgid="1963" name="cozytown_structure_balcony" tilewidth="16" tileheight="16" tilecount="48" columns="8">
  <image source="../sucai/cozytown_structure_balcony.png" width="128" height="96"/>
 </tileset>
 <tileset firstgid="2011" name="cozytown_small_bushes" tilewidth="16" tileheight="16" tilecount="54" columns="9">
  <image source="../sucai/cozytown_small_bushes.png" width="144" height="96"/>
 </tileset>
 <layer id="9" name="NPC_event" width="48" height="48">
  <data encoding="csv">
   <chunk x="0" y="16" width="16" height="16">
0,0,0,0,0,0,0,0,0,0,0,0,0,0,0,0,
0,0,0,0,0,0,0,0,0,0,0,0,0,0,0,158,
0,0,0,0,0,0,0,0,0,0,0,0,0,0,0,158,
0,0,0,0,0,0,0,0,0,0,0,0,0,0,0,0,
0,0,0,0,0,0,0,0,0,0,0,0,0,0,0,0,
0,0,0,0,0,0,0,0,0,0,0,0,0,0,0,0,
0,0,0,0,0,0,0,0,0,0,0,0,0,0,0,0,
0,0,0,0,0,0,0,0,0,0,0,0,0,0,0,0,
0,0,0,0,0,0,0,0,0,0,0,0,0,0,0,0,
0,0,0,0,0,0,0,0,0,0,0,0,0,0,0,0,
0,0,0,0,0,0,0,0,0,0,0,0,0,0,0,0,
0,0,0,0,0,0,0,0,0,0,0,0,0,0,0,0,
0,0,0,0,0,0,0,0,0,0,0,0,0,0,0,0,
0,0,0,0,0,0,0,0,0,0,0,0,0,0,0,0,
0,0,0,0,0,0,0,0,0,0,0,0,0,0,0,0,
0,0,0,0,0,0,0,0,0,0,0,0,0,0,0,0
</chunk>
   <chunk x="16" y="16" width="16" height="16">
0,0,0,0,0,0,0,0,0,0,0,0,0,0,0,0,
161,0,0,0,0,0,0,0,0,0,0,0,0,0,0,0,
161,0,0,0,0,0,0,0,0,0,0,0,0,0,0,0,
0,0,0,0,0,0,0,0,0,0,0,0,0,0,0,0,
0,0,0,0,0,0,0,0,0,0,0,0,0,0,0,0,
0,0,0,0,0,0,0,0,0,0,0,0,0,0,0,0,
0,0,0,0,0,0,0,0,0,0,0,0,0,0,0,0,
0,0,0,0,0,0,0,0,0,0,0,0,0,0,0,0,
0,0,0,0,0,0,0,0,0,0,0,0,0,0,0,0,
0,0,0,0,0,0,0,0,0,0,0,0,0,0,0,0,
0,0,0,0,0,0,0,0,0,0,0,0,0,0,0,0,
0,0,0,0,0,0,0,0,0,0,0,0,0,0,0,0,
0,0,0,0,0,0,0,0,0,0,0,0,0,0,0,0,
0,0,0,0,0,0,0,0,0,0,0,0,0,0,0,0,
0,0,0,0,0,0,0,0,0,0,0,0,0,0,0,0,
0,0,0,0,0,0,0,0,0,0,0,0,0,0,0,0
</chunk>
  </data>
 </layer>
 <layer id="13" name="Portal_event" width="48" height="48">
  <data encoding="csv">
   <chunk x="16" y="16" width="16" height="16">
0,0,0,0,0,0,0,0,0,0,0,0,0,0,0,0,
0,0,0,0,0,0,0,0,0,0,0,0,0,0,0,0,
0,0,0,0,0,0,0,0,0,0,0,0,0,0,0,0,
0,0,0,0,0,0,0,0,0,0,0,0,0,0,0,0,
0,0,0,0,0,0,0,0,0,0,0,0,0,0,0,0,
0,0,0,0,0,0,0,0,0,0,0,0,0,0,0,0,
0,0,0,0,0,0,0,0,0,0,0,0,0,0,0,0,
0,0,0,0,0,0,0,0,0,0,0,0,0,0,0,0,
0,0,0,0,0,0,0,0,0,0,0,0,0,0,0,0,
0,0,0,0,0,0,0,0,0,0,0,0,0,0,0,0,
0,0,0,0,0,0,0,0,0,0,0,0,0,0,0,158,
0,0,0,0,0,0,0,0,0,0,0,0,0,0,0,158,
0,0,0,0,0,0,0,0,0,0,0,0,0,0,0,158,
0,0,0,0,0,0,0,0,0,0,0,0,0,0,0,0,
0,0,0,0,0,0,0,0,0,0,0,0,0,0,0,0,
0,0,0,0,0,0,0,0,0,0,0,0,0,0,0,0
</chunk>
   <chunk x="32" y="16" width="16" height="16">
0,0,0,0,0,0,0,0,0,0,0,0,0,0,0,0,
0,0,0,0,0,0,0,0,0,0,0,0,0,0,0,0,
0,0,0,0,0,0,0,0,0,0,0,0,0,0,0,0,
0,0,0,0,0,0,0,0,0,0,0,0,0,0,0,0,
0,0,0,0,0,0,0,0,0,0,0,0,0,0,0,0,
0,0,0,0,0,0,0,0,0,0,0,0,0,0,0,0,
0,0,0,0,0,0,0,0,0,0,0,0,0,0,0,0,
0,0,0,0,0,0,0,0,0,0,0,0,0,0,0,0,
0,0,0,0,0,0,0,0,0,0,0,0,0,0,0,0,
0,0,0,0,0,0,0,0,0,0,0,0,0,0,0,0,
158,158,0,0,0,0,0,0,0,0,0,0,0,0,0,0,
158,158,0,0,0,0,0,0,0,0,0,0,0,0,0,0,
158,158,0,0,0,0,0,0,0,0,0,0,0,0,0,0,
0,0,0,0,0,0,0,0,0,0,0,0,0,0,0,0,
0,0,0,0,0,0,0,0,0,0,0,0,0,0,0,0,
0,0,0,0,0,0,0,0,0,0,0,0,0,0,0,0
</chunk>
  </data>
 </layer>
 <layer id="27" name="outdoor_event" width="48" height="48">
  <data encoding="csv">
   <chunk x="16" y="32" width="16" height="16">
0,0,0,0,0,0,0,0,0,0,0,0,0,0,0,0,
0,0,0,0,0,0,0,0,0,0,0,0,0,0,0,0,
0,0,0,0,0,0,0,0,0,0,0,0,0,0,0,0,
0,0,0,0,0,0,0,0,0,0,0,0,0,0,0,0,
0,0,0,0,0,212,212,212,212,212,0,0,0,0,0,0,
0,0,0,0,0,212,212,212,212,212,0,0,0,0,0,0,
0,0,0,0,0,0,0,0,0,0,0,0,0,0,0,0,
0,0,0,0,0,0,0,0,0,0,0,0,0,0,0,0,
0,0,0,0,0,0,0,0,0,0,0,0,0,0,0,0,
0,0,0,0,0,0,0,0,0,0,0,0,0,0,0,0,
0,0,0,0,0,0,0,0,0,0,0,0,0,0,0,0,
0,0,0,0,0,0,0,0,0,0,0,0,0,0,0,0,
0,0,0,0,0,0,0,0,0,0,0,0,0,0,0,0,
0,0,0,0,0,0,0,0,0,0,0,0,0,0,0,0,
0,0,0,0,0,0,0,0,0,0,0,0,0,0,0,0,
0,0,0,0,0,0,0,0,0,0,0,0,0,0,0,0
</chunk>
  </data>
 </layer>
 <layer id="10" name="Hole_event" width="48" height="48">
  <data encoding="csv">
   <chunk x="16" y="16" width="16" height="16">
0,0,0,0,161,161,0,0,0,0,0,0,0,0,0,0,
0,0,0,0,161,161,0,0,0,0,0,0,0,0,0,0,
0,0,0,0,0,0,0,0,0,0,0,0,0,0,0,0,
0,0,0,0,0,0,0,0,0,0,0,0,0,0,0,0,
0,0,0,0,0,0,0,0,0,0,0,0,0,0,0,0,
0,0,0,0,0,0,0,0,0,0,0,0,0,0,0,0,
0,0,0,0,0,0,0,0,0,0,0,0,0,0,0,0,
0,0,0,0,0,0,0,0,0,0,0,0,0,0,0,0,
0,0,0,0,0,0,0,0,0,0,0,0,0,0,0,0,
0,0,0,0,0,0,0,0,0,0,0,0,0,0,0,0,
0,0,0,0,0,0,0,0,0,0,0,0,0,0,0,0,
0,0,0,0,0,0,0,0,0,0,0,0,0,0,0,0,
0,0,0,0,0,0,0,0,0,0,0,0,0,0,0,0,
0,0,0,0,0,0,0,0,0,0,0,0,0,0,0,0,
0,0,0,0,0,0,0,0,0,0,0,0,0,0,0,0,
0,0,0,0,0,0,0,0,0,0,0,0,0,0,0,0
</chunk>
  </data>
 </layer>
 <layer id="11" name="House_event" width="48" height="48">
  <data encoding="csv">
   <chunk x="16" y="16" width="16" height="16">
0,0,0,0,0,0,0,0,0,0,0,0,0,0,0,0,
0,0,0,0,0,0,0,0,0,0,0,0,0,0,0,0,
0,0,0,0,0,0,0,0,0,0,0,0,0,0,0,0,
0,0,0,0,0,0,0,0,0,0,0,0,0,0,0,0,
0,0,0,0,0,0,0,0,0,0,0,0,0,0,0,0,
0,0,0,0,0,0,0,0,0,0,0,0,0,0,0,0,
0,0,0,0,0,0,0,0,0,0,0,0,0,0,0,0,
0,0,0,0,0,0,0,0,0,0,0,0,0,0,0,0,
0,0,0,0,0,0,0,0,0,0,0,0,0,0,0,0,
0,0,0,0,0,0,0,0,0,0,0,0,0,0,0,0,
0,0,0,0,0,0,0,0,0,0,0,0,0,0,0,0,
0,0,0,215,215,0,0,0,0,0,0,0,0,0,0,0,
0,0,0,215,215,0,0,0,0,0,0,0,0,0,0,0,
0,0,0,0,0,0,0,0,0,0,0,0,0,0,0,0,
0,0,0,0,0,0,0,0,0,0,0,0,0,0,0,0,
0,0,0,0,0,0,0,0,0,0,0,0,0,0,0,0
</chunk>
  </data>
 </layer>
 <layer id="1" name="图块层 1" width="48" height="48">
  <data encoding="csv">
   <chunk x="0" y="0" width="16" height="16">
0,0,0,0,0,0,0,0,0,0,0,0,0,0,0,0,
0,0,0,0,0,0,0,0,0,0,0,0,0,0,0,0,
0,0,0,0,0,0,0,0,0,0,0,0,0,0,0,0,
0,0,0,0,0,0,0,0,0,0,0,0,0,0,0,0,
0,0,0,0,0,0,0,0,0,0,0,0,0,0,0,0,
0,0,0,0,0,0,0,0,0,0,0,0,0,0,0,0,
0,0,0,0,0,0,0,0,0,0,0,0,0,0,0,0,
0,0,0,0,0,0,0,0,0,0,0,0,0,0,0,0,
0,0,0,0,0,0,0,0,0,0,0,0,0,0,0,0,
0,0,0,0,0,0,0,0,0,0,0,0,0,0,0,0,
0,0,0,0,0,0,0,0,0,0,0,0,0,0,0,0,
0,0,0,0,0,0,0,0,0,0,0,257,257,257,257,257,
0,0,0,0,0,0,0,0,0,0,0,257,257,257,257,257,
0,0,0,0,0,0,0,0,0,0,0,257,257,257,257,257,
0,0,0,0,0,0,0,0,0,0,0,257,257,156,308,153,
0,0,0,0,0,0,0,0,0,0,0,257,0,308,217,326
</chunk>
   <chunk x="16" y="0" width="16" height="16">
0,0,0,0,0,0,0,0,0,0,0,0,0,0,0,0,
0,0,0,0,0,0,0,0,0,0,0,0,0,0,0,0,
0,0,0,0,0,0,0,0,0,0,0,0,0,0,0,0,
0,0,0,0,0,0,0,0,0,0,0,0,0,0,0,0,
0,0,0,0,0,0,0,0,0,0,0,0,0,0,0,0,
0,0,0,0,0,0,0,0,0,0,0,0,0,0,0,0,
0,0,0,0,0,0,0,0,0,0,0,0,0,0,0,0,
0,0,0,0,0,0,0,0,0,0,0,0,0,0,0,0,
0,0,0,0,0,0,0,0,0,0,0,0,0,0,0,0,
0,0,0,0,0,0,0,0,0,0,0,0,0,0,0,0,
0,0,0,0,0,0,0,0,0,0,0,0,0,0,0,0,
257,257,257,257,257,257,257,257,257,257,257,257,257,257,257,257,
257,257,257,257,257,257,257,257,257,257,257,257,257,257,257,257,
257,257,257,257,257,257,257,257,257,257,257,257,257,257,257,257,
308,308,308,308,156,308,308,308,308,155,308,308,151,308,156,308,
326,326,326,326,326,326,326,326,326,326,326,113,114,326,326,219
</chunk>
   <chunk x="32" y="0" width="16" height="16">
0,0,0,0,0,0,0,0,0,0,0,0,0,0,0,0,
0,0,0,0,0,0,0,0,0,0,0,0,0,0,0,0,
0,0,0,0,0,0,0,0,0,0,0,0,0,0,0,0,
0,0,0,0,0,0,0,0,0,0,0,0,0,0,0,0,
0,0,0,0,0,0,0,0,0,0,0,0,0,0,0,0,
0,0,0,0,0,0,0,0,0,0,0,0,0,0,0,0,
0,0,0,0,0,0,0,0,0,0,0,0,0,0,0,0,
0,0,0,0,0,0,0,0,0,0,0,0,0,0,0,0,
0,0,0,0,0,0,0,0,0,0,0,0,0,0,0,0,
0,0,0,0,0,0,0,0,0,0,0,0,0,0,0,0,
0,0,0,0,0,0,0,0,0,0,0,0,0,0,0,0,
257,257,257,257,0,0,0,0,0,0,0,0,0,0,0,0,
257,257,257,257,0,0,0,0,0,0,0,0,0,0,0,0,
257,257,257,257,0,0,0,0,0,0,0,0,0,0,0,0,
308,308,257,257,0,0,0,0,0,0,0,0,0,0,0,0,
153,257,257,257,0,0,0,0,0,0,0,0,0,0,0,0
</chunk>
   <chunk x="0" y="16" width="16" height="16">
0,0,0,0,0,0,0,0,0,0,0,257,0,151,235,236,
0,0,0,0,0,0,0,0,0,0,0,257,0,151,253,311,
0,0,0,0,0,0,0,0,0,0,0,257,0,153,256,311,
0,0,0,0,0,0,0,0,0,0,0,257,0,151,256,311,
0,0,0,0,0,0,0,0,0,0,0,257,0,155,256,311,
0,0,0,0,0,0,0,0,0,0,0,257,0,308,256,311,
0,0,0,0,0,0,0,0,0,0,0,257,0,308,256,311,
0,0,0,0,0,0,0,0,0,0,0,257,0,152,256,311,
0,0,0,0,0,0,0,0,0,0,0,257,0,308,256,311,
0,0,0,0,0,0,0,0,0,0,0,257,0,151,256,311,
0,0,0,0,0,0,0,0,0,0,0,257,0,308,256,311,
0,0,0,0,0,0,0,0,0,0,0,257,0,257,256,311,
0,0,0,0,0,0,0,0,0,0,0,257,0,308,256,311,
0,0,0,0,0,0,0,0,0,0,0,257,0,156,256,311,
0,0,0,0,0,0,0,0,0,0,0,257,0,308,256,311,
0,0,0,0,0,0,0,0,0,0,0,257,0,257,256,311
</chunk>
   <chunk x="16" y="16" width="16" height="16">
236,236,236,236,236,236,236,236,236,236,236,131,132,236,236,237,
311,311,311,311,311,311,311,311,311,311,311,149,150,311,311,258,
311,311,311,311,311,311,311,311,311,311,311,311,311,311,311,258,
311,311,311,311,311,311,311,311,311,311,311,311,311,311,311,258,
311,311,311,311,311,311,311,311,311,311,311,257,311,311,311,258,
311,311,311,311,311,311,311,311,311,311,311,311,311,311,311,258,
311,311,311,311,311,311,311,311,311,311,311,311,311,311,311,258,
311,311,311,311,311,311,311,311,311,311,311,311,311,311,311,307,
311,311,311,311,311,311,311,311,311,311,311,311,311,311,311,325,
311,311,311,311,311,311,311,311,311,311,311,311,311,311,311,343,
311,311,311,311,311,311,311,311,311,311,311,311,311,311,311,311,
311,311,311,311,311,311,311,311,311,311,311,311,311,311,311,311,
311,311,311,311,311,311,311,311,311,311,311,311,311,311,311,311,
311,311,311,311,311,311,311,311,311,311,311,311,311,311,311,289,
311,311,311,311,311,311,311,311,311,311,311,311,311,311,311,307,
311,311,311,311,311,311,311,311,311,311,311,311,311,311,311,307
</chunk>
   <chunk x="32" y="16" width="16" height="16">
257,151,257,257,0,0,0,0,0,0,0,0,0,0,0,0,
152,257,257,257,0,0,0,0,0,0,0,0,0,0,0,0,
257,153,257,257,0,0,0,0,0,0,0,0,0,0,0,0,
155,257,257,257,0,0,0,0,0,0,0,0,0,0,0,0,
151,257,257,257,0,0,0,0,0,0,0,0,0,0,0,0,
152,257,257,257,0,0,0,0,0,0,0,0,0,0,0,0,
257,257,257,257,0,0,0,0,0,0,0,0,0,0,0,0,
153,308,257,257,0,0,0,0,0,0,0,0,0,0,0,0,
326,326,257,257,0,0,0,0,0,0,0,0,0,0,0,0,
344,344,257,257,0,0,0,0,0,0,0,0,0,0,0,0,
311,311,257,257,0,0,0,0,0,0,0,0,0,0,0,0,
311,311,257,257,0,0,0,0,0,0,0,0,0,0,0,0,
311,311,257,257,0,0,0,0,0,0,0,0,0,0,0,0,
290,290,257,257,0,0,0,0,0,0,0,0,0,0,0,0,
152,151,257,257,0,0,0,0,0,0,0,0,0,0,0,0,
155,151,257,257,0,0,0,0,0,0,0,0,0,0,0,0
</chunk>
   <chunk x="0" y="32" width="16" height="16">
0,0,0,0,0,0,0,0,0,0,0,257,0,153,309,311,
0,0,0,0,0,0,0,0,0,0,0,257,0,326,327,311,
0,0,0,0,0,0,0,0,0,0,0,257,0,344,345,257,
0,0,0,0,0,0,0,0,0,0,0,257,0,257,257,257,
0,0,0,0,0,0,0,0,0,0,0,257,257,257,257,257,
0,0,0,0,0,0,0,0,0,0,0,257,257,257,257,257,
0,0,0,0,0,0,0,0,0,0,0,0,0,0,0,0,
0,0,0,0,0,0,0,0,0,0,0,0,0,0,0,0,
0,0,0,0,0,0,0,0,0,0,0,0,0,0,0,0,
0,0,0,0,0,0,0,0,0,0,0,0,0,0,0,0,
0,0,0,0,0,0,0,0,0,0,0,0,0,0,0,0,
0,0,0,0,0,0,0,0,0,0,0,0,0,0,0,0,
0,0,0,0,0,0,0,0,0,0,0,0,0,0,0,0,
0,0,0,0,0,0,0,0,0,0,0,0,0,0,0,0,
0,0,0,0,0,0,0,0,0,0,0,0,0,0,0,0,
0,0,0,0,0,0,0,0,0,0,0,0,0,0,0,0
</chunk>
   <chunk x="16" y="32" width="16" height="16">
311,311,311,311,311,311,311,311,311,311,311,311,311,311,311,307,
311,311,311,311,311,311,311,311,311,311,311,311,311,311,311,325,
257,257,257,257,257,257,257,257,257,257,257,257,257,257,257,343,
257,257,257,257,257,257,257,257,257,257,257,257,257,257,257,257,
257,257,257,257,257,257,257,257,257,257,257,257,257,257,257,257,
257,257,257,257,257,257,257,257,257,257,257,257,257,257,257,257,
0,0,0,0,493,493,493,493,0,0,0,0,0,0,0,0,
0,0,0,0,0,0,493,493,0,0,0,0,0,0,0,0,
0,0,0,0,0,0,0,0,0,0,0,0,0,0,0,0,
0,0,0,0,0,0,0,0,0,0,0,0,0,0,0,0,
0,0,0,0,0,0,0,0,0,0,0,0,0,0,0,0,
0,0,0,0,0,0,0,0,0,0,0,0,0,0,0,0,
0,0,0,0,0,0,0,0,0,0,0,0,0,0,0,0,
0,0,0,0,0,0,0,0,0,0,0,0,0,0,0,0,
0,0,0,0,0,0,0,0,0,0,0,0,0,0,0,0,
0,0,0,0,0,0,0,0,0,0,0,0,0,0,0,0
</chunk>
   <chunk x="32" y="32" width="16" height="16">
308,308,257,257,0,0,0,0,0,0,0,0,0,0,0,0,
326,326,257,257,0,0,0,0,0,0,0,0,0,0,0,0,
344,344,257,257,0,0,0,0,0,0,0,0,0,0,0,0,
257,257,257,257,0,0,0,0,0,0,0,0,0,0,0,0,
257,257,257,257,0,0,0,0,0,0,0,0,0,0,0,0,
257,257,257,257,0,0,0,0,0,0,0,0,0,0,0,0,
0,0,0,0,0,0,0,0,0,0,0,0,0,0,0,0,
0,0,0,0,0,0,0,0,0,0,0,0,0,0,0,0,
0,0,0,0,0,0,0,0,0,0,0,0,0,0,0,0,
0,0,0,0,0,0,0,0,0,0,0,0,0,0,0,0,
0,0,0,0,0,0,0,0,0,0,0,0,0,0,0,0,
0,0,0,0,0,0,0,0,0,0,0,0,0,0,0,0,
0,0,0,0,0,0,0,0,0,0,0,0,0,0,0,0,
0,0,0,0,0,0,0,0,0,0,0,0,0,0,0,0,
0,0,0,0,0,0,0,0,0,0,0,0,0,0,0,0,
0,0,0,0,0,0,0,0,0,0,0,0,0,0,0,0
</chunk>
  </data>
 </layer>
 <layer id="6" name="图块层 4" width="48" height="48">
  <data encoding="csv">
   <chunk x="0" y="0" width="16" height="16">
0,0,0,0,0,0,0,0,0,0,0,0,0,0,0,0,
0,0,0,0,0,0,0,0,0,0,0,0,0,0,0,0,
0,0,0,0,0,0,0,0,0,0,0,0,0,0,0,0,
0,0,0,0,0,0,0,0,0,0,0,0,0,0,0,0,
0,0,0,0,0,0,0,0,0,0,0,0,0,0,0,0,
0,0,0,0,0,0,0,0,0,0,0,0,0,0,0,0,
0,0,0,0,0,0,0,0,0,0,0,0,0,0,0,0,
0,0,0,0,0,0,0,0,0,0,0,0,0,0,0,0,
0,0,0,0,0,0,0,0,0,0,0,0,0,0,0,0,
0,0,0,0,0,0,0,0,0,0,0,0,0,0,0,0,
0,0,0,0,0,0,0,0,0,0,0,0,0,0,0,0,
0,0,0,0,0,0,0,0,0,0,0,0,0,0,0,0,
0,0,0,0,0,0,0,0,0,0,0,0,0,0,0,0,
0,0,0,0,0,0,0,0,0,0,0,0,0,0,0,0,
0,0,0,0,0,0,0,0,0,0,0,0,0,0,0,0,
0,0,0,0,0,0,0,0,0,0,0,0,0,0,217,0
</chunk>
   <chunk x="16" y="0" width="16" height="16">
0,0,0,0,0,0,0,0,0,0,0,0,0,0,0,0,
0,0,0,0,0,0,0,0,0,0,0,0,0,0,0,0,
0,0,0,0,0,0,0,0,0,0,0,0,0,0,0,0,
0,0,0,0,0,0,0,0,0,0,0,0,0,0,0,0,
0,0,0,0,0,0,0,0,0,0,0,0,0,0,0,0,
0,0,0,0,0,0,0,0,0,0,0,0,0,0,0,0,
0,0,0,0,0,0,0,0,0,0,0,0,0,0,0,0,
0,0,0,0,0,0,0,0,0,0,0,0,0,0,0,0,
0,0,0,0,0,0,0,0,0,0,0,0,0,0,0,0,
0,0,0,0,0,0,0,0,0,0,0,0,0,0,0,0,
0,0,0,0,0,0,0,0,0,0,0,0,0,0,0,0,
0,0,0,0,0,0,0,0,0,0,0,0,0,0,0,0,
0,0,0,0,0,0,0,0,0,0,0,0,0,0,0,0,
0,0,0,0,0,0,0,0,0,0,0,0,0,0,0,0,
0,0,0,0,0,0,0,0,0,0,0,308,308,0,0,0,
0,0,0,0,113,114,0,0,0,0,0,326,326,0,0,0
</chunk>
   <chunk x="0" y="16" width="16" height="16">
0,0,0,0,0,0,0,0,0,0,0,0,0,0,235,0,
0,0,0,0,0,0,0,0,0,0,0,0,0,0,253,0,
0,0,0,0,0,0,0,0,0,0,0,0,0,0,0,0,
0,0,0,0,0,0,0,0,0,0,0,0,0,0,0,0,
0,0,0,0,0,0,0,0,0,0,0,0,0,0,0,0,
0,0,0,0,0,0,0,0,0,0,0,0,0,0,0,0,
0,0,0,0,0,0,0,0,0,0,0,0,0,0,0,0,
0,0,0,0,0,0,0,0,0,0,0,0,0,0,0,0,
0,0,0,0,0,0,0,0,0,0,0,0,0,0,0,0,
0,0,0,0,0,0,0,0,0,0,0,0,0,0,0,0,
0,0,0,0,0,0,0,0,0,0,0,0,0,0,0,0,
0,0,0,0,0,0,0,0,0,0,0,0,0,0,0,0,
0,0,0,0,0,0,0,0,0,0,0,0,0,0,0,0,
0,0,0,0,0,0,0,0,0,0,0,0,0,0,0,0,
0,0,0,0,0,0,0,0,0,0,0,0,0,739,0,0,
0,0,0,0,0,0,0,0,0,0,0,0,0,0,0,0
</chunk>
   <chunk x="16" y="16" width="16" height="16">
0,0,0,0,131,132,0,0,0,0,0,344,344,0,0,0,
0,0,0,0,149,150,0,0,0,0,0,311,311,0,0,0,
0,0,0,0,0,0,0,0,0,0,0,0,0,0,0,0,
0,0,0,0,0,0,0,0,0,0,0,0,0,0,0,0,
0,0,0,0,0,0,0,0,0,0,0,0,0,0,0,0,
0,0,0,0,0,0,0,0,0,0,0,0,0,0,0,0,
0,0,0,0,0,0,0,0,0,0,0,0,0,0,0,0,
0,0,0,0,0,0,0,0,0,0,0,0,0,0,0,0,
0,0,0,0,0,0,0,0,0,0,0,0,0,0,0,0,
0,0,0,0,0,0,0,0,0,0,0,0,0,0,0,0,
0,0,0,0,0,0,0,0,0,0,0,0,0,0,0,0,
0,0,0,0,0,0,0,0,0,0,0,0,0,0,0,0,
0,0,0,0,0,0,0,0,0,0,0,0,0,0,0,0,
0,0,0,0,0,0,0,0,0,0,0,0,0,0,0,0,
0,0,0,0,0,0,0,0,0,0,0,0,0,0,0,0,
0,0,0,0,0,0,0,0,0,0,0,0,0,0,0,0
</chunk>
   <chunk x="32" y="16" width="16" height="16">
0,0,0,0,0,0,0,0,0,0,0,0,0,0,0,0,
0,0,0,0,0,0,0,0,0,0,0,0,0,0,0,0,
0,0,0,0,0,0,0,0,0,0,0,0,0,0,0,0,
0,0,0,0,0,0,0,0,0,0,0,0,0,0,0,0,
0,0,0,0,0,0,0,0,0,0,0,0,0,0,0,0,
0,0,0,0,0,0,0,0,0,0,0,0,0,0,0,0,
0,738,0,0,0,0,0,0,0,0,0,0,0,0,0,0,
0,0,0,0,0,0,0,0,0,0,0,0,0,0,0,0,
0,0,0,0,0,0,0,0,0,0,0,0,0,0,0,0,
0,0,0,0,0,0,0,0,0,0,0,0,0,0,0,0,
0,0,0,0,0,0,0,0,0,0,0,0,0,0,0,0,
0,0,0,0,0,0,0,0,0,0,0,0,0,0,0,0,
0,0,0,0,0,0,0,0,0,0,0,0,0,0,0,0,
0,0,0,0,0,0,0,0,0,0,0,0,0,0,0,0,
0,0,0,0,0,0,0,0,0,0,0,0,0,0,0,0,
0,739,0,0,0,0,0,0,0,0,0,0,0,0,0,0
</chunk>
   <chunk x="0" y="32" width="16" height="16">
0,0,0,0,0,0,0,0,0,0,0,0,0,0,0,0,
0,0,0,0,0,0,0,0,0,0,0,0,0,0,0,0,
0,0,0,0,0,0,0,0,0,0,0,0,0,0,92,0,
0,0,0,0,0,0,0,0,0,0,0,0,0,0,0,0,
0,0,0,0,0,0,0,0,0,0,0,0,0,0,0,0,
0,0,0,0,0,0,0,0,0,0,0,0,0,0,0,0,
0,0,0,0,0,0,0,0,0,0,0,0,0,0,0,0,
0,0,0,0,0,0,0,0,0,0,0,0,0,0,0,0,
0,0,0,0,0,0,0,0,0,0,0,0,0,0,0,0,
0,0,0,0,0,0,0,0,0,0,0,0,0,0,0,0,
0,0,0,0,0,0,0,0,0,0,0,0,0,0,0,0,
0,0,0,0,0,0,0,0,0,0,0,0,0,0,0,0,
0,0,0,0,0,0,0,0,0,0,0,0,0,0,0,0,
0,0,0,0,0,0,0,0,0,0,0,0,0,0,0,0,
0,0,0,0,0,0,0,0,0,0,0,0,0,0,0,0,
0,0,0,0,0,0,0,0,0,0,0,0,0,0,0,0
</chunk>
  </data>
 </layer>
 <layer id="12" name="Portal" width="48" height="48">
  <data encoding="csv">
   <chunk x="32" y="16" width="16" height="16">
0,0,0,0,0,0,0,0,0,0,0,0,0,0,0,0,
0,0,0,0,0,0,0,0,0,0,0,0,0,0,0,0,
0,0,0,0,0,0,0,0,0,0,0,0,0,0,0,0,
0,0,0,0,0,0,0,0,0,0,0,0,0,0,0,0,
0,0,0,0,0,0,0,0,0,0,0,0,0,0,0,0,
0,0,0,0,0,0,0,0,0,0,0,0,0,0,0,0,
0,0,0,0,0,0,0,0,0,0,0,0,0,0,0,0,
0,0,0,0,0,0,0,0,0,0,0,0,0,0,0,0,
0,0,0,0,0,0,0,0,0,0,0,0,0,0,0,0,
1136,1137,0,0,0,0,0,0,0,0,0,0,0,0,0,0,
1168,1169,0,0,0,0,0,0,0,0,0,0,0,0,0,0,
1200,1201,0,0,0,0,0,0,0,0,0,0,0,0,0,0,
1232,1233,0,0,0,0,0,0,0,0,0,0,0,0,0,0,
0,0,0,0,0,0,0,0,0,0,0,0,0,0,0,0,
0,0,0,0,0,0,0,0,0,0,0,0,0,0,0,0,
0,0,0,0,0,0,0,0,0,0,0,0,0,0,0,0
</chunk>
  </data>
 </layer>
 <layer id="4" name="Crawl" width="32" height="48">
  <data encoding="csv">
   <chunk x="0" y="0" width="16" height="16">
0,0,0,0,0,0,0,0,0,0,0,0,0,0,0,0,
0,0,0,0,0,0,0,0,0,0,0,0,0,0,0,0,
0,0,0,0,0,0,0,0,0,0,0,0,0,0,0,0,
0,0,0,0,0,0,0,0,0,0,0,0,0,0,0,0,
0,0,0,0,0,0,0,0,0,0,0,0,0,0,0,0,
0,0,0,0,0,0,0,0,0,0,0,0,0,0,0,0,
0,0,0,0,0,0,0,0,0,0,0,0,0,0,0,0,
0,0,0,0,0,0,0,0,0,0,0,0,0,0,0,0,
0,0,0,0,0,0,0,0,0,0,0,0,0,0,0,0,
0,0,0,0,0,0,0,0,0,0,0,0,0,0,0,0,
0,0,0,0,0,0,0,0,0,0,0,0,0,0,0,0,
0,0,0,0,0,0,0,0,0,0,0,0,0,0,0,0,
0,0,0,0,0,0,0,0,0,0,0,0,0,0,0,0,
0,0,0,0,0,0,0,0,0,0,0,0,0,0,0,0,
0,0,0,0,0,0,0,0,0,0,0,0,0,0,0,0,
0,0,0,0,0,0,0,0,0,0,0,0,0,0,0,831
</chunk>
   <chunk x="0" y="16" width="16" height="16">
0,0,0,0,0,0,0,0,0,0,0,0,0,0,0,831,
0,0,0,0,0,0,0,0,0,0,0,0,0,0,0,831,
0,0,0,0,0,0,0,0,0,0,0,0,0,0,0,831,
0,0,0,0,0,0,0,0,0,0,0,0,0,0,0,498,
0,0,0,0,0,0,0,0,0,0,0,0,0,0,0,0,
0,0,0,0,0,0,0,0,0,0,0,0,0,0,0,0,
0,0,0,0,0,0,0,0,0,0,0,0,0,0,0,879,
0,0,0,0,0,0,0,0,0,0,0,0,0,0,831,879,
0,0,0,0,0,0,0,0,0,0,0,0,0,0,831,879,
0,0,0,0,0,0,0,0,0,0,0,0,0,0,831,879,
0,0,0,0,0,0,0,0,0,0,0,0,0,0,831,879,
0,0,0,0,0,0,0,0,0,0,0,0,0,0,831,879,
0,0,0,0,0,0,0,0,0,0,0,0,0,0,831,879,
0,0,0,0,0,0,0,0,0,0,0,0,0,0,831,879,
0,0,0,0,0,0,0,0,0,0,0,0,0,0,831,879,
0,0,0,0,0,0,0,0,0,0,0,0,0,0,831,903
</chunk>
   <chunk x="16" y="16" width="16" height="16">
0,0,0,0,0,0,0,0,0,0,0,0,0,0,0,0,
0,0,0,0,0,0,0,0,0,0,0,0,0,0,0,0,
831,0,0,0,0,0,0,0,0,0,0,0,0,0,0,0,
831,0,0,0,0,0,0,0,0,0,0,0,0,0,498,0,
0,856,856,856,856,856,856,856,856,856,856,509,509,0,857,0,
831,0,0,498,498,498,505,498,498,498,0,0,0,0,881,0,
831,0,0,498,498,498,498,498,498,498,498,0,0,0,881,0,
831,0,0,0,498,498,498,498,498,498,0,0,0,0,881,0,
831,0,0,0,498,498,498,498,498,498,0,0,509,0,881,0,
831,0,0,0,498,498,498,498,498,498,0,0,509,0,881,0,
831,0,0,0,0,0,0,0,0,0,0,0,0,0,505,0,
831,0,0,0,0,0,0,0,0,0,0,0,0,0,505,0,
831,0,0,0,0,0,0,0,0,0,0,0,0,0,505,0,
831,0,0,0,0,0,0,0,0,0,0,0,0,0,881,0,
831,0,0,0,0,0,0,0,0,0,0,0,0,0,881,0,
0,0,0,0,0,0,0,0,0,0,0,0,0,0,905,0
</chunk>
   <chunk x="0" y="32" width="16" height="16">
0,0,0,0,0,0,0,0,0,0,0,0,0,0,831,927,
0,0,0,0,0,0,0,0,0,0,0,0,0,0,831,831,
0,0,0,0,0,0,0,0,0,0,0,0,0,0,831,831,
0,0,0,0,0,0,0,0,0,0,0,0,0,0,831,831,
0,0,0,0,0,0,0,0,0,0,0,0,0,0,0,0,
0,0,0,0,0,0,0,0,0,0,0,0,0,0,0,0,
0,0,0,0,0,0,0,0,0,0,0,0,0,0,0,0,
0,0,0,0,0,0,0,0,0,0,0,0,0,0,0,0,
0,0,0,0,0,0,0,0,0,0,0,0,0,0,0,0,
0,0,0,0,0,0,0,0,0,0,0,0,0,0,0,0,
0,0,0,0,0,0,0,0,0,0,0,0,0,0,0,0,
0,0,0,0,0,0,0,0,0,0,0,0,0,0,0,0,
0,0,0,0,0,0,0,0,0,0,0,0,0,0,0,0,
0,0,0,0,0,0,0,0,0,0,0,0,0,0,0,0,
0,0,0,0,0,0,0,0,0,0,0,0,0,0,0,0,
0,0,0,0,0,0,0,0,0,0,0,0,0,0,0,0
</chunk>
   <chunk x="16" y="32" width="16" height="16">
928,928,928,928,928,498,0,0,498,928,928,928,928,928,929,0,
0,0,0,0,0,0,0,0,0,0,0,0,0,0,0,0,
0,0,0,0,0,0,0,0,0,0,0,0,0,0,0,0,
0,0,0,0,0,0,0,0,0,0,0,0,0,0,0,0,
0,0,0,0,0,0,0,0,0,0,0,0,0,0,0,0,
0,0,0,0,0,0,0,0,0,0,0,0,0,0,0,0,
0,0,0,0,0,0,0,0,0,0,0,0,0,0,0,0,
0,0,0,0,0,0,0,0,0,0,0,0,0,0,0,0,
0,0,0,0,0,0,0,0,0,0,0,0,0,0,0,0,
0,0,0,0,0,0,0,0,0,0,0,0,0,0,0,0,
0,0,0,0,0,0,0,0,0,0,0,0,0,0,0,0,
0,0,0,0,0,0,0,0,0,0,0,0,0,0,0,0,
0,0,0,0,0,0,0,0,0,0,0,0,0,0,0,0,
0,0,0,0,0,0,0,0,0,0,0,0,0,0,0,0,
0,0,0,0,0,0,0,0,0,0,0,0,0,0,0,0,
0,0,0,0,0,0,0,0,0,0,0,0,0,0,0,0
</chunk>
  </data>
 </layer>
 <layer id="5" name="图块层 3" width="16" height="32">
  <data encoding="csv">
   <chunk x="16" y="16" width="16" height="16">
0,0,0,0,0,0,0,0,0,0,0,0,0,0,0,0,
0,0,0,0,0,0,0,0,0,0,0,0,0,0,0,0,
0,0,0,0,0,0,0,0,0,0,0,0,0,0,0,0,
0,0,0,0,0,0,0,0,0,504,0,0,0,0,0,0,
0,0,0,0,0,0,0,0,0,0,0,0,0,0,0,0,
0,0,0,0,0,0,0,0,0,0,0,0,0,0,0,0,
0,0,0,0,0,0,0,0,0,0,0,0,0,0,0,0,
0,0,0,0,0,0,0,0,0,0,0,0,0,0,0,0,
0,0,0,0,0,0,0,0,0,0,0,0,0,0,0,0,
0,0,0,0,0,0,0,0,0,0,0,0,0,0,0,0,
0,0,0,0,0,0,0,0,0,0,0,0,0,0,0,0,
0,0,0,0,0,0,0,0,0,0,0,0,0,0,0,0,
0,0,0,0,0,0,0,0,0,0,0,0,0,0,0,0,
0,0,0,0,0,0,0,0,0,0,0,0,0,0,0,0,
0,0,0,0,0,0,0,0,0,0,0,0,0,0,0,0,
0,0,0,0,0,0,0,0,0,0,0,0,0,0,0,0
</chunk>
   <chunk x="16" y="32" width="16" height="16">
794,795,0,0,0,0,0,0,0,746,747,0,794,795,0,0,
818,819,0,0,0,0,0,0,0,770,771,0,818,819,0,0,
0,0,0,0,0,0,0,0,0,0,0,0,0,0,0,0,
0,0,0,0,0,0,0,0,0,0,0,0,0,0,0,0,
0,0,0,0,0,0,0,0,0,0,0,0,0,0,0,0,
0,0,0,0,0,0,0,0,0,0,0,0,0,0,0,0,
0,0,0,0,0,0,0,0,0,0,0,0,0,0,0,0,
0,0,0,0,0,0,0,0,0,0,0,0,0,0,0,0,
0,0,0,0,0,0,0,0,0,0,0,0,0,0,0,0,
0,0,0,0,0,0,0,0,0,0,0,0,0,0,0,0,
0,0,0,0,0,0,0,0,0,0,0,0,0,0,0,0,
0,0,0,0,0,0,0,0,0,0,0,0,0,0,0,0,
0,0,0,0,0,0,0,0,0,0,0,0,0,0,0,0,
0,0,0,0,0,0,0,0,0,0,0,0,0,0,0,0,
0,0,0,0,0,0,0,0,0,0,0,0,0,0,0,0,
0,0,0,0,0,0,0,0,0,0,0,0,0,0,0,0
</chunk>
  </data>
 </layer>
 <layer id="23" name="House_1" width="48" height="48">
  <data encoding="csv">
   <chunk x="16" y="16" width="16" height="16">
0,0,0,0,0,0,0,0,0,0,0,0,0,0,0,0,
0,0,0,0,0,0,0,0,0,0,0,0,0,0,0,0,
0,0,0,0,0,0,0,0,0,0,0,0,0,0,0,0,
0,0,0,0,0,0,0,0,0,0,0,0,0,0,0,0,
0,0,0,0,0,0,0,0,0,0,0,0,0,0,0,0,
0,0,0,0,0,0,0,0,0,0,0,0,0,0,0,0,
0,0,0,0,0,0,0,0,0,0,0,0,0,0,0,0,
0,0,0,0,0,0,0,1613,1613,1613,1613,0,0,0,0,0,
0,0,1613,1613,1613,1613,1613,1613,1613,1613,1613,0,0,0,0,0,
0,0,1613,1613,1613,1613,1613,1613,1613,1613,1613,0,0,0,0,0,
0,0,1613,1613,1613,1613,1613,0,0,0,0,0,0,0,0,0,
0,0,0,0,0,0,0,0,0,0,0,0,0,0,0,0,
0,0,0,0,0,0,0,0,0,0,0,0,0,0,0,0,
0,0,0,0,0,0,0,0,0,0,0,0,0,0,0,0,
0,0,0,0,0,0,0,0,0,0,0,0,0,0,0,0,
0,0,0,0,0,0,0,0,0,0,0,0,0,0,0,0
</chunk>
  </data>
 </layer>
 <layer id="25" name="House_1.5" width="48" height="48">
  <data encoding="csv">
   <chunk x="16" y="16" width="16" height="16">
0,0,0,0,0,0,0,0,0,0,0,0,0,0,0,0,
0,0,0,0,0,0,0,0,0,0,0,0,0,0,0,0,
0,0,0,0,0,0,0,0,0,0,0,0,0,0,0,0,
0,0,0,0,0,0,0,0,0,0,0,0,0,0,0,0,
0,0,0,0,0,1409,1409,1409,1409,1409,1410,0,0,0,0,0,
0,0,0,0,0,0,1421,1421,1421,1421,1410,0,0,0,0,0,
0,0,0,0,0,0,1421,1421,1421,1421,1410,0,0,0,0,0,
0,0,0,0,0,0,0,1937,1938,0,1627,0,0,0,0,0,
0,0,1629,0,0,0,1627,1950,1951,0,1627,0,0,0,0,0,
0,0,1629,0,0,0,1627,0,0,0,1627,0,0,0,0,0,
0,0,1629,0,0,0,1627,0,0,0,0,0,0,0,0,0,
0,0,0,0,0,0,0,0,0,0,0,0,0,0,0,0,
0,0,0,0,0,0,0,0,0,0,0,0,0,0,0,0,
0,0,0,0,0,0,0,0,0,0,0,0,0,0,0,0,
0,0,0,0,0,0,0,0,0,0,0,0,0,0,0,0,
0,0,0,0,0,0,0,0,0,0,0,0,0,0,0,0
</chunk>
  </data>
 </layer>
 <layer id="22" name="House_2" width="48" height="48">
  <data encoding="csv">
   <chunk x="16" y="16" width="16" height="16">
0,0,0,0,0,0,0,0,0,0,0,0,0,0,0,0,
0,0,0,0,0,0,0,0,0,0,0,0,0,0,0,0,
0,0,0,0,0,0,0,0,0,0,0,0,0,0,0,0,
0,0,0,0,0,0,0,0,0,0,0,0,0,0,0,0,
0,0,1276,1277,1278,1279,1280,1396,0,0,0,0,0,0,0,0,
0,2039,1288,1289,1290,1291,1292,0,0,0,0,0,0,0,0,0,
0,2041,1300,1301,1302,1303,1304,0,0,0,0,0,0,0,0,0,
0,2041,1312,1313,1314,1315,1316,0,0,1937,1938,0,0,0,0,0,
0,2041,1324,1325,1325,1325,1328,0,0,1950,1951,0,0,0,0,0,
0,2041,0,0,1937,1938,0,0,0,0,0,0,0,0,0,0,
0,2041,0,0,1950,1951,0,0,0,0,2032,0,0,0,0,0,
0,2041,0,0,0,0,0,0,0,0,2041,0,0,0,0,0,
0,2049,2023,0,0,2022,2022,2022,2022,2022,2023,0,0,0,0,0,
0,0,0,0,0,0,0,0,0,0,0,0,0,0,0,0,
0,0,0,0,0,0,0,0,0,0,0,0,0,0,0,0,
0,0,0,0,0,0,0,0,0,0,0,0,0,0,0,0
</chunk>
  </data>
 </layer>
 <layer id="24" name="House_3" width="48" height="48">
  <data encoding="csv">
   <chunk x="16" y="16" width="16" height="16">
0,0,0,0,0,0,0,0,0,0,0,0,0,0,0,0,
0,0,0,0,0,0,0,0,0,0,0,0,0,0,0,0,
0,0,0,0,0,0,0,0,0,0,0,0,0,0,0,0,
0,0,0,0,0,0,0,0,0,0,0,0,0,0,0,0,
0,0,0,0,0,0,0,0,0,0,0,0,0,0,0,0,
0,0,0,0,0,0,0,0,0,0,0,0,0,0,0,0,
0,0,0,0,0,0,0,0,0,0,0,0,0,0,0,0,
0,0,0,0,0,0,0,0,0,0,0,0,0,0,0,0,
0,0,0,0,0,0,0,0,0,0,0,0,0,0,0,0,
0,0,0,1827,0,1937,1938,0,0,0,0,0,0,0,0,0,
0,0,0,1830,0,1950,1951,1735,1735,0,0,0,0,0,0,0,
0,0,0,0,1997,0,0,0,0,0,0,0,0,0,0,0,
0,0,0,0,0,0,0,0,0,0,0,0,0,0,0,0,
0,0,0,0,0,0,0,0,0,0,0,0,0,0,0,0,
0,0,0,0,0,0,0,0,0,0,0,0,0,0,0,0,
0,0,0,0,0,0,0,0,0,0,0,0,0,0,0,0
</chunk>
  </data>
 </layer>
 <layer id="26" name="House_4" width="48" height="48">
  <data encoding="csv">
   <chunk x="16" y="16" width="16" height="16">
0,0,0,0,0,0,0,0,0,0,0,0,0,0,0,0,
0,0,0,0,0,0,0,0,0,0,0,0,0,0,0,0,
0,0,0,0,0,0,0,0,0,0,0,0,0,0,0,0,
0,0,0,0,0,0,0,0,0,0,0,0,0,0,0,0,
0,0,0,0,0,0,0,0,0,0,0,0,0,0,0,0,
0,0,0,0,0,0,0,0,0,0,0,0,0,0,0,0,
0,0,0,0,0,0,0,0,0,0,0,0,0,0,0,0,
0,0,0,0,0,0,0,0,0,0,0,0,0,0,0,0,
0,0,1965,0,0,0,0,0,0,0,0,0,0,0,0,0,
0,0,1965,0,0,0,0,0,0,1983,0,0,0,0,0,0,
0,0,1988,0,1975,1990,1990,1990,1990,1993,0,0,0,0,0,0,
0,0,1996,1981,1981,1998,1998,1998,1998,2001,0,0,0,0,0,0,
0,0,0,0,0,0,0,0,0,0,0,0,0,0,0,0,
0,0,0,0,0,0,0,0,0,0,0,0,0,0,0,0,
0,0,0,0,0,0,0,0,0,0,0,0,0,0,0,0,
0,0,0,0,0,0,0,0,0,0,0,0,0,0,0,0
</chunk>
  </data>
 </layer>
 <layer id="8" name="NPC" width="48" height="48">
  <data encoding="csv">
   <chunk x="0" y="16" width="16" height="16">
0,0,0,0,0,0,0,0,0,0,0,0,0,0,1053,1054,
0,0,0,0,0,0,0,0,0,0,0,0,0,0,1077,1078,
0,0,0,0,0,0,0,0,0,0,0,0,0,0,0,0,
0,0,0,0,0,0,0,0,0,0,0,0,0,0,0,0,
0,0,0,0,0,0,0,0,0,0,0,0,0,0,0,0,
0,0,0,0,0,0,0,0,0,0,0,0,0,0,0,0,
0,0,0,0,0,0,0,0,0,0,0,0,0,0,0,0,
0,0,0,0,0,0,0,0,0,0,0,0,0,0,0,0,
0,0,0,0,0,0,0,0,0,0,0,0,0,0,0,0,
0,0,0,0,0,0,0,0,0,0,0,0,0,0,0,0,
0,0,0,0,0,0,0,0,0,0,0,0,0,0,0,0,
0,0,0,0,0,0,0,0,0,0,0,0,0,0,0,0,
0,0,0,0,0,0,0,0,0,0,0,0,0,0,0,0,
0,0,0,0,0,0,0,0,0,0,0,0,0,0,0,0,
0,0,0,0,0,0,0,0,0,0,0,0,0,0,0,0,
0,0,0,0,0,0,0,0,0,0,0,0,0,0,0,0
</chunk>
   <chunk x="16" y="16" width="16" height="16">
0,0,0,0,0,0,0,0,0,0,0,0,0,0,0,0,
0,0,0,0,0,0,0,0,0,0,0,0,0,0,0,0,
0,0,0,0,0,0,0,0,0,0,0,0,0,0,0,0,
0,0,0,0,0,0,0,0,0,0,0,0,0,0,0,0,
0,0,0,0,0,0,0,0,0,0,0,0,0,493,493,0,
0,0,0,0,0,0,0,0,0,0,0,0,0,493,493,0,
0,0,0,0,0,0,0,0,0,0,0,0,0,0,0,0,
0,0,0,0,0,0,0,0,0,0,0,0,0,0,0,0,
0,0,0,0,0,0,0,0,0,0,0,0,0,0,0,0,
0,0,0,0,0,0,0,0,0,0,0,0,0,0,0,0,
0,0,0,0,0,0,0,0,0,0,0,0,0,0,0,0,
0,0,0,0,0,0,0,0,0,0,0,0,0,0,0,0,
0,0,0,0,0,0,0,0,0,0,0,0,0,0,0,0,
0,0,0,0,0,0,0,0,0,0,0,0,0,0,0,0,
0,0,0,0,0,0,0,0,0,0,0,0,0,0,0,0,
0,0,0,0,0,0,0,0,0,0,0,0,0,0,0,0
</chunk>
  </data>
 </layer>
 <layer id="20" name="forst_-2" width="48" height="48">
  <data encoding="csv">
   <chunk x="0" y="0" width="16" height="16">
0,0,0,0,0,0,0,0,0,0,0,0,0,0,0,0,
0,0,0,0,0,0,0,0,0,0,0,0,0,0,0,0,
0,0,0,0,0,0,0,0,0,0,0,0,0,0,0,0,
0,0,0,0,0,0,0,0,0,0,0,0,0,0,0,0,
0,0,0,0,0,0,0,0,0,0,0,0,0,0,0,0,
0,0,0,0,0,0,0,0,0,0,0,0,0,0,0,0,
0,0,0,0,0,0,0,0,0,0,0,0,0,0,0,0,
0,0,0,0,0,0,0,0,0,0,0,0,0,0,0,0,
0,0,0,0,0,0,0,0,0,0,0,0,0,0,0,0,
0,0,0,0,0,0,0,0,0,0,0,0,0,0,0,0,
0,0,0,0,0,0,0,0,0,0,0,0,0,0,0,0,
0,0,0,0,0,0,0,0,0,0,0,0,646,647,648,0,
0,0,0,0,0,0,0,0,0,0,0,0,670,671,672,0,
0,0,0,0,0,0,0,0,0,0,0,647,648,695,696,0,
0,0,0,0,0,0,0,0,0,0,0,671,672,672,0,0,
0,0,0,0,0,0,0,0,0,0,0,695,696,696,0,0
</chunk>
   <chunk x="32" y="0" width="16" height="16">
0,0,0,0,0,0,0,0,0,0,0,0,0,0,0,0,
0,0,0,0,0,0,0,0,0,0,0,0,0,0,0,0,
0,0,0,0,0,0,0,0,0,0,0,0,0,0,0,0,
0,0,0,0,0,0,0,0,0,0,0,0,0,0,0,0,
0,0,0,0,0,0,0,0,0,0,0,0,0,0,0,0,
0,0,0,0,0,0,0,0,0,0,0,0,0,0,0,0,
0,0,0,0,0,0,0,0,0,0,0,0,0,0,0,0,
0,0,0,0,0,0,0,0,0,0,0,0,0,0,0,0,
0,0,0,0,0,0,0,0,0,0,0,0,0,0,0,0,
0,0,0,0,0,0,0,0,0,0,0,0,0,0,0,0,
0,0,0,0,0,0,0,0,0,0,0,0,0,0,0,0,
646,647,646,647,0,0,0,0,0,0,0,0,0,0,0,0,
670,671,670,671,0,0,0,0,0,0,0,0,0,0,0,0,
694,695,694,695,0,0,0,0,0,0,0,0,0,0,0,0,
0,0,718,719,0,0,0,0,0,0,0,0,0,0,0,0,
0,0,646,647,0,0,0,0,0,0,0,0,0,0,0,0
</chunk>
   <chunk x="0" y="16" width="16" height="16">
0,0,0,0,0,0,0,0,0,0,0,719,720,0,0,0,
0,0,0,0,0,0,0,0,0,0,0,672,0,0,0,0,
0,0,0,0,0,0,0,0,0,0,0,696,0,0,0,0,
0,0,0,0,0,0,0,0,0,0,0,648,0,0,0,0,
0,0,0,0,0,0,0,0,0,0,0,672,0,0,0,0,
0,0,0,0,0,0,0,0,0,0,0,696,0,0,0,0,
0,0,0,0,0,0,0,0,0,0,0,648,0,0,0,0,
0,0,0,0,0,0,0,0,0,0,0,672,0,0,0,0,
0,0,0,0,0,0,0,0,0,0,0,696,0,0,0,0,
0,0,0,0,0,0,0,0,0,0,0,648,0,0,0,0,
0,0,0,0,0,0,0,0,0,0,0,672,0,0,0,0,
0,0,0,0,0,0,0,0,0,0,0,696,0,0,0,0,
0,0,0,0,0,0,0,0,0,0,0,648,0,0,0,0,
0,0,0,0,0,0,0,0,0,0,0,672,0,0,0,0,
0,0,0,0,0,0,0,0,0,0,0,696,0,0,0,0,
0,0,0,0,0,0,0,0,0,0,0,648,0,0,0,0
</chunk>
   <chunk x="32" y="16" width="16" height="16">
0,0,670,671,0,0,0,0,0,0,0,0,0,0,0,0,
0,0,694,695,0,0,0,0,0,0,0,0,0,0,0,0,
0,0,718,719,0,0,0,0,0,0,0,0,0,0,0,0,
0,0,646,647,0,0,0,0,0,0,0,0,0,0,0,0,
0,0,670,671,0,0,0,0,0,0,0,0,0,0,0,0,
0,0,694,695,0,0,0,0,0,0,0,0,0,0,0,0,
0,0,718,719,0,0,0,0,0,0,0,0,0,0,0,0,
0,0,646,647,0,0,0,0,0,0,0,0,0,0,0,0,
0,0,670,671,0,0,0,0,0,0,0,0,0,0,0,0,
0,0,694,695,0,0,0,0,0,0,0,0,0,0,0,0,
0,0,718,719,0,0,0,0,0,0,0,0,0,0,0,0,
0,0,0,0,0,0,0,0,0,0,0,0,0,0,0,0,
0,0,0,0,0,0,0,0,0,0,0,0,0,0,0,0,
0,0,646,719,0,0,0,0,0,0,0,0,0,0,0,0,
0,0,670,671,0,0,0,0,0,0,0,0,0,0,0,0,
0,0,694,695,0,0,0,0,0,0,0,0,0,0,0,0
</chunk>
   <chunk x="0" y="32" width="16" height="16">
0,0,0,0,0,0,0,0,0,0,0,672,0,0,0,0,
0,0,0,0,0,0,0,0,0,0,0,696,0,0,0,0,
0,0,0,0,0,0,0,0,0,0,0,648,0,0,0,0,
0,0,0,0,0,0,0,0,0,0,0,672,0,0,0,0,
0,0,0,0,0,0,0,0,0,0,0,696,0,0,0,0,
0,0,0,0,0,0,0,0,0,0,0,647,0,647,647,647,
0,0,0,0,0,0,0,0,0,0,0,0,0,0,0,0,
0,0,0,0,0,0,0,0,0,0,0,0,0,0,0,0,
0,0,0,0,0,0,0,0,0,0,0,0,0,0,0,0,
0,0,0,0,0,0,0,0,0,0,0,0,0,0,0,0,
0,0,0,0,0,0,0,0,0,0,0,0,0,0,0,0,
0,0,0,0,0,0,0,0,0,0,0,0,0,0,0,0,
0,0,0,0,0,0,0,0,0,0,0,0,0,0,0,0,
0,0,0,0,0,0,0,0,0,0,0,0,0,0,0,0,
0,0,0,0,0,0,0,0,0,0,0,0,0,0,0,0,
0,0,0,0,0,0,0,0,0,0,0,0,0,0,0,0
</chunk>
   <chunk x="16" y="32" width="16" height="16">
0,0,0,0,0,0,0,0,0,0,0,0,0,0,0,0,
0,0,0,0,0,0,0,0,0,0,0,0,0,0,0,0,
0,0,0,0,0,0,0,0,0,0,0,0,0,0,0,0,
0,0,0,0,0,0,0,0,0,0,0,0,0,0,0,0,
0,0,0,0,0,0,0,0,0,0,0,0,0,0,0,0,
647,0,647,647,647,0,0,0,0,0,0,647,647,0,647,647,
0,0,0,0,0,0,0,0,0,0,0,0,0,0,0,0,
0,0,0,0,0,0,0,0,0,0,0,0,0,0,0,0,
0,0,0,0,0,0,0,0,0,0,0,0,0,0,0,0,
0,0,0,0,0,0,0,0,0,0,0,0,0,0,0,0,
0,0,0,0,0,0,0,0,0,0,0,0,0,0,0,0,
0,0,0,0,0,0,0,0,0,0,0,0,0,0,0,0,
0,0,0,0,0,0,0,0,0,0,0,0,0,0,0,0,
0,0,0,0,0,0,0,0,0,0,0,0,0,0,0,0,
0,0,0,0,0,0,0,0,0,0,0,0,0,0,0,0,
0,0,0,0,0,0,0,0,0,0,0,0,0,0,0,0
</chunk>
   <chunk x="32" y="32" width="16" height="16">
0,0,718,719,0,0,0,0,0,0,0,0,0,0,0,0,
646,647,648,647,0,0,0,0,0,0,0,0,0,0,0,0,
670,671,672,671,0,0,0,0,0,0,0,0,0,0,0,0,
694,695,696,695,0,0,0,0,0,0,0,0,0,0,0,0,
0,0,718,719,0,0,0,0,0,0,0,0,0,0,0,0,
647,647,0,647,0,0,0,0,0,0,0,0,0,0,0,0,
0,0,0,0,0,0,0,0,0,0,0,0,0,0,0,0,
0,0,0,0,0,0,0,0,0,0,0,0,0,0,0,0,
0,0,0,0,0,0,0,0,0,0,0,0,0,0,0,0,
0,0,0,0,0,0,0,0,0,0,0,0,0,0,0,0,
0,0,0,0,0,0,0,0,0,0,0,0,0,0,0,0,
0,0,0,0,0,0,0,0,0,0,0,0,0,0,0,0,
0,0,0,0,0,0,0,0,0,0,0,0,0,0,0,0,
0,0,0,0,0,0,0,0,0,0,0,0,0,0,0,0,
0,0,0,0,0,0,0,0,0,0,0,0,0,0,0,0,
0,0,0,0,0,0,0,0,0,0,0,0,0,0,0,0
</chunk>
  </data>
 </layer>
 <layer id="19" name="forst_-1" width="48" height="48">
  <data encoding="csv">
   <chunk x="0" y="0" width="16" height="16">
0,0,0,0,0,0,0,0,0,0,0,0,0,0,0,0,
0,0,0,0,0,0,0,0,0,0,0,0,0,0,0,0,
0,0,0,0,0,0,0,0,0,0,0,0,0,0,0,0,
0,0,0,0,0,0,0,0,0,0,0,0,0,0,0,0,
0,0,0,0,0,0,0,0,0,0,0,0,0,0,0,0,
0,0,0,0,0,0,0,0,0,0,0,0,0,0,0,0,
0,0,0,0,0,0,0,0,0,0,0,0,0,0,0,0,
0,0,0,0,0,0,0,0,0,0,0,0,0,0,0,0,
0,0,0,0,0,0,0,0,0,0,0,0,0,0,0,0,
0,0,0,0,0,0,0,0,0,0,0,0,0,0,0,0,
0,0,0,0,0,0,0,0,0,0,0,0,0,0,0,0,
0,0,0,0,0,0,0,0,0,0,0,646,647,648,0,0,
0,0,0,0,0,0,0,0,0,0,0,670,671,672,0,0,
0,0,0,0,0,0,0,0,0,0,0,694,695,696,0,0,
0,0,0,0,0,0,0,0,0,0,0,0,0,0,0,0,
0,0,0,0,0,0,0,0,0,0,0,0,0,0,0,0
</chunk>
   <chunk x="0" y="16" width="16" height="16">
0,0,0,0,0,0,0,0,0,0,0,0,0,0,0,0,
0,0,0,0,0,0,0,0,0,0,0,647,648,0,0,0,
0,0,0,0,0,0,0,0,0,0,0,671,672,0,0,0,
0,0,0,0,0,0,0,0,0,0,0,695,696,0,0,0,
0,0,0,0,0,0,0,0,0,0,0,647,648,0,0,0,
0,0,0,0,0,0,0,0,0,0,0,671,672,0,0,0,
0,0,0,0,0,0,0,0,0,0,0,695,696,0,0,0,
0,0,0,0,0,0,0,0,0,0,0,647,648,0,0,0,
0,0,0,0,0,0,0,0,0,0,0,671,672,0,0,0,
0,0,0,0,0,0,0,0,0,0,0,695,696,0,0,0,
0,0,0,0,0,0,0,0,0,0,0,647,648,0,0,0,
0,0,0,0,0,0,0,0,0,0,0,671,672,0,0,0,
0,0,0,0,0,0,0,0,0,0,0,695,696,0,0,0,
0,0,0,0,0,0,0,0,0,0,0,647,648,0,0,0,
0,0,0,0,0,0,0,0,0,0,0,671,672,0,0,0,
0,0,0,0,0,0,0,0,0,0,0,695,696,0,0,0
</chunk>
   <chunk x="0" y="32" width="16" height="16">
0,0,0,0,0,0,0,0,0,0,0,647,648,0,0,0,
0,0,0,0,0,0,0,0,0,0,0,671,672,0,0,0,
0,0,0,0,0,0,0,0,0,0,0,695,696,0,0,0,
0,0,0,0,0,0,0,0,0,0,0,647,648,0,0,0,
0,0,0,0,0,0,0,0,0,0,0,671,672,0,0,0,
0,0,0,0,0,0,0,0,0,0,0,695,696,0,0,0,
0,0,0,0,0,0,0,0,0,0,0,0,0,0,0,0,
0,0,0,0,0,0,0,0,0,0,0,0,0,0,0,0,
0,0,0,0,0,0,0,0,0,0,0,0,0,0,0,0,
0,0,0,0,0,0,0,0,0,0,0,0,0,0,0,0,
0,0,0,0,0,0,0,0,0,0,0,0,0,0,0,0,
0,0,0,0,0,0,0,0,0,0,0,0,0,0,0,0,
0,0,0,0,0,0,0,0,0,0,0,0,0,0,0,0,
0,0,0,0,0,0,0,0,0,0,0,0,0,0,0,0,
0,0,0,0,0,0,0,0,0,0,0,0,0,0,0,0,
0,0,0,0,0,0,0,0,0,0,0,0,0,0,0,0
</chunk>
   <chunk x="16" y="32" width="16" height="16">
0,0,0,0,0,0,0,0,0,0,0,0,0,0,0,0,
0,0,0,0,0,0,0,0,0,0,0,0,0,0,0,646,
0,0,0,0,0,0,0,0,0,0,0,0,0,0,0,670,
0,0,0,0,0,0,0,0,0,0,0,0,0,0,0,694,
0,0,0,0,0,0,0,0,0,0,0,0,0,0,0,0,
0,0,0,0,0,0,0,0,0,0,0,0,0,0,0,0,
0,0,0,0,0,0,0,0,0,0,0,0,0,0,0,0,
0,0,0,0,0,0,0,0,0,0,0,0,0,0,0,0,
0,0,0,0,0,0,0,0,0,0,0,0,0,0,0,0,
0,0,0,0,0,0,0,0,0,0,0,0,0,0,0,0,
0,0,0,0,0,0,0,0,0,0,0,0,0,0,0,0,
0,0,0,0,0,0,0,0,0,0,0,0,0,0,0,0,
0,0,0,0,0,0,0,0,0,0,0,0,0,0,0,0,
0,0,0,0,0,0,0,0,0,0,0,0,0,0,0,0,
0,0,0,0,0,0,0,0,0,0,0,0,0,0,0,0,
0,0,0,0,0,0,0,0,0,0,0,0,0,0,0,0
</chunk>
   <chunk x="32" y="32" width="16" height="16">
0,0,0,0,0,0,0,0,0,0,0,0,0,0,0,0,
647,648,0,0,0,0,0,0,0,0,0,0,0,0,0,0,
671,672,0,0,0,0,0,0,0,0,0,0,0,0,0,0,
695,696,0,0,0,0,0,0,0,0,0,0,0,0,0,0,
0,0,0,0,0,0,0,0,0,0,0,0,0,0,0,0,
0,0,0,0,0,0,0,0,0,0,0,0,0,0,0,0,
0,0,0,0,0,0,0,0,0,0,0,0,0,0,0,0,
0,0,0,0,0,0,0,0,0,0,0,0,0,0,0,0,
0,0,0,0,0,0,0,0,0,0,0,0,0,0,0,0,
0,0,0,0,0,0,0,0,0,0,0,0,0,0,0,0,
0,0,0,0,0,0,0,0,0,0,0,0,0,0,0,0,
0,0,0,0,0,0,0,0,0,0,0,0,0,0,0,0,
0,0,0,0,0,0,0,0,0,0,0,0,0,0,0,0,
0,0,0,0,0,0,0,0,0,0,0,0,0,0,0,0,
0,0,0,0,0,0,0,0,0,0,0,0,0,0,0,0,
0,0,0,0,0,0,0,0,0,0,0,0,0,0,0,0
</chunk>
  </data>
 </layer>
 <layer id="14" name="forest" width="48" height="48">
  <data encoding="csv">
   <chunk x="0" y="0" width="16" height="16">
0,0,0,0,0,0,0,0,0,0,0,0,0,0,0,0,
0,0,0,0,0,0,0,0,0,0,0,0,0,0,0,0,
0,0,0,0,0,0,0,0,0,0,0,0,0,0,0,0,
0,0,0,0,0,0,0,0,0,0,0,0,0,0,0,0,
0,0,0,0,0,0,0,0,0,0,0,0,0,0,0,0,
0,0,0,0,0,0,0,0,0,0,0,0,0,0,0,0,
0,0,0,0,0,0,0,0,0,0,0,0,0,0,0,0,
0,0,0,0,0,0,0,0,0,0,0,0,0,0,0,0,
0,0,0,0,0,0,0,0,0,0,0,0,0,0,0,0,
0,0,0,0,0,0,0,0,0,0,0,0,0,0,0,0,
0,0,0,0,0,0,0,0,0,0,0,0,0,0,0,0,
0,0,0,0,0,0,0,0,0,0,0,0,0,646,647,648,
0,0,0,0,0,0,0,0,0,0,0,0,0,670,671,672,
0,0,0,0,0,0,0,0,0,0,0,0,0,694,695,696,
0,0,0,0,0,0,0,0,0,0,0,646,647,718,719,720,
0,0,0,0,0,0,0,0,0,0,0,670,671,672,0,0
</chunk>
   <chunk x="16" y="0" width="16" height="16">
0,0,0,0,0,0,0,0,0,0,0,0,0,0,0,0,
0,0,0,0,0,0,0,0,0,0,0,0,0,0,0,0,
0,0,0,0,0,0,0,0,0,0,0,0,0,0,0,0,
0,0,0,0,0,0,0,0,0,0,0,0,0,0,0,0,
0,0,0,0,0,0,0,0,0,0,0,0,0,0,0,0,
0,0,0,0,0,0,0,0,0,0,0,0,0,0,0,0,
0,0,0,0,0,0,0,0,0,0,0,0,0,0,0,0,
0,0,0,0,0,0,0,0,0,0,0,0,0,0,0,0,
0,0,0,0,0,0,0,0,0,0,0,0,0,0,0,0,
0,0,0,0,0,0,0,0,0,0,0,0,0,0,0,0,
0,0,0,0,0,0,0,0,0,0,0,0,0,0,0,0,
646,647,648,646,647,648,646,647,648,646,647,648,646,647,648,646,
670,671,672,670,671,672,670,671,672,670,671,672,670,671,672,670,
694,695,696,694,695,696,694,695,696,694,695,696,694,695,696,694,
718,719,720,718,719,720,718,719,720,718,719,720,718,719,720,718,
0,0,0,0,0,0,0,0,0,0,0,0,0,0,0,0
</chunk>
   <chunk x="32" y="0" width="16" height="16">
0,0,0,0,0,0,0,0,0,0,0,0,0,0,0,0,
0,0,0,0,0,0,0,0,0,0,0,0,0,0,0,0,
0,0,0,0,0,0,0,0,0,0,0,0,0,0,0,0,
0,0,0,0,0,0,0,0,0,0,0,0,0,0,0,0,
0,0,0,0,0,0,0,0,0,0,0,0,0,0,0,0,
0,0,0,0,0,0,0,0,0,0,0,0,0,0,0,0,
0,0,0,0,0,0,0,0,0,0,0,0,0,0,0,0,
0,0,0,0,0,0,0,0,0,0,0,0,0,0,0,0,
0,0,0,0,0,0,0,0,0,0,0,0,0,0,0,0,
0,0,0,0,0,0,0,0,0,0,0,0,0,0,0,0,
0,0,0,0,0,0,0,0,0,0,0,0,0,0,0,0,
647,646,647,648,0,0,0,0,0,0,0,0,0,0,0,0,
671,670,671,672,0,0,0,0,0,0,0,0,0,0,0,0,
695,694,695,696,0,0,0,0,0,0,0,0,0,0,0,0,
719,720,0,0,0,0,0,0,0,0,0,0,0,0,0,0,
0,646,647,648,0,0,0,0,0,0,0,0,0,0,0,0
</chunk>
   <chunk x="0" y="16" width="16" height="16">
0,0,0,0,0,0,0,0,0,0,0,694,695,696,0,0,
0,0,0,0,0,0,0,0,0,0,0,718,719,720,0,0,
0,0,0,0,0,0,0,0,0,0,0,646,647,648,0,0,
0,0,0,0,0,0,0,0,0,0,0,670,671,672,0,0,
0,0,0,0,0,0,0,0,0,0,0,694,695,696,0,0,
0,0,0,0,0,0,0,0,0,0,0,718,719,720,0,0,
0,0,0,0,0,0,0,0,0,0,0,646,647,648,0,0,
0,0,0,0,0,0,0,0,0,0,0,670,671,672,0,0,
0,0,0,0,0,0,0,0,0,0,0,694,695,696,0,0,
0,0,0,0,0,0,0,0,0,0,0,718,719,720,0,0,
0,0,0,0,0,0,0,0,0,0,0,646,647,648,0,0,
0,0,0,0,0,0,0,0,0,0,0,670,671,672,0,0,
0,0,0,0,0,0,0,0,0,0,0,694,695,696,0,0,
0,0,0,0,0,0,0,0,0,0,0,718,719,720,0,0,
0,0,0,0,0,0,0,0,0,0,0,646,647,648,0,0,
0,0,0,0,0,0,0,0,0,0,0,670,671,672,0,0
</chunk>
   <chunk x="32" y="16" width="16" height="16">
0,670,671,672,0,0,0,0,0,0,0,0,0,0,0,0,
0,694,695,696,0,0,0,0,0,0,0,0,0,0,0,0,
0,718,719,720,0,0,0,0,0,0,0,0,0,0,0,0,
0,646,647,648,0,0,0,0,0,0,0,0,0,0,0,0,
0,670,671,672,0,0,0,0,0,0,0,0,0,0,0,0,
0,694,695,696,0,0,0,0,0,0,0,0,0,0,0,0,
0,718,719,720,0,0,0,0,0,0,0,0,0,0,0,0,
0,0,0,0,0,0,0,0,0,0,0,0,0,0,0,0,
0,0,0,0,0,0,0,0,0,0,0,0,0,0,0,0,
0,646,647,648,0,0,0,0,0,0,0,0,0,0,0,0,
0,670,671,672,0,0,0,0,0,0,0,0,0,0,0,0,
0,694,695,696,0,0,0,0,0,0,0,0,0,0,0,0,
0,718,719,720,0,0,0,0,0,0,0,0,0,0,0,0,
0,670,671,672,0,0,0,0,0,0,0,0,0,0,0,0,
0,694,695,696,0,0,0,0,0,0,0,0,0,0,0,0,
0,718,719,720,0,0,0,0,0,0,0,0,0,0,0,0
</chunk>
   <chunk x="0" y="32" width="16" height="16">
0,0,0,0,0,0,0,0,0,0,0,694,695,696,0,0,
0,0,0,0,0,0,0,0,0,0,0,718,719,720,0,0,
0,0,0,0,0,0,0,0,0,0,0,0,646,647,648,646,
0,0,0,0,0,0,0,0,0,0,0,0,670,671,672,670,
0,0,0,0,0,0,0,0,0,0,0,0,694,695,696,694,
0,0,0,0,0,0,0,0,0,0,0,0,718,719,720,718,
0,0,0,0,0,0,0,0,0,0,0,0,0,0,0,0,
0,0,0,0,0,0,0,0,0,0,0,0,0,0,0,0,
0,0,0,0,0,0,0,0,0,0,0,0,0,0,0,0,
0,0,0,0,0,0,0,0,0,0,0,0,0,0,0,0,
0,0,0,0,0,0,0,0,0,0,0,0,0,0,0,0,
0,0,0,0,0,0,0,0,0,0,0,0,0,0,0,0,
0,0,0,0,0,0,0,0,0,0,0,0,0,0,0,0,
0,0,0,0,0,0,0,0,0,0,0,0,0,0,0,0,
0,0,0,0,0,0,0,0,0,0,0,0,0,0,0,0,
0,0,0,0,0,0,0,0,0,0,0,0,0,0,0,0
</chunk>
   <chunk x="16" y="32" width="16" height="16">
0,0,0,0,0,0,0,0,0,0,0,0,0,0,0,0,
0,0,0,0,0,0,0,0,0,0,0,0,0,0,0,0,
647,648,646,647,648,0,0,0,0,0,646,647,648,646,647,648,
671,672,670,671,672,0,0,0,0,0,670,671,672,670,671,672,
695,696,694,695,696,0,0,0,0,0,694,695,696,694,695,696,
719,720,718,719,720,0,0,0,0,0,718,719,720,718,719,720,
0,0,0,0,0,0,0,0,0,0,0,0,0,0,0,0,
0,0,0,0,0,0,0,0,0,0,0,0,0,0,0,0,
0,0,0,0,0,0,0,0,0,0,0,0,0,0,0,0,
0,0,0,0,0,0,0,0,0,0,0,0,0,0,0,0,
0,0,0,0,0,0,0,0,0,0,0,0,0,0,0,0,
0,0,0,0,0,0,0,0,0,0,0,0,0,0,0,0,
0,0,0,0,0,0,0,0,0,0,0,0,0,0,0,0,
0,0,0,0,0,0,0,0,0,0,0,0,0,0,0,0,
0,0,0,0,0,0,0,0,0,0,0,0,0,0,0,0,
0,0,0,0,0,0,0,0,0,0,0,0,0,0,0,0
</chunk>
   <chunk x="32" y="32" width="16" height="16">
0,0,0,0,0,0,0,0,0,0,0,0,0,0,0,0,
0,0,0,0,0,0,0,0,0,0,0,0,0,0,0,0,
646,647,648,0,0,0,0,0,0,0,0,0,0,0,0,0,
670,671,672,0,0,0,0,0,0,0,0,0,0,0,0,0,
694,695,696,0,0,0,0,0,0,0,0,0,0,0,0,0,
718,719,720,0,0,0,0,0,0,0,0,0,0,0,0,0,
0,0,0,0,0,0,0,0,0,0,0,0,0,0,0,0,
0,0,0,0,0,0,0,0,0,0,0,0,0,0,0,0,
0,0,0,0,0,0,0,0,0,0,0,0,0,0,0,0,
0,0,0,0,0,0,0,0,0,0,0,0,0,0,0,0,
0,0,0,0,0,0,0,0,0,0,0,0,0,0,0,0,
0,0,0,0,0,0,0,0,0,0,0,0,0,0,0,0,
0,0,0,0,0,0,0,0,0,0,0,0,0,0,0,0,
0,0,0,0,0,0,0,0,0,0,0,0,0,0,0,0,
0,0,0,0,0,0,0,0,0,0,0,0,0,0,0,0,
0,0,0,0,0,0,0,0,0,0,0,0,0,0,0,0
</chunk>
  </data>
 </layer>
 <layer id="15" name="forest_2" width="48" height="48">
  <data encoding="csv">
   <chunk x="0" y="0" width="16" height="16">
0,0,0,0,0,0,0,0,0,0,0,0,0,0,0,0,
0,0,0,0,0,0,0,0,0,0,0,0,0,0,0,0,
0,0,0,0,0,0,0,0,0,0,0,0,0,0,0,0,
0,0,0,0,0,0,0,0,0,0,0,0,0,0,0,0,
0,0,0,0,0,0,0,0,0,0,0,0,0,0,0,0,
0,0,0,0,0,0,0,0,0,0,0,0,0,0,0,0,
0,0,0,0,0,0,0,0,0,0,0,0,0,0,0,0,
0,0,0,0,0,0,0,0,0,0,0,0,0,0,0,0,
0,0,0,0,0,0,0,0,0,0,0,0,0,0,0,0,
0,0,0,0,0,0,0,0,0,0,0,0,0,0,0,0,
0,0,0,0,0,0,0,0,0,0,0,0,0,0,0,0,
0,0,0,0,0,0,0,0,0,0,0,0,0,0,0,646,
0,0,0,0,0,0,0,0,0,0,0,0,646,647,648,670,
0,0,0,0,0,0,0,0,0,0,0,0,670,671,672,694,
0,0,0,0,0,0,0,0,0,0,0,0,694,695,696,718,
0,0,0,0,0,0,0,0,0,0,0,0,718,719,720,0
</chunk>
   <chunk x="16" y="0" width="16" height="16">
0,0,0,0,0,0,0,0,0,0,0,0,0,0,0,0,
0,0,0,0,0,0,0,0,0,0,0,0,0,0,0,0,
0,0,0,0,0,0,0,0,0,0,0,0,0,0,0,0,
0,0,0,0,0,0,0,0,0,0,0,0,0,0,0,0,
0,0,0,0,0,0,0,0,0,0,0,0,0,0,0,0,
0,0,0,0,0,0,0,0,0,0,0,0,0,0,0,0,
0,0,0,0,0,0,0,0,0,0,0,0,0,0,0,0,
0,0,0,0,0,0,0,0,0,0,0,0,0,0,0,0,
0,0,0,0,0,0,0,0,0,0,0,0,0,0,0,0,
0,0,0,0,0,0,0,0,0,0,0,0,0,0,0,0,
0,0,0,0,0,0,0,0,0,0,0,0,0,0,0,0,
647,648,646,647,646,647,648,646,647,648,0,646,647,648,646,647,
671,672,670,671,670,671,672,670,671,672,0,670,671,672,670,671,
695,696,694,695,694,695,696,694,695,696,0,694,695,696,694,695,
719,720,718,719,718,719,720,718,719,720,0,718,719,720,718,719,
0,0,0,0,0,0,0,0,0,0,0,0,0,0,0,0
</chunk>
   <chunk x="32" y="0" width="16" height="16">
0,0,0,0,0,0,0,0,0,0,0,0,0,0,0,0,
0,0,0,0,0,0,0,0,0,0,0,0,0,0,0,0,
0,0,0,0,0,0,0,0,0,0,0,0,0,0,0,0,
0,0,0,0,0,0,0,0,0,0,0,0,0,0,0,0,
0,0,0,0,0,0,0,0,0,0,0,0,0,0,0,0,
0,0,0,0,0,0,0,0,0,0,0,0,0,0,0,0,
0,0,0,0,0,0,0,0,0,0,0,0,0,0,0,0,
0,0,0,0,0,0,0,0,0,0,0,0,0,0,0,0,
0,0,0,0,0,0,0,0,0,0,0,0,0,0,0,0,
0,0,0,0,0,0,0,0,0,0,0,0,0,0,0,0,
0,0,0,0,0,0,0,0,0,0,0,0,0,0,0,0,
648,0,0,0,0,0,0,0,0,0,0,0,0,0,0,0,
646,647,648,0,0,0,0,0,0,0,0,0,0,0,0,0,
670,671,672,0,0,0,0,0,0,0,0,0,0,0,0,0,
694,695,696,0,0,0,0,0,0,0,0,0,0,0,0,0,
718,719,720,0,0,0,0,0,0,0,0,0,0,0,0,0
</chunk>
   <chunk x="0" y="16" width="16" height="16">
0,0,0,0,0,0,0,0,0,0,0,646,647,648,0,0,
0,0,0,0,0,0,0,0,0,0,0,670,671,672,0,0,
0,0,0,0,0,0,0,0,0,0,0,694,695,696,0,0,
0,0,0,0,0,0,0,0,0,0,0,718,719,720,0,0,
0,0,0,0,0,0,0,0,0,0,0,646,647,648,0,0,
0,0,0,0,0,0,0,0,0,0,0,670,671,672,0,0,
0,0,0,0,0,0,0,0,0,0,0,694,695,696,0,0,
0,0,0,0,0,0,0,0,0,0,0,718,719,720,0,0,
0,0,0,0,0,0,0,0,0,0,0,646,647,648,0,0,
0,0,0,0,0,0,0,0,0,0,0,670,671,672,0,0,
0,0,0,0,0,0,0,0,0,0,0,694,695,696,0,0,
0,0,0,0,0,0,0,0,0,0,0,718,719,720,0,0,
0,0,0,0,0,0,0,0,0,0,0,646,647,648,0,0,
0,0,0,0,0,0,0,0,0,0,0,670,671,672,0,0,
0,0,0,0,0,0,0,0,0,0,0,694,695,696,0,0,
0,0,0,0,0,0,0,0,0,0,0,718,719,720,0,0
</chunk>
   <chunk x="32" y="16" width="16" height="16">
0,0,0,0,0,0,0,0,0,0,0,0,0,0,0,0,
0,646,647,648,0,0,0,0,0,0,0,0,0,0,0,0,
0,670,671,672,0,0,0,0,0,0,0,0,0,0,0,0,
0,694,695,696,0,0,0,0,0,0,0,0,0,0,0,0,
0,718,719,720,0,0,0,0,0,0,0,0,0,0,0,0,
0,646,647,648,0,0,0,0,0,0,0,0,0,0,0,0,
0,670,671,672,0,0,0,0,0,0,0,0,0,0,0,0,
0,694,695,696,0,0,0,0,0,0,0,0,0,0,0,0,
0,718,719,720,0,0,0,0,0,0,0,0,0,0,0,0,
0,0,0,0,0,0,0,0,0,0,0,0,0,0,0,0,
0,0,0,0,0,0,0,0,0,0,0,0,0,0,0,0,
0,0,0,0,0,0,0,0,0,0,0,0,0,0,0,0,
0,0,0,0,0,0,0,0,0,0,0,0,0,0,0,0,
0,0,0,0,0,0,0,0,0,0,0,0,0,0,0,0,
0,646,647,648,0,0,0,0,0,0,0,0,0,0,0,0,
0,670,671,672,0,0,0,0,0,0,0,0,0,0,0,0
</chunk>
   <chunk x="0" y="32" width="16" height="16">
0,0,0,0,0,0,0,0,0,0,0,646,647,648,0,0,
0,0,0,0,0,0,0,0,0,0,0,670,671,672,0,0,
0,0,0,0,0,0,0,0,0,0,0,694,695,696,647,648,
0,0,0,0,0,0,0,0,0,0,0,718,719,720,671,672,
0,0,0,0,0,0,0,0,0,0,0,0,0,694,695,696,
0,0,0,0,0,0,0,0,0,0,0,0,0,718,719,720,
0,0,0,0,0,0,0,0,0,0,0,0,0,0,0,0,
0,0,0,0,0,0,0,0,0,0,0,0,0,0,0,0,
0,0,0,0,0,0,0,0,0,0,0,0,0,0,0,0,
0,0,0,0,0,0,0,0,0,0,0,0,0,0,0,0,
0,0,0,0,0,0,0,0,0,0,0,0,0,0,0,0,
0,0,0,0,0,0,0,0,0,0,0,0,0,0,0,0,
0,0,0,0,0,0,0,0,0,0,0,0,0,0,0,0,
0,0,0,0,0,0,0,0,0,0,0,0,0,0,0,0,
0,0,0,0,0,0,0,0,0,0,0,0,0,0,0,0,
0,0,0,0,0,0,0,0,0,0,0,0,0,0,0,0
</chunk>
   <chunk x="16" y="32" width="16" height="16">
0,0,0,0,0,0,0,0,0,0,0,0,0,0,0,0,
0,0,0,0,0,0,0,0,0,0,0,0,0,0,0,0,
646,647,648,646,647,648,0,0,0,646,647,648,646,647,648,647,
670,671,672,670,671,672,0,0,0,670,671,672,670,671,672,671,
694,695,696,694,695,696,0,0,0,694,695,696,694,695,696,695,
718,719,720,718,719,720,0,0,0,718,719,720,718,719,720,719,
0,0,0,0,0,0,0,0,0,0,0,0,0,0,0,0,
0,0,0,0,0,0,0,0,0,0,0,0,0,0,0,0,
0,0,0,0,0,0,0,0,0,0,0,0,0,0,0,0,
0,0,0,0,0,0,0,0,0,0,0,0,0,0,0,0,
0,0,0,0,0,0,0,0,0,0,0,0,0,0,0,0,
0,0,0,0,0,0,0,0,0,0,0,0,0,0,0,0,
0,0,0,0,0,0,0,0,0,0,0,0,0,0,0,0,
0,0,0,0,0,0,0,0,0,0,0,0,0,0,0,0,
0,0,0,0,0,0,0,0,0,0,0,0,0,0,0,0,
0,0,0,0,0,0,0,0,0,0,0,0,0,0,0,0
</chunk>
   <chunk x="32" y="32" width="16" height="16">
0,694,695,696,0,0,0,0,0,0,0,0,0,0,0,0,
0,718,719,720,0,0,0,0,0,0,0,0,0,0,0,0,
648,0,0,0,0,0,0,0,0,0,0,0,0,0,0,0,
672,0,0,0,0,0,0,0,0,0,0,0,0,0,0,0,
696,0,0,0,0,0,0,0,0,0,0,0,0,0,0,0,
720,0,0,0,0,0,0,0,0,0,0,0,0,0,0,0,
0,0,0,0,0,0,0,0,0,0,0,0,0,0,0,0,
0,0,0,0,0,0,0,0,0,0,0,0,0,0,0,0,
0,0,0,0,0,0,0,0,0,0,0,0,0,0,0,0,
0,0,0,0,0,0,0,0,0,0,0,0,0,0,0,0,
0,0,0,0,0,0,0,0,0,0,0,0,0,0,0,0,
0,0,0,0,0,0,0,0,0,0,0,0,0,0,0,0,
0,0,0,0,0,0,0,0,0,0,0,0,0,0,0,0,
0,0,0,0,0,0,0,0,0,0,0,0,0,0,0,0,
0,0,0,0,0,0,0,0,0,0,0,0,0,0,0,0,
0,0,0,0,0,0,0,0,0,0,0,0,0,0,0,0
</chunk>
  </data>
 </layer>
 <layer id="16" name="forest_3" width="48" height="48">
  <data encoding="csv">
   <chunk x="0" y="0" width="16" height="16">
0,0,0,0,0,0,0,0,0,0,0,0,0,0,0,0,
0,0,0,0,0,0,0,0,0,0,0,0,0,0,0,0,
0,0,0,0,0,0,0,0,0,0,0,0,0,0,0,0,
0,0,0,0,0,0,0,0,0,0,0,0,0,0,0,0,
0,0,0,0,0,0,0,0,0,0,0,0,0,0,0,0,
0,0,0,0,0,0,0,0,0,0,0,0,0,0,0,0,
0,0,0,0,0,0,0,0,0,0,0,0,0,0,0,0,
0,0,0,0,0,0,0,0,0,0,0,0,0,0,0,0,
0,0,0,0,0,0,0,0,0,0,0,0,0,0,0,0,
0,0,0,0,0,0,0,0,0,0,0,0,0,0,0,0,
0,0,0,0,0,0,0,0,0,0,0,0,0,0,0,0,
0,0,0,0,0,0,0,0,0,0,0,0,0,0,646,647,
0,0,0,0,0,0,0,0,0,0,0,0,0,0,670,671,
0,0,0,0,0,0,0,0,0,0,0,0,0,0,694,695,
0,0,0,0,0,0,0,0,0,0,0,0,0,0,718,719,
0,0,0,0,0,0,0,0,0,0,0,0,0,0,0,0
</chunk>
   <chunk x="16" y="0" width="16" height="16">
0,0,0,0,0,0,0,0,0,0,0,0,0,0,0,0,
0,0,0,0,0,0,0,0,0,0,0,0,0,0,0,0,
0,0,0,0,0,0,0,0,0,0,0,0,0,0,0,0,
0,0,0,0,0,0,0,0,0,0,0,0,0,0,0,0,
0,0,0,0,0,0,0,0,0,0,0,0,0,0,0,0,
0,0,0,0,0,0,0,0,0,0,0,0,0,0,0,0,
0,0,0,0,0,0,0,0,0,0,0,0,0,0,0,0,
0,0,0,0,0,0,0,0,0,0,0,0,0,0,0,0,
0,0,0,0,0,0,0,0,0,0,0,0,0,0,0,0,
0,0,0,0,0,0,0,0,0,0,0,0,0,0,0,0,
0,0,0,0,0,0,0,0,0,0,0,0,0,0,0,0,
648,646,647,648,0,646,647,648,646,647,646,647,648,646,647,648,
672,670,671,672,0,670,671,672,670,671,670,671,672,670,671,672,
696,694,695,696,0,694,695,696,694,695,694,695,696,694,695,696,
720,718,719,720,0,718,719,720,718,719,718,719,720,718,719,720,
0,0,0,0,0,0,0,0,0,0,0,0,0,0,0,0
</chunk>
   <chunk x="32" y="0" width="16" height="16">
0,0,0,0,0,0,0,0,0,0,0,0,0,0,0,0,
0,0,0,0,0,0,0,0,0,0,0,0,0,0,0,0,
0,0,0,0,0,0,0,0,0,0,0,0,0,0,0,0,
0,0,0,0,0,0,0,0,0,0,0,0,0,0,0,0,
0,0,0,0,0,0,0,0,0,0,0,0,0,0,0,0,
0,0,0,0,0,0,0,0,0,0,0,0,0,0,0,0,
0,0,0,0,0,0,0,0,0,0,0,0,0,0,0,0,
0,0,0,0,0,0,0,0,0,0,0,0,0,0,0,0,
0,0,0,0,0,0,0,0,0,0,0,0,0,0,0,0,
0,0,0,0,0,0,0,0,0,0,0,0,0,0,0,0,
0,0,0,0,0,0,0,0,0,0,0,0,0,0,0,0,
0,0,0,0,0,0,0,0,0,0,0,0,0,0,0,0,
0,0,0,0,0,0,0,0,0,0,0,0,0,0,0,0,
0,646,647,648,0,0,0,0,0,0,0,0,0,0,0,0,
0,670,671,672,0,0,0,0,0,0,0,0,0,0,0,0,
0,694,695,696,0,0,0,0,0,0,0,0,0,0,0,0
</chunk>
   <chunk x="0" y="16" width="16" height="16">
0,0,0,0,0,0,0,0,0,0,0,0,0,0,0,0,
0,0,0,0,0,0,0,0,0,0,0,646,647,648,0,0,
0,0,0,0,0,0,0,0,0,0,0,670,671,672,0,0,
0,0,0,0,0,0,0,0,0,0,0,694,695,696,0,0,
0,0,0,0,0,0,0,0,0,0,0,718,719,720,0,0,
0,0,0,0,0,0,0,0,0,0,0,646,647,648,0,0,
0,0,0,0,0,0,0,0,0,0,0,670,671,672,0,0,
0,0,0,0,0,0,0,0,0,0,0,694,695,696,0,0,
0,0,0,0,0,0,0,0,0,0,0,718,719,720,0,0,
0,0,0,0,0,0,0,0,0,0,0,0,0,0,0,0,
0,0,0,0,0,0,0,0,0,0,0,0,0,0,0,0,
0,0,0,0,0,0,0,0,0,0,0,0,0,0,0,0,
0,0,0,0,0,0,0,0,0,0,0,0,0,0,0,0,
0,0,0,0,0,0,0,0,0,0,0,646,647,648,0,0,
0,0,0,0,0,0,0,0,0,0,0,670,671,672,0,0,
0,0,0,0,0,0,0,0,0,0,0,694,695,696,0,0
</chunk>
   <chunk x="32" y="16" width="16" height="16">
0,718,719,720,0,0,0,0,0,0,0,0,0,0,0,0,
0,0,0,0,0,0,0,0,0,0,0,0,0,0,0,0,
0,646,647,648,0,0,0,0,0,0,0,0,0,0,0,0,
0,670,671,672,0,0,0,0,0,0,0,0,0,0,0,0,
0,694,695,696,0,0,0,0,0,0,0,0,0,0,0,0,
0,718,719,720,0,0,0,0,0,0,0,0,0,0,0,0,
0,646,647,648,0,0,0,0,0,0,0,0,0,0,0,0,
0,670,671,672,0,0,0,0,0,0,0,0,0,0,0,0,
0,694,695,696,0,0,0,0,0,0,0,0,0,0,0,0,
0,718,719,720,0,0,0,0,0,0,0,0,0,0,0,0,
0,0,0,0,0,0,0,0,0,0,0,0,0,0,0,0,
0,0,0,0,0,0,0,0,0,0,0,0,0,0,0,0,
0,670,671,0,0,0,0,0,0,0,0,0,0,0,0,0,
0,694,0,696,0,0,0,0,0,0,0,0,0,0,0,0,
0,0,0,0,0,0,0,0,0,0,0,0,0,0,0,0,
0,0,0,0,0,0,0,0,0,0,0,0,0,0,0,0
</chunk>
   <chunk x="0" y="32" width="16" height="16">
0,0,0,0,0,0,0,0,0,0,0,718,719,720,0,0,
0,0,0,0,0,0,0,0,0,0,0,0,646,647,648,0,
0,0,0,0,0,0,0,0,0,0,0,0,670,671,646,647,
0,0,0,0,0,0,0,0,0,0,0,0,694,695,670,671,
0,0,0,0,0,0,0,0,0,0,0,0,718,719,694,695,
0,0,0,0,0,0,0,0,0,0,0,0,0,0,718,719,
0,0,0,0,0,0,0,0,0,0,0,0,0,0,0,0,
0,0,0,0,0,0,0,0,0,0,0,0,0,0,0,0,
0,0,0,0,0,0,0,0,0,0,0,0,0,0,0,0,
0,0,0,0,0,0,0,0,0,0,0,0,0,0,0,0,
0,0,0,0,0,0,0,0,0,0,0,0,0,0,0,0,
0,0,0,0,0,0,0,0,0,0,0,0,0,0,0,0,
0,0,0,0,0,0,0,0,0,0,0,0,0,0,0,0,
0,0,0,0,0,0,0,0,0,0,0,0,0,0,0,0,
0,0,0,0,0,0,0,0,0,0,0,0,0,0,0,0,
0,0,0,0,0,0,0,0,0,0,0,0,0,0,0,0
</chunk>
   <chunk x="16" y="32" width="16" height="16">
0,0,0,0,0,0,0,0,0,0,0,0,0,0,0,0,
0,0,0,0,0,0,0,0,0,0,0,0,0,0,0,0,
648,646,647,648,0,0,0,0,0,0,0,0,0,0,0,646,
672,670,671,672,0,0,0,0,0,0,0,0,0,0,0,670,
696,694,695,696,0,0,0,0,0,0,0,0,0,0,0,694,
720,718,719,720,0,0,0,0,0,0,0,0,0,0,0,718,
0,0,0,0,0,0,0,0,0,0,0,0,0,0,0,0,
0,0,0,0,0,0,0,0,0,0,0,0,0,0,0,0,
0,0,0,0,0,0,0,0,0,0,0,0,0,0,0,0,
0,0,0,0,0,0,0,0,0,0,0,0,0,0,0,0,
0,0,0,0,0,0,0,0,0,0,0,0,0,0,0,0,
0,0,0,0,0,0,0,0,0,0,0,0,0,0,0,0,
0,0,0,0,0,0,0,0,0,0,0,0,0,0,0,0,
0,0,0,0,0,0,0,0,0,0,0,0,0,0,0,0,
0,0,0,0,0,0,0,0,0,0,0,0,0,0,0,0,
0,0,0,0,0,0,0,0,0,0,0,0,0,0,0,0
</chunk>
   <chunk x="32" y="32" width="16" height="16">
0,646,647,648,0,0,0,0,0,0,0,0,0,0,0,0,
0,670,671,672,0,0,0,0,0,0,0,0,0,0,0,0,
647,648,695,696,0,0,0,0,0,0,0,0,0,0,0,0,
671,672,719,720,0,0,0,0,0,0,0,0,0,0,0,0,
695,696,0,0,0,0,0,0,0,0,0,0,0,0,0,0,
719,720,0,0,0,0,0,0,0,0,0,0,0,0,0,0,
0,0,0,0,0,0,0,0,0,0,0,0,0,0,0,0,
0,0,0,0,0,0,0,0,0,0,0,0,0,0,0,0,
0,0,0,0,0,0,0,0,0,0,0,0,0,0,0,0,
0,0,0,0,0,0,0,0,0,0,0,0,0,0,0,0,
0,0,0,0,0,0,0,0,0,0,0,0,0,0,0,0,
0,0,0,0,0,0,0,0,0,0,0,0,0,0,0,0,
0,0,0,0,0,0,0,0,0,0,0,0,0,0,0,0,
0,0,0,0,0,0,0,0,0,0,0,0,0,0,0,0,
0,0,0,0,0,0,0,0,0,0,0,0,0,0,0,0,
0,0,0,0,0,0,0,0,0,0,0,0,0,0,0,0
</chunk>
  </data>
 </layer>
 <layer id="17" name="forest_4" width="48" height="48">
  <data encoding="csv">
   <chunk x="32" y="16" width="16" height="16">
0,0,0,0,0,0,0,0,0,0,0,0,0,0,0,0,
0,0,0,0,0,0,0,0,0,0,0,0,0,0,0,0,
0,0,0,0,0,0,0,0,0,0,0,0,0,0,0,0,
0,0,0,0,0,0,0,0,0,0,0,0,0,0,0,0,
0,0,0,0,0,0,0,0,0,0,0,0,0,0,0,0,
0,0,0,0,0,0,0,0,0,0,0,0,0,0,0,0,
0,0,0,0,0,0,0,0,0,0,0,0,0,0,0,0,
0,646,647,648,0,0,0,0,0,0,0,0,0,0,0,0,
0,670,671,672,0,0,0,0,0,0,0,0,0,0,0,0,
0,694,695,696,0,0,0,0,0,0,0,0,0,0,0,0,
0,718,719,720,0,0,0,0,0,0,0,0,0,0,0,0,
0,0,0,0,0,0,0,0,0,0,0,0,0,0,0,0,
0,0,671,0,0,0,0,0,0,0,0,0,0,0,0,0,
0,0,0,0,0,0,0,0,0,0,0,0,0,0,0,0,
0,0,0,0,0,0,0,0,0,0,0,0,0,0,0,0,
0,0,0,0,0,0,0,0,0,0,0,0,0,0,0,0
</chunk>
   <chunk x="0" y="32" width="16" height="16">
0,0,0,0,0,0,0,0,0,0,0,0,0,0,0,0,
0,0,0,0,0,0,0,0,0,0,0,0,0,0,0,0,
0,0,0,0,0,0,0,0,0,0,0,646,647,648,0,0,
0,0,0,0,0,0,0,0,0,0,0,670,671,672,0,0,
0,0,0,0,0,0,0,0,0,0,0,694,695,696,0,0,
0,0,0,0,0,0,0,0,0,0,0,718,719,720,0,0,
0,0,0,0,0,0,0,0,0,0,0,0,0,0,0,0,
0,0,0,0,0,0,0,0,0,0,0,0,0,0,0,0,
0,0,0,0,0,0,0,0,0,0,0,0,0,0,0,0,
0,0,0,0,0,0,0,0,0,0,0,0,0,0,0,0,
0,0,0,0,0,0,0,0,0,0,0,0,0,0,0,0,
0,0,0,0,0,0,0,0,0,0,0,0,0,0,0,0,
0,0,0,0,0,0,0,0,0,0,0,0,0,0,0,0,
0,0,0,0,0,0,0,0,0,0,0,0,0,0,0,0,
0,0,0,0,0,0,0,0,0,0,0,0,0,0,0,0,
0,0,0,0,0,0,0,0,0,0,0,0,0,0,0,0
</chunk>
   <chunk x="16" y="32" width="16" height="16">
0,0,0,0,0,0,0,0,0,0,0,0,0,0,0,0,
0,0,0,0,0,0,0,0,0,0,0,0,0,0,0,0,
0,0,0,0,0,0,0,0,0,0,648,646,647,648,0,0,
0,0,0,0,0,0,0,0,0,0,672,670,671,672,0,0,
0,0,0,0,0,0,0,0,0,0,696,694,695,696,0,0,
0,0,0,0,0,0,0,0,0,0,720,718,719,720,0,0,
0,0,0,0,0,0,0,0,0,0,0,0,0,0,0,0,
0,0,0,0,0,0,0,0,0,0,0,0,0,0,0,0,
0,0,0,0,0,0,0,0,0,0,0,0,0,0,0,0,
0,0,0,0,0,0,0,0,0,0,0,0,0,0,0,0,
0,0,0,0,0,0,0,0,0,0,0,0,0,0,0,0,
0,0,0,0,0,0,0,0,0,0,0,0,0,0,0,0,
0,0,0,0,0,0,0,0,0,0,0,0,0,0,0,0,
0,0,0,0,0,0,0,0,0,0,0,0,0,0,0,0,
0,0,0,0,0,0,0,0,0,0,0,0,0,0,0,0,
0,0,0,0,0,0,0,0,0,0,0,0,0,0,0,0
</chunk>
   <chunk x="32" y="32" width="16" height="16">
0,0,0,0,0,0,0,0,0,0,0,0,0,0,0,0,
0,0,0,0,0,0,0,0,0,0,0,0,0,0,0,0,
0,646,647,648,0,0,0,0,0,0,0,0,0,0,0,0,
0,670,671,672,0,0,0,0,0,0,0,0,0,0,0,0,
0,694,695,696,0,0,0,0,0,0,0,0,0,0,0,0,
0,718,719,720,0,0,0,0,0,0,0,0,0,0,0,0,
0,0,0,0,0,0,0,0,0,0,0,0,0,0,0,0,
0,0,0,0,0,0,0,0,0,0,0,0,0,0,0,0,
0,0,0,0,0,0,0,0,0,0,0,0,0,0,0,0,
0,0,0,0,0,0,0,0,0,0,0,0,0,0,0,0,
0,0,0,0,0,0,0,0,0,0,0,0,0,0,0,0,
0,0,0,0,0,0,0,0,0,0,0,0,0,0,0,0,
0,0,0,0,0,0,0,0,0,0,0,0,0,0,0,0,
0,0,0,0,0,0,0,0,0,0,0,0,0,0,0,0,
0,0,0,0,0,0,0,0,0,0,0,0,0,0,0,0,
0,0,0,0,0,0,0,0,0,0,0,0,0,0,0,0
</chunk>
  </data>
 </layer>
 <layer id="18" name="forest_5" width="48" height="48">
  <data encoding="csv">
   <chunk x="0" y="0" width="16" height="16">
0,0,0,0,0,0,0,0,0,0,0,0,0,0,0,0,
0,0,0,0,0,0,0,0,0,0,0,0,0,0,0,0,
0,0,0,0,0,0,0,0,0,0,0,0,0,0,0,0,
0,0,0,0,0,0,0,0,0,0,0,0,0,0,0,0,
0,0,0,0,0,0,0,0,0,0,0,0,0,0,0,0,
0,0,0,0,0,0,0,0,0,0,0,0,0,0,0,0,
0,0,0,0,0,0,0,0,0,0,0,0,0,0,0,0,
0,0,0,0,0,0,0,0,0,0,0,0,0,0,0,0,
0,0,0,0,0,0,0,0,0,0,0,0,0,0,0,0,
0,0,0,0,0,0,0,0,0,0,0,0,0,0,0,0,
0,0,0,0,0,0,0,0,0,0,0,0,0,0,0,0,
0,0,0,0,0,0,0,0,0,0,0,0,0,0,0,0,
0,0,0,0,0,0,0,0,0,0,0,0,0,0,0,0,
0,0,0,0,0,0,0,0,0,0,0,0,0,0,0,0,
0,0,0,0,0,0,0,0,0,0,0,646,647,648,0,0,
0,0,0,0,0,0,0,0,0,0,0,670,671,672,0,0
</chunk>
   <chunk x="32" y="0" width="16" height="16">
0,0,0,0,0,0,0,0,0,0,0,0,0,0,0,0,
0,0,0,0,0,0,0,0,0,0,0,0,0,0,0,0,
0,0,0,0,0,0,0,0,0,0,0,0,0,0,0,0,
0,0,0,0,0,0,0,0,0,0,0,0,0,0,0,0,
0,0,0,0,0,0,0,0,0,0,0,0,0,0,0,0,
0,0,0,0,0,0,0,0,0,0,0,0,0,0,0,0,
0,0,0,0,0,0,0,0,0,0,0,0,0,0,0,0,
0,0,0,0,0,0,0,0,0,0,0,0,0,0,0,0,
0,0,0,0,0,0,0,0,0,0,0,0,0,0,0,0,
0,0,0,0,0,0,0,0,0,0,0,0,0,0,0,0,
0,0,0,0,0,0,0,0,0,0,0,0,0,0,0,0,
0,0,0,0,0,0,0,0,0,0,0,0,0,0,0,0,
0,0,0,0,0,0,0,0,0,0,0,0,0,0,0,0,
0,0,0,0,0,0,0,0,0,0,0,0,0,0,0,0,
0,0,0,0,0,0,0,0,0,0,0,0,0,0,0,0,
0,646,647,648,0,0,0,0,0,0,0,0,0,0,0,0
</chunk>
   <chunk x="0" y="16" width="16" height="16">
0,0,0,0,0,0,0,0,0,0,0,0,0,0,0,0,
0,0,0,0,0,0,0,0,0,0,0,0,0,0,0,0,
0,0,0,0,0,0,0,0,0,0,0,0,0,0,0,0,
0,0,0,0,0,0,0,0,0,0,0,646,647,648,0,0,
0,0,0,0,0,0,0,0,0,0,0,670,671,672,0,0,
0,0,0,0,0,0,0,0,0,0,0,0,0,0,0,0,
0,0,0,0,0,0,0,0,0,0,0,0,0,0,0,0,
0,0,0,0,0,0,0,0,0,0,0,646,647,648,0,0,
0,0,0,0,0,0,0,0,0,0,0,670,671,672,0,0,
0,0,0,0,0,0,0,0,0,0,0,0,0,0,0,0,
0,0,0,0,0,0,0,0,0,0,0,646,647,648,0,0,
0,0,0,0,0,0,0,0,0,0,0,670,671,672,0,0,
0,0,0,0,0,0,0,0,0,0,0,0,0,0,0,0,
0,0,0,0,0,0,0,0,0,0,0,0,0,0,0,0,
0,0,0,0,0,0,0,0,0,0,0,0,0,0,0,0,
0,0,0,0,0,0,0,0,0,0,0,646,647,648,0,0
</chunk>
   <chunk x="32" y="16" width="16" height="16">
0,670,671,672,0,0,0,0,0,0,0,0,0,0,0,0,
0,0,0,0,0,0,0,0,0,0,0,0,0,0,0,0,
0,0,0,0,0,0,0,0,0,0,0,0,0,0,0,0,
0,0,0,0,0,0,0,0,0,0,0,0,0,0,0,0,
0,646,647,648,0,0,0,0,0,0,0,0,0,0,0,0,
0,670,671,672,0,0,0,0,0,0,0,0,0,0,0,0,
0,0,0,0,0,0,0,0,0,0,0,0,0,0,0,0,
0,0,0,0,0,0,0,0,0,0,0,0,0,0,0,0,
0,0,0,0,0,0,0,0,0,0,0,0,0,0,0,0,
0,0,0,0,0,0,0,0,0,0,0,0,0,0,0,0,
0,0,0,647,0,0,0,0,0,0,0,0,0,0,0,0,
0,0,0,671,0,0,0,0,0,0,0,0,0,0,0,0,
0,0,719,695,0,0,0,0,0,0,0,0,0,0,0,0,
0,0,0,0,0,0,0,0,0,0,0,0,0,0,0,0,
0,0,0,0,0,0,0,0,0,0,0,0,0,0,0,0,
0,0,0,0,0,0,0,0,0,0,0,0,0,0,0,0
</chunk>
   <chunk x="0" y="32" width="16" height="16">
0,0,0,0,0,0,0,0,0,0,0,670,671,672,0,0,
0,0,0,0,0,0,0,0,0,0,0,0,0,0,0,0,
0,0,0,0,0,0,0,0,0,0,0,0,0,0,0,0,
0,0,0,0,0,0,0,0,0,0,0,0,0,670,0,0,
0,0,0,0,0,0,0,0,0,0,0,646,647,648,0,0,
0,0,0,0,0,0,0,0,0,0,0,670,671,672,0,0,
0,0,0,0,0,0,0,0,0,0,0,0,0,0,0,0,
0,0,0,0,0,0,0,0,0,0,0,0,0,0,0,0,
0,0,0,0,0,0,0,0,0,0,0,0,0,0,0,0,
0,0,0,0,0,0,0,0,0,0,0,0,0,0,0,0,
0,0,0,0,0,0,0,0,0,0,0,0,0,0,0,0,
0,0,0,0,0,0,0,0,0,0,0,0,0,0,0,0,
0,0,0,0,0,0,0,0,0,0,0,0,0,0,0,0,
0,0,0,0,0,0,0,0,0,0,0,0,0,0,0,0,
0,0,0,0,0,0,0,0,0,0,0,0,0,0,0,0,
0,0,0,0,0,0,0,0,0,0,0,0,0,0,0,0
</chunk>
   <chunk x="16" y="32" width="16" height="16">
0,0,0,0,0,0,0,0,0,0,0,0,0,0,0,0,
0,0,0,0,0,0,0,0,0,0,0,0,0,0,0,0,
0,0,0,0,0,0,0,0,0,0,0,0,0,0,0,0,
0,0,0,0,0,0,0,0,0,0,0,0,0,0,0,0,
646,647,648,0,0,0,0,0,0,646,647,648,646,647,648,0,
670,671,672,0,0,0,0,0,0,670,671,672,670,671,672,0,
0,0,0,0,0,0,0,0,0,0,0,0,0,0,0,0,
0,0,0,0,0,0,0,0,0,0,0,0,0,0,0,0,
0,0,0,0,0,0,0,0,0,0,0,0,0,0,0,0,
0,0,0,0,0,0,0,0,0,0,0,0,0,0,0,0,
0,0,0,0,0,0,0,0,0,0,0,0,0,0,0,0,
0,0,0,0,0,0,0,0,0,0,0,0,0,0,0,0,
0,0,0,0,0,0,0,0,0,0,0,0,0,0,0,0,
0,0,0,0,0,0,0,0,0,0,0,0,0,0,0,0,
0,0,0,0,0,0,0,0,0,0,0,0,0,0,0,0,
0,0,0,0,0,0,0,0,0,0,0,0,0,0,0,0
</chunk>
   <chunk x="32" y="32" width="16" height="16">
0,0,0,0,0,0,0,0,0,0,0,0,0,0,0,0,
0,0,0,0,0,0,0,0,0,0,0,0,0,0,0,0,
0,0,0,0,0,0,0,0,0,0,0,0,0,0,0,0,
0,0,0,0,0,0,0,0,0,0,0,0,0,0,0,0,
0,646,647,648,0,0,0,0,0,0,0,0,0,0,0,0,
0,670,671,672,0,0,0,0,0,0,0,0,0,0,0,0,
0,0,0,0,0,0,0,0,0,0,0,0,0,0,0,0,
0,0,0,0,0,0,0,0,0,0,0,0,0,0,0,0,
0,0,0,0,0,0,0,0,0,0,0,0,0,0,0,0,
0,0,0,0,0,0,0,0,0,0,0,0,0,0,0,0,
0,0,0,0,0,0,0,0,0,0,0,0,0,0,0,0,
0,0,0,0,0,0,0,0,0,0,0,0,0,0,0,0,
0,0,0,0,0,0,0,0,0,0,0,0,0,0,0,0,
0,0,0,0,0,0,0,0,0,0,0,0,0,0,0,0,
0,0,0,0,0,0,0,0,0,0,0,0,0,0,0,0,
0,0,0,0,0,0,0,0,0,0,0,0,0,0,0,0
</chunk>
  </data>
 </layer>
 <layer id="21" name="forst_6" width="48" height="48">
  <data encoding="csv">
   <chunk x="0" y="0" width="16" height="16">
0,0,0,0,0,0,0,0,0,0,0,0,0,0,0,0,
0,0,0,0,0,0,0,0,0,0,0,0,0,0,0,0,
0,0,0,0,0,0,0,0,0,0,0,0,0,0,0,0,
0,0,0,0,0,0,0,0,0,0,0,0,0,0,0,0,
0,0,0,0,0,0,0,0,0,0,0,0,0,0,0,0,
0,0,0,0,0,0,0,0,0,0,0,0,0,0,0,0,
0,0,0,0,0,0,0,0,0,0,0,0,0,0,0,0,
0,0,0,0,0,0,0,0,0,0,0,0,0,0,0,0,
0,0,0,0,0,0,0,0,0,0,0,0,0,0,0,0,
0,0,0,0,0,0,0,0,0,0,0,0,0,0,0,0,
0,0,0,0,0,0,0,0,0,0,0,0,0,0,0,0,
0,0,0,0,0,0,0,0,0,0,0,0,0,0,0,0,
0,0,0,0,0,0,0,0,0,0,0,648,0,0,0,0,
0,0,0,0,0,0,0,0,0,0,0,672,0,0,0,0,
0,0,0,0,0,0,0,0,0,0,0,696,0,0,0,0,
0,0,0,0,0,0,0,0,0,0,0,648,0,0,0,0
</chunk>
   <chunk x="32" y="0" width="16" height="16">
0,0,0,0,0,0,0,0,0,0,0,0,0,0,0,0,
0,0,0,0,0,0,0,0,0,0,0,0,0,0,0,0,
0,0,0,0,0,0,0,0,0,0,0,0,0,0,0,0,
0,0,0,0,0,0,0,0,0,0,0,0,0,0,0,0,
0,0,0,0,0,0,0,0,0,0,0,0,0,0,0,0,
0,0,0,0,0,0,0,0,0,0,0,0,0,0,0,0,
0,0,0,0,0,0,0,0,0,0,0,0,0,0,0,0,
0,0,0,0,0,0,0,0,0,0,0,0,0,0,0,0,
0,0,0,0,0,0,0,0,0,0,0,0,0,0,0,0,
0,0,0,0,0,0,0,0,0,0,0,0,0,0,0,0,
0,0,0,0,0,0,0,0,0,0,0,0,0,0,0,0,
0,0,0,0,0,0,0,0,0,0,0,0,0,0,0,0,
0,0,0,0,0,0,0,0,0,0,0,0,0,0,0,0,
0,0,0,646,0,0,0,0,0,0,0,0,0,0,0,0,
0,0,0,670,0,0,0,0,0,0,0,0,0,0,0,0,
0,0,0,694,0,0,0,0,0,0,0,0,0,0,0,0
</chunk>
   <chunk x="0" y="16" width="16" height="16">
0,0,0,0,0,0,0,0,0,0,0,672,0,0,0,0,
0,0,0,0,0,0,0,0,0,0,0,696,0,0,0,0,
0,0,0,0,0,0,0,0,0,0,0,0,0,0,0,0,
0,0,0,0,0,0,0,0,0,0,0,0,0,0,0,0,
0,0,0,0,0,0,0,0,0,0,0,0,0,0,0,0,
0,0,0,0,0,0,0,0,0,0,0,0,0,0,0,0,
0,0,0,0,0,0,0,0,0,0,0,0,0,0,0,0,
0,0,0,0,0,0,0,0,0,0,0,0,0,0,0,0,
0,0,0,0,0,0,0,0,0,0,0,0,0,0,0,0,
0,0,0,0,0,0,0,0,0,0,0,0,0,0,0,0,
0,0,0,0,0,0,0,0,0,0,0,0,0,0,0,0,
0,0,0,0,0,0,0,0,0,0,0,0,0,0,0,0,
0,0,0,0,0,0,0,0,0,0,0,0,0,0,0,0,
0,0,0,0,0,0,0,0,0,0,0,0,0,0,0,0,
0,0,0,0,0,0,0,0,0,0,0,0,0,0,0,0,
0,0,0,0,0,0,0,0,0,0,0,0,0,0,0,0
</chunk>
   <chunk x="32" y="16" width="16" height="16">
0,0,0,0,0,0,0,0,0,0,0,0,0,0,0,0,
0,0,0,646,0,0,0,0,0,0,0,0,0,0,0,0,
0,0,0,670,0,0,0,0,0,0,0,0,0,0,0,0,
0,0,0,694,0,0,0,0,0,0,0,0,0,0,0,0,
0,0,0,0,0,0,0,0,0,0,0,0,0,0,0,0,
0,0,0,646,0,0,0,0,0,0,0,0,0,0,0,0,
0,0,0,670,0,0,0,0,0,0,0,0,0,0,0,0,
0,0,0,694,0,0,0,0,0,0,0,0,0,0,0,0,
0,0,0,0,0,0,0,0,0,0,0,0,0,0,0,0,
0,646,647,648,0,0,0,0,0,0,0,0,0,0,0,0,
0,670,671,647,0,0,0,0,0,0,0,0,0,0,0,0,
0,0,647,648,0,0,0,0,0,0,0,0,0,0,0,0,
0,646,671,672,0,0,0,0,0,0,0,0,0,0,0,0,
0,0,0,647,0,0,0,0,0,0,0,0,0,0,0,0,
0,0,0,0,0,0,0,0,0,0,0,0,0,0,0,0,
0,0,0,646,0,0,0,0,0,0,0,0,0,0,0,0
</chunk>
   <chunk x="0" y="32" width="16" height="16">
0,0,0,0,0,0,0,0,0,0,0,0,0,0,0,0,
0,0,0,0,0,0,0,0,0,0,0,0,0,0,0,0,
0,0,0,0,0,0,0,0,0,0,0,0,0,0,0,0,
0,0,0,0,0,0,0,0,0,0,0,646,647,648,646,647,
0,0,0,0,0,0,0,0,0,0,0,670,671,672,670,671,
0,0,0,0,0,0,0,0,0,0,0,694,695,696,694,695,
0,0,0,0,0,0,0,0,0,0,0,0,0,0,0,0,
0,0,0,0,0,0,0,0,0,0,0,0,0,0,0,0,
0,0,0,0,0,0,0,0,0,0,0,0,0,0,0,0,
0,0,0,0,0,0,0,0,0,0,0,0,0,0,0,0,
0,0,0,0,0,0,0,0,0,0,0,0,0,0,0,0,
0,0,0,0,0,0,0,0,0,0,0,0,0,0,0,0,
0,0,0,0,0,0,0,0,0,0,0,0,0,0,0,0,
0,0,0,0,0,0,0,0,0,0,0,0,0,0,0,0,
0,0,0,0,0,0,0,0,0,0,0,0,0,0,0,0,
0,0,0,0,0,0,0,0,0,0,0,0,0,0,0,0
</chunk>
   <chunk x="16" y="32" width="16" height="16">
0,0,0,0,0,0,0,0,0,0,0,0,0,0,0,0,
0,0,0,0,0,0,0,0,0,0,0,0,0,0,0,0,
0,0,0,0,0,0,0,0,0,0,0,0,0,0,0,0,
648,0,646,647,648,0,0,0,0,0,646,647,648,0,646,647,
672,0,670,671,672,0,0,0,0,0,670,671,672,0,670,671,
696,0,694,695,696,0,0,0,0,0,694,695,696,0,694,695,
0,0,0,0,0,0,0,0,0,0,0,0,0,0,0,0,
0,0,0,0,0,0,0,0,0,0,0,0,0,0,0,0,
0,0,0,0,0,0,0,0,0,0,0,0,0,0,0,0,
0,0,0,0,0,0,0,0,0,0,0,0,0,0,0,0,
0,0,0,0,0,0,0,0,0,0,0,0,0,0,0,0,
0,0,0,0,0,0,0,0,0,0,0,0,0,0,0,0,
0,0,0,0,0,0,0,0,0,0,0,0,0,0,0,0,
0,0,0,0,0,0,0,0,0,0,0,0,0,0,0,0,
0,0,0,0,0,0,0,0,0,0,0,0,0,0,0,0,
0,0,0,0,0,0,0,0,0,0,0,0,0,0,0,0
</chunk>
   <chunk x="32" y="32" width="16" height="16">
0,0,0,670,0,0,0,0,0,0,0,0,0,0,0,0,
0,0,0,694,0,0,0,0,0,0,0,0,0,0,0,0,
0,0,0,0,0,0,0,0,0,0,0,0,0,0,0,0,
648,648,0,646,0,0,0,0,0,0,0,0,0,0,0,0,
672,672,0,670,0,0,0,0,0,0,0,0,0,0,0,0,
696,696,0,694,0,0,0,0,0,0,0,0,0,0,0,0,
0,0,0,0,0,0,0,0,0,0,0,0,0,0,0,0,
0,0,0,0,0,0,0,0,0,0,0,0,0,0,0,0,
0,0,0,0,0,0,0,0,0,0,0,0,0,0,0,0,
0,0,0,0,0,0,0,0,0,0,0,0,0,0,0,0,
0,0,0,0,0,0,0,0,0,0,0,0,0,0,0,0,
0,0,0,0,0,0,0,0,0,0,0,0,0,0,0,0,
0,0,0,0,0,0,0,0,0,0,0,0,0,0,0,0,
0,0,0,0,0,0,0,0,0,0,0,0,0,0,0,0,
0,0,0,0,0,0,0,0,0,0,0,0,0,0,0,0,
0,0,0,0,0,0,0,0,0,0,0,0,0,0,0,0
</chunk>
  </data>
 </layer>
 <layer id="7" name="Collision" width="48" height="48">
  <data encoding="csv">
   <chunk x="0" y="0" width="16" height="16">
0,0,0,0,0,0,0,0,0,0,0,0,0,0,0,0,
0,0,0,0,0,0,0,0,0,0,0,0,0,0,0,0,
0,0,0,0,0,0,0,0,0,0,0,0,0,0,0,0,
0,0,0,0,0,0,0,0,0,0,0,0,0,0,0,0,
0,0,0,0,0,0,0,0,0,0,0,0,0,0,0,0,
0,0,0,0,0,0,0,0,0,0,0,0,0,0,0,0,
0,0,0,0,0,0,0,0,0,0,0,0,0,0,0,0,
0,0,0,0,0,0,0,0,0,0,0,0,0,0,0,0,
0,0,0,0,0,0,0,0,0,0,0,0,0,0,0,0,
0,0,0,0,0,0,0,0,0,0,0,0,0,0,0,0,
0,0,0,0,0,0,0,0,0,0,0,0,0,0,0,0,
0,0,0,0,0,0,0,0,0,0,0,212,212,212,212,212,
0,0,0,0,0,0,0,0,0,0,0,212,212,212,212,212,
0,0,0,0,0,0,0,0,0,0,0,212,212,212,212,212,
0,0,0,0,0,0,0,0,0,0,0,212,212,212,212,212,
0,0,0,0,0,0,0,0,0,0,0,212,212,158,161,161
</chunk>
   <chunk x="16" y="0" width="16" height="16">
0,0,0,0,0,0,0,0,0,0,0,0,0,0,0,0,
0,0,0,0,0,0,0,0,0,0,0,0,0,0,0,0,
0,0,0,0,0,0,0,0,0,0,0,0,0,0,0,0,
0,0,0,0,0,0,0,0,0,0,0,0,0,0,0,0,
0,0,0,0,0,0,0,0,0,0,0,0,0,0,0,0,
0,0,0,0,0,0,0,0,0,0,0,0,0,0,0,0,
0,0,0,0,0,0,0,0,0,0,0,0,0,0,0,0,
0,0,0,0,0,0,0,0,0,0,0,0,0,0,0,0,
0,0,0,0,0,0,0,0,0,0,0,0,0,0,0,0,
0,0,0,0,0,0,0,0,0,0,0,0,0,0,0,0,
0,0,0,0,0,0,0,0,0,0,0,0,0,0,0,0,
212,212,212,212,212,212,212,212,212,212,212,212,212,212,212,212,
212,212,212,212,212,212,212,212,212,212,212,212,212,212,212,212,
212,212,212,212,212,212,212,212,212,212,212,212,212,212,212,212,
212,212,212,212,212,212,212,212,212,212,212,212,212,212,212,212,
161,161,161,161,161,161,161,161,161,161,161,161,161,161,161,161
</chunk>
   <chunk x="32" y="0" width="16" height="16">
0,0,0,0,0,0,0,0,0,0,0,0,0,0,0,0,
0,0,0,0,0,0,0,0,0,0,0,0,0,0,0,0,
0,0,0,0,0,0,0,0,0,0,0,0,0,0,0,0,
0,0,0,0,0,0,0,0,0,0,0,0,0,0,0,0,
0,0,0,0,0,0,0,0,0,0,0,0,0,0,0,0,
0,0,0,0,0,0,0,0,0,0,0,0,0,0,0,0,
0,0,0,0,0,0,0,0,0,0,0,0,0,0,0,0,
0,0,0,0,0,0,0,0,0,0,0,0,0,0,0,0,
0,0,0,0,0,0,0,0,0,0,0,0,0,0,0,0,
0,0,0,0,0,0,0,0,0,0,0,0,0,0,0,0,
0,0,0,0,0,0,0,0,0,0,0,0,0,0,0,0,
212,212,212,212,0,0,0,0,0,0,0,0,0,0,0,0,
212,212,212,212,0,0,0,0,0,0,0,0,0,0,0,0,
212,212,212,212,0,0,0,0,0,0,0,0,0,0,0,0,
212,158,158,212,0,0,0,0,0,0,0,0,0,0,0,0,
158,158,158,212,0,0,0,0,0,0,0,0,0,0,0,0
</chunk>
   <chunk x="0" y="16" width="16" height="16">
0,0,0,0,0,0,0,0,0,0,0,212,212,158,161,161,
0,0,0,0,0,0,0,0,0,0,0,212,212,158,161,161,
0,0,0,0,0,0,0,0,0,0,0,212,212,158,158,0,
0,0,0,0,0,0,0,0,0,0,0,212,212,158,158,0,
0,0,0,0,0,0,0,0,0,0,0,212,212,158,158,0,
0,0,0,0,0,0,0,0,0,0,0,212,212,158,158,0,
0,0,0,0,0,0,0,0,0,0,0,212,212,158,158,161,
0,0,0,0,0,0,0,0,0,0,0,212,212,158,158,161,
0,0,0,0,0,0,0,0,0,0,0,212,212,158,158,161,
0,0,0,0,0,0,0,0,0,0,0,212,212,158,158,161,
0,0,0,0,0,0,0,0,0,0,0,212,212,158,158,161,
0,0,0,0,0,0,0,0,0,0,0,212,212,158,158,161,
0,0,0,0,0,0,0,0,0,0,0,212,212,158,158,161,
0,0,0,0,0,0,0,0,0,0,0,212,212,158,158,161,
0,0,0,0,0,0,0,0,0,0,0,212,212,158,158,161,
0,0,0,0,0,0,0,0,0,0,0,212,212,158,158,161
</chunk>
   <chunk x="16" y="16" width="16" height="16">
161,161,161,161,0,0,161,161,161,161,161,158,158,161,161,158,
0,0,0,0,0,0,0,0,0,0,0,0,0,0,158,158,
0,0,0,0,0,0,0,0,0,0,0,0,0,0,0,158,
0,0,0,0,0,0,0,0,0,0,0,0,0,0,0,158,
0,161,161,161,161,161,161,161,161,161,161,0,0,0,161,158,
0,0,215,215,215,215,215,158,158,158,215,0,0,0,161,158,
0,0,215,215,215,215,215,215,158,158,215,0,0,0,161,158,
0,0,215,215,215,215,215,215,158,158,215,0,0,0,161,158,
0,0,215,215,215,215,215,215,215,215,215,0,0,0,161,158,
0,0,215,215,215,215,215,215,215,215,215,0,0,0,161,158,
0,0,215,215,215,215,215,215,215,215,215,0,0,0,0,0,
0,0,0,0,0,215,215,215,215,215,215,0,0,0,0,0,
0,0,0,0,0,215,215,215,215,215,215,0,0,0,0,0,
0,0,0,0,0,0,0,0,0,0,0,0,0,0,161,158,
0,0,0,0,0,0,0,0,0,0,0,0,0,0,161,158,
0,0,0,0,0,0,0,0,0,0,0,0,0,0,161,158
</chunk>
   <chunk x="32" y="16" width="16" height="16">
158,158,158,212,0,0,0,0,0,0,0,0,0,0,0,0,
158,158,158,212,0,0,0,0,0,0,0,0,0,0,0,0,
158,158,158,212,0,0,0,0,0,0,0,0,0,0,0,0,
158,158,158,212,0,0,0,0,0,0,0,0,0,0,0,0,
158,158,158,212,0,0,0,0,0,0,0,0,0,0,0,0,
158,158,158,212,0,0,0,0,0,0,0,0,0,0,0,0,
158,158,158,212,0,0,0,0,0,0,0,0,0,0,0,0,
158,158,158,212,0,0,0,0,0,0,0,0,0,0,0,0,
161,161,158,212,0,0,0,0,0,0,0,0,0,0,0,0,
161,161,212,212,0,0,0,0,0,0,0,0,0,0,0,0,
158,158,212,212,0,0,0,0,0,0,0,0,0,0,0,0,
158,158,212,212,0,0,0,0,0,0,0,0,0,0,0,0,
158,158,212,212,0,0,0,0,0,0,0,0,0,0,0,0,
161,161,158,212,0,0,0,0,0,0,0,0,0,0,0,0,
158,158,158,212,0,0,0,0,0,0,0,0,0,0,0,0,
158,158,158,212,0,0,0,0,0,0,0,0,0,0,0,0
</chunk>
   <chunk x="0" y="32" width="16" height="16">
0,0,0,0,0,0,0,0,0,0,0,212,212,158,158,161,
0,0,0,0,0,0,0,0,0,0,0,212,212,161,158,0,
0,0,0,0,0,0,0,0,0,0,0,212,158,161,158,0,
0,0,0,0,0,0,0,0,0,0,0,212,158,158,158,158,
0,0,0,0,0,0,0,0,0,0,0,212,158,158,158,158,
0,0,0,0,0,0,0,0,0,0,0,212,212,212,212,212,
0,0,0,0,0,0,0,0,0,0,0,0,0,0,0,0,
0,0,0,0,0,0,0,0,0,0,0,0,0,0,0,0,
0,0,0,0,0,0,0,0,0,0,0,0,0,0,0,0,
0,0,0,0,0,0,0,0,0,0,0,0,0,0,0,0,
0,0,0,0,0,0,0,0,0,0,0,0,0,0,0,0,
0,0,0,0,0,0,0,0,0,0,0,0,0,0,0,0,
0,0,0,0,0,0,0,0,0,0,0,0,0,0,0,0,
0,0,0,0,0,0,0,0,0,0,0,0,0,0,0,0,
0,0,0,0,0,0,0,0,0,0,0,0,0,0,0,0,
0,0,0,0,0,0,0,0,0,0,0,0,0,0,0,0
</chunk>
   <chunk x="16" y="32" width="16" height="16">
161,161,161,161,161,0,0,0,0,161,161,161,161,161,161,158,
161,161,0,0,0,0,0,0,0,161,161,0,161,161,0,158,
0,0,0,0,0,0,0,0,0,0,0,0,0,0,0,158,
158,158,158,158,158,0,0,0,0,158,158,158,158,158,158,158,
158,158,158,158,158,0,0,0,0,158,158,158,158,158,158,158,
212,212,212,212,212,0,0,0,0,212,212,212,212,212,212,212,
0,0,0,0,0,212,212,212,212,0,0,0,0,0,0,0,
0,0,0,0,0,0,0,0,0,0,0,0,0,0,0,0,
0,0,0,0,0,0,0,0,0,0,0,0,0,0,0,0,
0,0,0,0,0,0,0,0,0,0,0,0,0,0,0,0,
0,0,0,0,0,0,0,0,0,0,0,0,0,0,0,0,
0,0,0,0,0,0,0,0,0,0,0,0,0,0,0,0,
0,0,0,0,0,0,0,0,0,0,0,0,0,0,0,0,
0,0,0,0,0,0,0,0,0,0,0,0,0,0,0,0,
0,0,0,0,0,0,0,0,0,0,0,0,0,0,0,0,
0,0,0,0,0,0,0,0,0,0,0,0,0,0,0,0
</chunk>
   <chunk x="32" y="32" width="16" height="16">
158,158,158,212,0,0,0,0,0,0,0,0,0,0,0,0,
161,161,158,212,0,0,0,0,0,0,0,0,0,0,0,0,
161,161,158,212,0,0,0,0,0,0,0,0,0,0,0,0,
158,158,158,212,0,0,0,0,0,0,0,0,0,0,0,0,
158,158,158,212,0,0,0,0,0,0,0,0,0,0,0,0,
212,212,212,212,0,0,0,0,0,0,0,0,0,0,0,0,
0,0,0,0,0,0,0,0,0,0,0,0,0,0,0,0,
0,0,0,0,0,0,0,0,0,0,0,0,0,0,0,0,
0,0,0,0,0,0,0,0,0,0,0,0,0,0,0,0,
0,0,0,0,0,0,0,0,0,0,0,0,0,0,0,0,
0,0,0,0,0,0,0,0,0,0,0,0,0,0,0,0,
0,0,0,0,0,0,0,0,0,0,0,0,0,0,0,0,
0,0,0,0,0,0,0,0,0,0,0,0,0,0,0,0,
0,0,0,0,0,0,0,0,0,0,0,0,0,0,0,0,
0,0,0,0,0,0,0,0,0,0,0,0,0,0,0,0,
0,0,0,0,0,0,0,0,0,0,0,0,0,0,0,0
</chunk>
  </data>
 </layer>
</map>
