<?xml version="1.0" encoding="UTF-8"?>
<map version="1.10" tiledversion="1.12.1" orientation="orthogonal" renderorder="right-down" width="15" height="15" tilewidth="16" tileheight="16" infinite="1" nextlayerid="15" nextobjectid="1">
 <tileset firstgid="1" name="dungeon_tileset" tilewidth="16" tileheight="16" tilecount="252" columns="18">
  <image source="../sucai/dungeon_tileset.png" width="288" height="224"/>
 </tileset>
 <tileset firstgid="253" name="house_indoor_3" tilewidth="16" tileheight="16" tilecount="1024" columns="32">
  <image source="../sucai/house_indoor_3.png" width="512" height="512"/>
 </tileset>
 <tileset firstgid="1277" name="Prison" tilewidth="16" tileheight="16" tilecount="864" columns="32">
  <image source="../sucai/Prison.png" width="512" height="446"/>
 </tileset>
 <tileset firstgid="2141" name="Prison_1" tilewidth="16" tileheight="16" tilecount="896" columns="32">
  <image source="../sucai/Prison_1.png" width="512" height="452"/>
 </tileset>
 <tileset firstgid="3037" name="Prison_2" tilewidth="16" tileheight="16" tilecount="1024" columns="32">
  <image source="../sucai/Prison_2.png" width="512" height="512"/>
 </tileset>
 <tileset firstgid="4061" name="Prison_3" tilewidth="16" tileheight="16" tilecount="1024" columns="32">
  <image source="../sucai/Prison_3.png" width="512" height="512"/>
 </tileset>
 <tileset firstgid="5085" name="house_indoor_europe" tilewidth="16" tileheight="16" tilecount="2304" columns="48">
  <image source="../sucai/house_indoor_europe.png" width="768" height="768"/>
 </tileset>
 <tileset firstgid="7389" name="outhers_1" tilewidth="16" tileheight="16" tilecount="1024" columns="32">
  <image source="../sucai/outhers_1.png" width="512" height="512"/>
 </tileset>
 <layer id="13" name="output_event_2" width="15" height="15">
  <data encoding="csv">
   <chunk x="-16" y="0" width="16" height="16">
0,0,0,0,0,0,0,0,0,0,0,0,0,0,0,0,
0,0,0,0,0,0,0,0,0,0,0,0,0,0,0,0,
0,0,0,0,0,0,0,238,0,0,0,0,0,0,0,0,
0,0,0,0,0,0,0,0,0,0,0,0,0,0,0,0,
0,0,0,0,0,0,0,0,0,0,0,0,0,0,0,0,
0,0,0,0,0,0,0,0,0,0,0,0,0,0,0,0,
0,0,0,0,0,0,0,0,0,0,0,0,0,0,0,0,
0,0,0,0,0,0,0,0,0,0,0,0,0,0,0,0,
0,0,0,0,0,0,0,0,0,0,0,0,0,0,0,0,
0,0,0,0,0,0,0,0,0,0,0,0,0,0,0,0,
0,0,0,0,0,0,0,0,0,0,0,0,0,0,0,0,
0,0,0,0,0,0,0,0,0,0,0,0,0,0,0,0,
0,0,0,0,0,0,0,0,0,0,0,0,0,0,0,0,
0,0,0,0,0,0,0,0,0,0,0,0,0,0,0,0,
0,0,0,0,0,0,0,0,0,0,0,0,0,0,0,0,
0,0,0,0,0,0,0,0,0,0,0,0,0,0,0,0
</chunk>
  </data>
 </layer>
 <layer id="11" name="output_event_1" width="15" height="15">
  <data encoding="csv">
   <chunk x="-32" y="0" width="16" height="16">
0,0,0,0,0,0,0,0,0,0,0,0,0,0,0,0,
0,0,0,0,0,0,0,0,0,0,0,0,0,0,0,0,
0,0,0,0,0,0,238,0,0,0,0,0,0,0,0,0,
0,0,0,0,0,0,0,0,0,0,0,0,0,0,0,0,
0,0,0,0,0,0,0,0,0,0,0,0,0,0,0,0,
0,0,0,0,0,0,0,0,0,0,0,0,0,0,0,0,
0,0,0,0,0,0,0,0,0,0,0,0,0,0,0,0,
0,0,0,0,0,0,0,0,0,0,0,0,0,0,0,0,
0,0,0,0,0,0,0,0,0,0,0,0,0,0,0,0,
0,0,0,0,0,0,0,0,0,0,0,0,0,0,0,0,
0,0,0,0,0,0,0,0,0,0,0,0,0,0,0,0,
0,0,0,0,0,0,0,0,0,0,0,0,0,0,0,0,
0,0,0,0,0,0,0,0,0,0,0,0,0,0,0,0,
0,0,0,0,0,0,0,0,0,0,0,0,0,0,0,0,
0,0,0,0,0,0,0,0,0,0,0,0,0,0,0,0,
0,0,0,0,0,0,0,0,0,0,0,0,0,0,0,0
</chunk>
  </data>
 </layer>
 <layer id="12" name="input_event_2" width="15" height="15">
  <data encoding="csv">
   <chunk x="-16" y="0" width="16" height="16">
0,0,0,0,0,0,0,0,0,0,0,0,0,0,0,0,
0,0,0,0,0,0,0,0,0,0,0,0,0,0,0,0,
0,0,0,0,0,0,0,0,0,0,0,0,0,0,0,0,
0,0,0,0,0,0,0,0,0,0,0,0,0,0,0,0,
0,0,0,0,0,0,0,0,0,0,0,0,0,0,0,0,
0,0,0,0,0,0,0,72,72,0,0,0,0,0,0,0,
0,0,0,0,0,0,0,72,72,0,0,0,0,0,0,0,
0,0,0,0,0,0,0,54,54,0,0,0,0,0,0,0,
0,0,0,0,0,0,0,0,0,0,0,0,0,0,0,0,
0,0,0,0,0,0,0,0,0,0,0,0,0,0,0,0,
0,0,0,0,0,0,0,0,0,0,0,0,0,0,0,0,
0,0,0,0,0,0,0,0,0,0,0,0,0,0,0,0,
0,0,0,0,0,0,0,0,0,0,0,0,0,0,0,0,
0,0,0,0,0,0,0,0,0,0,0,0,0,0,0,0,
0,0,0,0,0,0,0,0,0,0,0,0,0,0,0,0,
0,0,0,0,0,0,0,0,0,0,0,0,0,0,0,0
</chunk>
  </data>
 </layer>
 <layer id="10" name="input_event_1" width="15" height="15">
  <data encoding="csv">
   <chunk x="-32" y="0" width="16" height="16">
0,0,0,0,0,0,0,0,0,0,0,0,0,0,0,0,
0,0,0,0,0,0,0,0,0,0,0,0,0,0,0,0,
0,0,0,0,0,0,0,0,0,0,0,0,0,0,0,0,
0,0,0,0,0,0,0,0,0,0,0,0,0,0,0,0,
0,0,0,0,0,0,0,0,0,0,0,0,0,0,0,0,
0,0,0,0,0,0,72,72,0,0,0,0,0,0,0,0,
0,0,0,0,0,0,72,72,0,0,0,0,0,0,0,0,
0,0,0,0,0,0,54,54,0,0,0,0,0,0,0,0,
0,0,0,0,0,0,0,0,0,0,0,0,0,0,0,0,
0,0,0,0,0,0,0,0,0,0,0,0,0,0,0,0,
0,0,0,0,0,0,0,0,0,0,0,0,0,0,0,0,
0,0,0,0,0,0,0,0,0,0,0,0,0,0,0,0,
0,0,0,0,0,0,0,0,0,0,0,0,0,0,0,0,
0,0,0,0,0,0,0,0,0,0,0,0,0,0,0,0,
0,0,0,0,0,0,0,0,0,0,0,0,0,0,0,0,
0,0,0,0,0,0,0,0,0,0,0,0,0,0,0,0
</chunk>
  </data>
 </layer>
 <layer id="9" name="role" width="15" height="15">
  <data encoding="csv">
   <chunk x="-32" y="0" width="16" height="16">
0,0,0,0,0,0,0,0,0,0,0,0,0,0,0,0,
0,0,0,0,0,0,0,0,0,0,0,0,0,0,0,0,
0,0,0,0,0,0,0,0,0,0,0,0,0,0,0,0,
0,0,0,0,0,0,0,0,0,0,0,0,0,0,0,0,
0,0,0,0,0,0,0,0,0,0,0,0,0,0,0,0,
0,0,0,0,0,0,0,0,0,0,0,0,0,0,0,0,
0,0,0,0,0,0,0,0,0,0,0,0,0,0,0,0,
0,0,0,0,0,0,0,0,0,0,0,0,0,0,0,0,
0,0,0,0,0,0,0,0,0,0,0,0,0,0,0,0,
0,0,0,0,0,0,0,0,0,0,0,0,0,0,0,0,
0,0,0,0,0,0,0,0,0,0,0,0,0,0,0,0,
0,0,0,0,0,0,0,0,0,0,0,0,0,0,0,0,
0,0,0,0,0,72,0,0,0,0,0,0,0,0,0,0,
0,0,0,0,0,0,0,0,0,0,0,0,0,0,0,0,
0,0,0,0,0,0,0,0,0,0,0,0,0,0,0,0,
0,0,0,0,0,0,0,0,0,0,0,0,0,0,0,0
</chunk>
  </data>
 </layer>
 <layer id="8" name="collision" width="15" height="15">
  <data encoding="csv">
   <chunk x="-32" y="-16" width="16" height="16">
0,0,0,0,0,0,0,0,0,0,0,0,0,0,0,0,
0,0,0,0,0,0,0,0,0,0,0,0,0,0,0,0,
0,0,0,0,0,0,0,0,0,0,0,0,0,0,0,0,
0,0,0,0,0,0,0,0,0,0,0,0,0,0,0,0,
0,0,0,0,0,0,0,0,0,0,0,0,0,0,0,0,
0,0,0,0,0,0,0,0,0,0,0,0,0,0,0,0,
0,0,0,0,0,0,0,0,0,0,0,0,0,0,0,0,
0,0,0,0,0,0,0,0,0,0,0,0,0,0,0,0,
0,0,0,0,72,72,72,72,0,0,0,0,0,0,0,0,
0,0,0,72,72,72,72,72,72,72,72,72,72,72,72,72,
0,0,0,72,72,72,72,72,72,72,72,72,72,72,72,72,
0,0,0,72,72,72,72,72,72,72,72,72,0,0,0,72,
0,0,0,72,72,0,0,72,0,0,0,0,0,0,0,0,
0,0,0,72,72,0,0,72,0,0,0,0,0,0,0,0,
0,0,0,72,0,0,0,0,0,0,0,0,0,0,0,0,
0,0,0,72,0,0,0,0,0,0,0,0,0,0,0,0
</chunk>
   <chunk x="-16" y="-16" width="16" height="16">
0,0,0,0,0,0,0,0,0,0,0,0,0,0,0,0,
0,0,0,0,0,0,0,0,0,0,0,0,0,0,0,0,
0,0,0,0,0,0,0,0,0,0,0,0,0,0,0,0,
0,0,0,0,0,0,0,0,0,0,0,0,0,0,0,0,
0,0,0,0,0,0,0,0,0,0,0,0,0,0,0,0,
0,0,0,0,0,0,0,0,0,0,0,0,0,0,0,0,
0,0,0,0,0,0,0,0,0,0,0,0,0,0,0,0,
0,0,0,0,0,0,0,0,0,0,0,0,0,0,0,0,
0,0,0,0,0,0,0,0,0,0,0,0,0,0,0,0,
72,72,72,72,72,72,72,72,72,72,72,72,72,72,72,72,
72,72,72,72,72,72,72,72,72,72,72,72,72,72,72,72,
72,72,0,0,0,0,0,0,0,0,0,0,0,0,0,72,
0,72,0,0,0,0,0,0,0,0,0,0,0,0,0,72,
0,72,0,0,0,0,0,0,0,0,0,0,0,0,0,72,
0,0,0,0,0,0,0,0,0,0,0,0,0,0,0,72,
0,0,0,0,0,0,0,0,0,0,0,0,0,0,0,72
</chunk>
   <chunk x="-32" y="0" width="16" height="16">
0,0,0,72,0,0,0,0,0,0,0,0,0,0,0,0,
0,0,0,72,0,0,0,0,0,0,0,0,0,0,0,0,
0,0,0,72,0,0,0,0,0,0,0,0,0,0,0,0,
0,0,0,72,0,0,0,0,0,0,0,0,0,0,0,0,
0,0,0,72,72,72,72,72,72,72,72,72,72,72,72,72,
0,0,0,72,72,72,72,72,72,72,72,72,72,72,72,72,
0,0,0,72,0,0,0,0,0,0,0,0,0,0,0,0,
0,0,0,72,0,0,0,0,0,0,0,0,0,0,0,0,
0,0,0,72,0,0,0,0,0,0,0,0,0,0,0,0,
0,0,0,72,0,0,0,0,0,0,0,0,0,0,0,0,
0,0,0,72,0,0,0,0,0,0,0,0,0,0,0,0,
0,0,0,72,0,0,0,0,0,0,0,0,0,0,0,0,
0,0,0,72,0,0,0,0,0,0,0,0,0,0,0,0,
0,0,0,72,0,0,0,0,0,0,0,0,0,0,0,0,
0,0,0,72,72,72,72,72,72,72,72,72,72,72,72,72,
0,0,0,72,72,72,72,72,72,72,72,72,72,72,72,72
</chunk>
   <chunk x="-16" y="0" width="16" height="16">
0,72,0,0,0,0,0,0,0,0,0,0,0,0,0,72,
72,72,72,72,72,72,0,0,0,0,0,0,0,0,0,72,
72,72,72,72,72,72,0,0,0,0,0,0,0,0,0,72,
72,72,72,72,72,72,0,0,0,0,0,0,0,0,0,72,
72,72,72,72,72,72,72,72,72,72,72,72,72,72,72,72,
72,72,72,72,72,72,72,72,72,72,72,72,72,72,72,72,
0,0,0,0,0,0,0,0,0,0,0,72,72,72,72,72,
0,0,0,0,0,0,0,0,0,0,0,72,72,72,72,72,
0,0,0,0,0,0,0,0,0,0,0,0,0,0,0,72,
0,0,0,0,0,0,0,0,0,0,0,0,0,0,0,72,
0,0,0,0,0,0,0,0,0,0,0,0,0,0,0,72,
0,0,0,0,0,0,0,0,0,0,0,0,0,0,0,72,
0,0,0,0,0,0,0,0,0,0,0,0,0,0,0,72,
0,0,0,0,0,0,0,0,0,0,0,0,0,0,0,72,
72,72,72,72,72,72,72,72,72,72,72,72,72,72,72,72,
72,72,72,72,72,72,72,72,72,72,72,72,72,72,72,72
</chunk>
  </data>
 </layer>
 <layer id="2" name="图块层 -1" width="15" height="15">
  <data encoding="csv">
   <chunk x="-16" y="-16" width="16" height="16">
0,0,0,0,0,0,0,0,0,0,0,0,0,0,0,0,
0,0,0,0,0,0,0,0,0,0,0,0,0,0,0,0,
0,0,0,0,0,0,0,0,0,0,0,0,0,0,0,0,
0,0,0,0,0,0,0,0,0,0,0,0,0,0,0,0,
0,0,0,0,0,0,0,0,0,0,0,0,0,0,0,0,
0,0,0,0,0,0,0,0,0,0,0,0,0,0,0,0,
0,0,0,0,0,0,0,0,0,0,0,0,0,0,0,0,
0,0,0,0,0,0,0,0,0,0,0,0,0,0,0,0,
0,0,0,0,0,0,0,0,0,0,0,0,0,0,0,0,
0,0,0,0,0,0,0,0,0,0,0,0,0,0,0,0,
0,0,0,0,0,0,0,0,0,0,0,0,0,0,0,0,
0,5,6,6,6,6,6,6,6,6,5,6,6,6,6,0,
0,23,24,24,24,24,24,24,24,6,6,6,24,24,6,0,
0,5,6,6,5,6,23,23,24,24,24,24,5,6,24,0,
0,23,24,5,5,5,5,5,5,5,5,5,6,5,6,0,
0,23,5,6,23,5,6,6,23,23,5,6,6,23,24,0
</chunk>
   <chunk x="-16" y="0" width="16" height="16">
0,5,6,6,23,23,24,24,6,6,6,6,24,24,6,0,
0,23,24,24,23,24,23,24,24,24,24,24,23,24,24,0,
0,5,5,5,5,5,5,5,5,5,5,5,5,5,6,0,
0,23,23,23,23,23,23,23,23,23,23,23,23,23,24,0,
0,0,0,0,0,0,0,0,0,0,0,0,0,0,0,0,
0,0,0,0,0,0,0,0,0,0,0,0,0,0,0,0,
0,0,0,0,0,0,0,0,0,0,0,0,0,0,0,0,
0,0,0,0,0,0,0,0,0,0,0,0,0,0,0,0,
0,0,0,0,0,0,0,0,0,0,0,0,0,0,0,0,
0,0,0,0,0,0,0,0,0,0,0,0,0,0,0,0,
0,0,0,0,0,0,0,0,0,0,0,0,0,0,0,0,
0,0,0,0,0,0,0,0,0,0,0,0,0,0,0,0,
0,0,0,0,0,0,0,0,0,0,0,0,0,0,0,0,
0,0,0,0,0,0,0,0,0,0,0,0,0,0,0,0,
0,0,0,0,0,0,0,0,0,0,0,0,0,0,0,0,
0,0,0,0,0,0,0,0,0,0,0,0,0,0,0,0
</chunk>
  </data>
 </layer>
 <layer id="1" name="图块层 1" width="15" height="15">
  <data encoding="csv">
   <chunk x="-32" y="-16" width="16" height="16">
0,0,0,0,0,0,0,0,0,0,0,0,0,0,0,0,
0,0,0,0,0,0,0,0,0,0,0,0,0,0,0,0,
0,0,0,0,0,0,0,0,0,0,0,0,0,0,0,0,
0,0,0,0,0,0,0,0,0,0,0,0,0,0,0,0,
0,0,0,0,0,0,0,0,0,0,0,0,0,0,0,0,
0,0,0,0,0,0,0,0,0,0,0,0,0,0,0,0,
0,0,0,0,0,0,0,0,0,0,0,0,0,0,0,0,
0,0,0,0,0,0,0,0,0,0,0,0,0,0,0,0,
0,0,0,0,0,0,0,0,0,0,0,0,0,0,0,0,
0,0,0,74,114,114,114,114,114,114,114,114,114,114,114,114,
0,0,0,74,132,132,132,132,132,132,132,132,132,132,132,132,
0,0,0,74,7,7,7,7,7,7,7,7,7,7,7,7,
0,0,0,74,7,8,25,25,25,25,25,25,25,25,25,7,
0,0,0,74,7,7,7,7,7,7,7,7,7,7,8,7,
0,0,0,74,25,25,25,25,25,25,25,25,7,8,8,7,
0,0,0,74,25,7,8,8,8,8,7,7,25,26,8,7
</chunk>
   <chunk x="-16" y="-16" width="16" height="16">
0,0,0,0,0,0,0,0,0,0,0,0,0,0,0,0,
0,0,0,0,0,0,0,0,0,0,0,0,0,0,0,0,
0,0,0,0,0,0,0,0,0,0,0,0,0,0,0,0,
0,0,0,0,0,0,0,0,0,0,0,0,0,0,0,0,
0,0,0,0,0,0,0,0,0,0,0,0,0,0,0,0,
0,0,0,0,0,0,0,0,0,0,0,0,0,0,0,0,
0,0,0,0,0,0,0,0,0,0,0,0,0,0,0,0,
0,0,0,0,0,0,0,0,0,0,0,0,0,0,0,0,
0,0,0,0,0,0,0,0,0,0,0,0,0,0,0,0,
114,113,114,114,159,160,114,114,114,114,114,114,114,114,114,77,
132,131,132,132,177,178,132,132,132,132,132,132,132,132,132,77,
8,95,0,0,0,0,0,0,0,0,0,0,0,0,0,77,
8,149,0,0,0,0,0,0,0,0,0,0,0,0,0,77,
8,167,0,0,0,0,0,0,0,0,0,0,0,0,0,77,
8,96,0,0,0,0,0,0,0,0,0,0,0,0,0,77,
8,96,0,0,0,0,0,0,0,0,0,0,0,0,0,77
</chunk>
   <chunk x="-32" y="0" width="16" height="16">
0,0,0,74,25,7,7,7,7,7,25,25,25,26,8,7,
0,0,0,74,25,25,25,25,25,25,25,26,26,26,26,7,
0,0,0,74,25,26,8,8,8,8,8,8,8,8,8,8,
0,0,0,74,25,26,26,26,26,26,26,26,26,26,26,26,
0,0,0,74,114,114,114,114,155,156,114,114,114,114,114,114,
0,0,0,74,132,132,132,132,173,174,132,132,132,132,132,132,
0,0,0,74,5,5,5,5,5,5,5,5,5,5,5,5,
0,0,0,74,23,23,23,23,23,23,23,23,23,23,23,23,
0,0,0,74,5,6,6,6,6,6,6,6,6,6,6,6,
0,0,0,74,23,5,6,6,24,24,24,24,24,24,24,24,
0,0,0,74,5,6,6,24,6,6,6,6,6,6,6,6,
0,0,0,74,23,24,5,5,5,5,6,24,24,24,24,24,
0,0,0,74,5,6,6,5,5,5,6,5,5,5,5,5,
0,0,0,74,23,24,24,23,23,23,24,23,23,23,23,23,
0,0,0,74,114,114,114,114,114,114,114,114,114,114,114,114,
0,0,0,74,132,132,132,132,132,132,132,132,132,132,132,132
</chunk>
   <chunk x="-16" y="0" width="16" height="16">
8,95,0,0,0,0,0,0,0,0,0,0,0,0,0,77,
8,95,0,0,0,0,0,0,0,0,0,0,0,0,0,77,
8,95,0,0,0,0,0,0,0,0,0,0,0,0,0,77,
26,95,0,0,0,0,0,0,0,0,0,0,0,0,0,77,
114,114,114,114,153,154,114,114,114,114,114,114,114,114,114,77,
132,132,132,132,171,172,132,132,132,132,132,132,132,132,132,77,
5,5,5,5,5,5,6,5,5,5,6,6,6,6,6,77,
5,6,6,6,6,6,6,6,6,6,6,24,24,24,24,77,
6,6,6,6,6,6,6,6,6,6,6,6,6,6,6,77,
24,24,24,24,24,24,24,24,24,24,24,24,24,24,24,77,
6,6,6,6,6,6,6,6,6,6,6,6,6,6,6,77,
24,24,24,24,24,24,24,24,24,24,24,24,24,24,24,77,
6,5,5,6,5,6,5,5,5,5,5,5,5,5,6,77,
24,23,23,24,23,24,23,23,23,23,23,23,23,23,24,77,
114,114,114,114,114,114,114,114,114,114,114,114,114,114,114,77,
132,132,132,132,132,132,132,132,132,132,132,132,132,132,132,77
</chunk>
  </data>
 </layer>
 <layer id="5" name="furniture_-1" width="15" height="15">
  <data encoding="csv">
   <chunk x="-16" y="-16" width="16" height="16">
0,0,0,0,0,0,0,0,0,0,0,0,0,0,0,0,
0,0,0,0,0,0,0,0,0,0,0,0,0,0,0,0,
0,0,0,0,0,0,0,0,0,0,0,0,0,0,0,0,
0,0,0,0,0,0,0,0,0,0,0,0,0,0,0,0,
0,0,0,0,0,0,0,0,0,0,0,0,0,0,0,0,
0,0,0,0,0,0,0,0,0,0,0,0,0,0,0,0,
0,0,0,0,0,0,0,0,0,0,0,0,0,0,0,0,
0,0,0,0,0,0,0,0,0,0,0,0,0,0,0,0,
0,0,0,0,0,0,0,0,0,0,0,0,0,0,0,0,
0,0,0,0,0,0,0,0,0,0,0,0,0,0,0,0,
0,0,0,0,0,0,0,0,0,0,0,0,0,0,0,0,
0,0,0,0,0,0,0,0,0,0,0,0,0,0,0,0,
0,0,0,0,0,0,0,0,0,0,0,0,0,0,0,0,
0,0,0,0,0,0,0,0,0,0,0,0,0,0,0,0,
0,0,0,0,0,0,0,0,0,0,0,4141,4142,4143,4144,0,
0,0,0,0,0,0,0,0,0,0,0,4173,4174,4175,4176,0
</chunk>
   <chunk x="-32" y="0" width="16" height="16">
0,0,0,0,0,0,0,0,0,0,0,0,0,0,0,0,
0,0,0,0,0,0,0,0,0,0,0,0,0,0,0,835,
0,0,0,0,0,0,0,0,0,0,0,0,0,0,0,867,
0,0,0,0,0,0,0,0,0,0,0,0,0,0,0,835,
0,0,0,0,0,0,0,0,0,0,0,0,0,0,0,867,
0,0,0,0,0,0,0,0,0,0,0,0,0,0,0,0,
0,0,0,0,0,0,0,0,0,0,0,0,0,0,0,0,
0,0,0,0,0,0,0,0,0,0,0,0,0,0,0,0,
0,0,0,0,0,0,0,0,0,0,0,0,0,0,0,0,
0,0,0,0,0,0,0,0,0,0,0,0,0,0,0,0,
0,0,0,0,0,0,0,0,0,0,0,0,0,0,0,0,
0,0,0,0,0,0,0,0,0,0,0,0,0,0,0,0,
0,0,0,0,5097,5098,5099,0,0,0,0,0,0,0,0,0,
0,0,0,0,5145,5146,5147,0,0,0,0,0,0,0,0,0,
0,0,0,0,5193,5194,5195,0,0,0,0,0,0,0,0,0,
0,0,0,0,0,0,0,0,0,0,0,0,0,0,0,0
</chunk>
   <chunk x="-16" y="0" width="16" height="16">
0,0,0,0,0,0,0,0,0,0,0,0,0,0,0,0,
836,0,3067,3068,3067,3068,0,0,0,0,0,0,0,0,0,0,
868,0,3099,3100,3099,3100,0,0,0,4147,4148,0,0,0,0,0,
836,0,3131,3132,3131,3132,0,0,0,4179,4180,0,0,0,0,0,
868,0,3163,3164,3163,3164,0,0,0,0,0,0,0,0,0,0,
0,0,0,0,0,0,0,0,0,0,0,0,0,0,0,0,
0,0,0,0,0,0,0,0,0,0,0,0,0,0,0,0,
0,0,0,0,0,0,0,0,0,0,0,0,0,0,0,0,
0,0,0,0,0,0,0,0,0,0,0,0,0,0,0,0,
0,0,0,0,0,0,0,0,0,0,0,0,0,0,0,0,
0,0,0,0,0,0,0,0,0,0,0,0,0,0,0,0,
0,0,0,0,0,0,0,0,0,0,0,0,0,0,0,0,
0,0,0,0,0,0,0,0,0,0,0,0,0,0,0,0,
0,0,0,1213,1214,1215,1216,1217,1218,1213,1214,1215,1216,1217,1218,0,
0,0,0,1245,1246,1247,1248,1249,1250,1245,1246,1247,1248,1249,1250,0,
0,0,0,0,0,0,0,0,0,0,0,0,0,0,0,0
</chunk>
  </data>
 </layer>
 <layer id="14" name="furniture_-0.5" width="15" height="15">
  <data encoding="csv">
   <chunk x="-16" y="-16" width="16" height="16">
0,0,0,0,0,0,0,0,0,0,0,0,0,0,0,0,
0,0,0,0,0,0,0,0,0,0,0,0,0,0,0,0,
0,0,0,0,0,0,0,0,0,0,0,0,0,0,0,0,
0,0,0,0,0,0,0,0,0,0,0,0,0,0,0,0,
0,0,0,0,0,0,0,0,0,0,0,0,0,0,0,0,
0,0,0,0,0,0,0,0,0,0,0,0,0,0,0,0,
0,0,0,0,0,0,0,0,0,0,0,0,0,0,0,0,
0,0,0,0,0,0,0,0,0,0,0,0,0,0,0,0,
0,0,0,0,0,0,0,0,0,0,0,0,0,0,0,0,
0,0,0,0,0,0,0,0,0,0,0,0,0,0,0,0,
0,0,0,0,0,0,0,0,0,0,0,0,0,4073,4074,0,
0,0,0,0,0,0,0,0,0,0,0,0,0,4105,4106,0,
0,0,0,0,0,0,0,0,0,0,0,0,0,4137,4138,0,
0,0,0,0,0,0,0,0,0,0,0,0,0,4169,4170,0,
0,0,0,0,0,0,0,0,0,0,0,0,0,4201,4202,0,
0,0,0,0,0,0,0,0,0,0,0,0,0,0,0,0
</chunk>
  </data>
 </layer>
 <layer id="4" name="wall" width="15" height="15">
  <data encoding="csv">
   <chunk x="-32" y="-16" width="16" height="16">
0,0,0,0,0,0,0,0,0,0,0,0,0,0,0,0,
0,0,0,0,0,0,0,0,0,0,0,0,0,0,0,0,
0,0,0,0,0,0,0,0,0,0,0,0,0,0,0,0,
0,0,0,0,0,0,0,0,0,0,0,0,0,0,0,0,
0,0,0,0,0,0,0,0,0,0,0,0,0,0,0,0,
0,0,0,0,0,0,0,0,0,0,0,0,0,0,0,0,
0,0,0,0,0,0,0,0,0,0,0,0,0,0,0,0,
0,0,0,0,0,0,0,0,0,0,0,0,0,0,0,0,
0,0,0,0,0,0,0,0,0,0,0,0,0,0,0,0,
0,0,0,0,0,0,0,0,0,0,0,0,923,0,0,0,
0,0,0,0,0,0,0,0,0,0,0,0,955,0,0,0,
0,0,0,0,0,0,0,0,0,0,0,0,0,0,0,0,
0,0,0,0,0,0,0,0,0,0,0,0,0,0,0,0,
0,0,0,0,0,0,0,0,0,0,0,0,0,0,0,0,
0,0,0,0,0,0,0,0,0,0,0,0,0,0,0,0,
0,0,0,0,0,0,0,0,0,0,0,0,0,0,0,0
</chunk>
   <chunk x="-32" y="0" width="16" height="16">
0,0,0,0,0,0,0,0,0,0,0,0,0,0,0,0,
0,0,0,0,0,0,0,0,0,0,0,0,0,0,0,0,
0,0,0,0,0,0,0,0,0,0,0,0,0,0,0,0,
0,0,0,0,0,0,0,0,0,0,0,0,0,0,0,0,
0,0,0,0,114,114,155,156,114,114,114,114,114,114,114,114,
0,0,0,0,132,132,173,174,132,132,132,132,132,132,132,132,
0,0,0,0,0,0,0,0,0,0,0,0,0,0,0,0,
0,0,0,0,0,0,0,0,0,0,0,0,0,0,0,0,
0,0,0,0,0,0,0,0,0,0,0,0,0,0,0,0,
0,0,0,0,0,0,0,0,0,0,0,0,0,0,0,0,
0,0,0,0,0,0,0,0,0,0,0,0,0,0,0,0,
0,0,0,0,0,0,0,0,0,0,0,0,0,0,0,0,
0,0,0,0,0,0,0,0,0,0,0,0,0,0,0,0,
0,0,0,0,0,0,0,0,0,0,0,0,0,0,0,0,
0,0,0,146,114,114,114,114,114,114,114,114,114,114,114,114,
0,0,0,164,132,132,132,132,132,132,132,132,132,132,132,132
</chunk>
   <chunk x="-16" y="0" width="16" height="16">
0,0,0,0,0,0,0,0,0,0,0,0,0,0,0,0,
0,0,0,0,0,0,0,0,0,0,0,0,0,0,0,0,
0,0,0,0,0,0,0,0,0,0,0,0,0,0,0,0,
0,0,0,0,0,0,0,0,0,0,0,0,0,0,0,0,
114,114,114,114,114,114,114,114,114,114,114,114,114,114,114,0,
132,132,132,132,132,132,132,132,132,132,132,132,132,132,132,0,
0,0,0,0,0,0,0,0,0,0,0,0,0,0,0,0,
0,0,0,0,0,0,0,0,0,0,0,0,0,0,0,0,
0,0,0,0,0,0,0,0,0,0,0,0,0,0,0,0,
0,0,0,0,0,0,0,0,0,0,0,0,0,0,0,0,
0,0,0,0,0,0,0,0,0,0,0,0,0,0,0,0,
0,0,0,0,0,0,0,0,0,0,0,0,0,0,0,0,
0,0,0,0,0,0,0,0,0,0,0,0,0,0,0,0,
0,0,0,0,0,0,0,0,0,0,0,0,0,0,0,0,
114,114,114,114,114,114,114,114,114,114,114,114,114,114,114,149,
132,132,132,132,132,132,132,132,132,132,132,132,132,132,132,167
</chunk>
  </data>
 </layer>
 <layer id="3" name="furniture" width="15" height="15">
  <data encoding="csv">
   <chunk x="-32" y="-16" width="16" height="16">
0,0,0,0,0,0,0,0,0,0,0,0,0,0,0,0,
0,0,0,0,0,0,0,0,0,0,0,0,0,0,0,0,
0,0,0,0,0,0,0,0,0,0,0,0,0,0,0,0,
0,0,0,0,0,0,0,0,0,0,0,0,0,0,0,0,
0,0,0,0,0,0,0,0,0,0,0,0,0,0,0,0,
0,0,0,0,0,0,0,0,0,0,0,0,0,0,0,0,
0,0,0,0,0,0,0,0,0,0,0,0,0,0,0,0,
0,0,0,0,0,0,0,0,0,0,0,0,0,0,0,0,
0,0,0,0,601,602,603,604,0,0,533,534,0,0,0,269,
0,0,0,0,633,634,635,636,309,310,565,566,0,853,854,301,
0,0,0,0,665,666,667,668,341,342,597,598,0,885,886,333,
0,0,0,0,697,698,699,700,373,374,629,630,0,0,0,365,
0,0,0,0,729,730,731,732,0,0,599,600,0,0,0,0,
0,0,0,0,761,762,763,764,0,0,631,632,0,0,0,0,
0,0,0,0,0,0,0,0,0,0,0,0,0,0,0,0,
0,0,0,0,0,0,0,0,0,0,0,0,0,0,0,0
</chunk>
   <chunk x="-16" y="-16" width="16" height="16">
0,0,0,0,0,0,0,0,0,0,0,0,0,0,0,0,
0,0,0,0,0,0,0,0,0,0,0,0,0,0,0,0,
0,0,0,0,0,0,0,0,0,0,0,0,0,0,0,0,
0,0,0,0,0,0,0,0,0,0,0,0,0,0,0,0,
0,0,0,0,0,0,0,0,0,0,0,0,0,0,0,0,
0,0,0,0,0,0,0,0,0,0,0,0,0,0,0,0,
0,0,0,0,0,0,0,0,0,0,0,0,0,0,0,0,
0,0,0,0,0,0,0,0,0,0,0,0,0,0,0,0,
270,0,0,0,0,0,0,0,0,0,0,0,0,0,0,0,
302,1314,1315,1316,0,0,0,0,0,923,4085,4086,0,4149,4150,0,
334,1346,1347,1348,0,0,1512,1513,1514,955,4117,4118,0,4181,4182,0,
366,1378,1379,1380,0,0,1544,1545,1546,0,0,0,0,0,0,0,
0,0,0,0,0,0,0,0,0,0,0,0,0,0,0,0,
0,0,0,0,0,0,0,0,0,0,0,0,0,0,0,0,
0,0,0,0,0,0,0,0,0,0,0,0,0,0,0,0,
0,0,0,0,0,0,0,0,0,0,0,0,0,0,0,0
</chunk>
   <chunk x="-32" y="0" width="16" height="16">
0,0,0,0,0,0,0,0,0,0,0,0,0,0,0,0,
0,0,0,0,0,0,0,0,0,0,0,0,0,0,0,0,
0,0,0,0,0,0,0,0,0,0,0,0,0,0,0,0,
0,0,0,0,0,0,0,0,0,0,0,0,0,0,0,0,
0,0,0,0,923,924,0,0,0,0,1097,1098,0,923,924,0,
0,0,0,0,955,956,0,0,0,0,1129,1130,0,955,956,0,
0,0,0,0,0,0,0,0,0,0,0,0,0,0,0,0,
0,0,0,0,0,0,0,0,0,0,0,0,0,0,0,0,
0,0,0,0,0,0,0,0,0,0,0,0,0,0,0,0,
0,0,0,0,0,0,0,0,0,0,0,0,0,0,0,0,
0,0,0,0,0,0,0,0,0,0,0,0,0,0,0,0,
0,0,0,0,0,0,0,0,0,0,0,0,0,0,0,0,
0,0,0,0,0,0,0,0,0,0,0,0,0,0,0,0,
0,0,0,0,0,0,0,0,0,0,0,0,0,0,0,0,
0,0,0,0,0,0,0,0,0,0,0,0,0,0,0,0,
0,0,0,0,0,0,0,0,0,0,0,0,0,0,0,0
</chunk>
   <chunk x="-16" y="0" width="16" height="16">
0,0,0,0,0,0,0,0,0,0,0,0,0,0,1627,0,
0,0,0,0,0,0,0,0,0,0,0,0,0,0,1659,0,
0,0,0,0,0,0,0,0,0,0,0,0,0,0,1691,0,
0,0,0,0,0,0,0,0,0,0,0,900,901,902,1723,0,
1097,1098,0,923,924,0,0,155,156,0,0,932,933,934,935,0,
1129,1130,0,955,956,0,0,173,174,0,0,964,965,966,967,0,
0,0,0,0,0,0,0,0,0,0,0,996,997,998,999,0,
0,0,0,0,0,0,0,0,0,0,0,1028,1029,1030,1031,0,
0,0,0,0,0,0,0,0,0,0,0,0,787,788,0,0,
0,0,0,0,0,0,0,0,0,0,0,0,819,820,0,0,
0,0,0,0,0,0,0,0,0,0,0,0,0,0,0,0,
0,0,0,0,0,0,0,0,0,0,0,0,0,0,0,0,
0,0,0,0,0,0,0,0,0,0,0,0,0,0,0,0,
0,0,0,0,0,0,0,0,0,0,0,0,0,0,0,0,
0,0,0,0,0,0,0,0,0,0,0,0,0,0,0,0,
0,0,0,0,0,0,0,0,0,0,0,0,0,0,0,0
</chunk>
  </data>
 </layer>
 <layer id="6" name="wall_2" width="15" height="15">
  <data encoding="csv">
   <chunk x="-16" y="-16" width="16" height="16">
0,0,0,0,0,0,0,0,0,0,0,0,0,0,0,0,
0,0,0,0,0,0,0,0,0,0,0,0,0,0,0,0,
0,0,0,0,0,0,0,0,0,0,0,0,0,0,0,0,
0,0,0,0,0,0,0,0,0,0,0,0,0,0,0,0,
0,0,0,0,0,0,0,0,0,0,0,0,0,0,0,0,
0,0,0,0,0,0,0,0,0,0,0,0,0,0,0,0,
0,0,0,0,0,0,0,0,0,0,0,0,0,0,0,0,
0,0,0,0,0,0,0,0,0,0,0,0,0,0,0,0,
0,0,0,0,0,0,0,0,0,0,0,0,0,0,0,0,
0,77,0,0,0,0,0,0,0,0,0,0,0,0,0,0,
0,95,0,0,0,0,0,0,0,0,0,0,0,0,0,0,
0,95,0,0,0,0,0,0,0,0,0,0,0,0,0,0,
0,0,0,0,0,0,0,0,0,0,0,0,0,0,0,0,
0,0,0,0,0,0,0,0,0,0,0,0,0,0,0,0,
0,0,0,0,0,0,0,0,0,0,0,0,0,0,0,0,
0,0,0,0,0,0,0,0,0,0,0,0,0,0,0,0
</chunk>
  </data>
 </layer>
</map>
